; generated by Slic3r 1.37.2.1-prusa3d-win64 on 2018-02-13 at 17:40:38

; 

; external perimeters extrusion width = 0.45mm
; perimeters extrusion width = 0.45mm
; infill extrusion width = 0.45mm
; solid infill extrusion width = 0.45mm
; top infill extrusion width = 0.40mm
; support material extrusion width = 0.35mm
; first layer extrusion width = 0.42mm

M107 ; disable fan
M115 U3.1.1-RC5 ; tell printer latest fw version
M83  ; extruder relative mode
M104 S215 ; set extruder temp
M140 S60 ; set bed temp
M190 S60 ; wait for bed temp
M109 S215 ; wait for extruder temp
G28 W ; home all without mesh bed level
G80 ; mesh bed leveling
G1 Y-3.0 F1000.0 ; go outside print area
G92 E0.0
G1 X60.0 E9.0  F1000.0 ; intro line
G1 X100.0 E12.5  F1000.0 ; intro line
G92 E0.0
M221 S95
M900 K30
G21 ; set units to millimeters
G90 ; use absolute coordinates
M83 ; use relative distances for extrusion
;BEFORE_LAYER_CHANGE
;0.2


G1 E-0.80000 F2100.00000 ; retract
G1 Z0.600 F12000.000 ; lift Z
;AFTER_LAYER_CHANGE
;0.2
G1 X110.745 Y94.459 F12000.000 ; move to first skirt point
G1 Z0.200 F12000.000 ; restore layer Z
G1 E0.80000 F2100.00000 ; unretract
M204 S1000 ; adjust acceleration
G1 F1800
G1 X113.680 Y91.439 E0.13207 ; skirt
G1 X114.555 Y90.668 E0.03656 ; skirt
G1 X115.516 Y89.992 E0.03682 ; skirt
G1 X116.915 Y89.194 E0.05050 ; skirt
G1 X118.087 Y88.683 E0.04011 ; skirt
G1 X122.514 Y87.471 E0.14391 ; skirt
G1 X123.740 Y87.294 E0.03884 ; skirt
G1 X125.116 Y87.247 E0.04316 ; skirt
G1 X126.510 Y87.318 E0.04377 ; skirt
G1 X127.811 Y87.543 E0.04138 ; skirt
G1 X131.342 Y88.491 E0.11462 ; skirt
G1 X132.850 Y89.077 E0.05076 ; skirt
G1 X134.246 Y89.844 E0.04993 ; skirt
G1 X135.530 Y90.735 E0.04900 ; skirt
G1 X138.561 Y93.679 E0.13246 ; skirt
G1 X139.336 Y94.560 E0.03682 ; skirt
G1 X140.012 Y95.521 E0.03682 ; skirt
G1 X140.810 Y96.922 E0.05059 ; skirt
G1 X141.326 Y98.111 E0.04062 ; skirt
G1 X142.536 Y102.550 E0.14426 ; skirt
G1 X142.711 Y103.793 E0.03935 ; skirt
G1 X142.753 Y105.211 E0.04451 ; skirt
G1 X142.676 Y106.562 E0.04241 ; skirt
G1 X142.450 Y107.837 E0.04062 ; skirt
G1 X141.507 Y111.351 E0.11405 ; skirt
G1 X140.908 Y112.881 E0.05152 ; skirt
G1 X140.029 Y114.451 E0.05643 ; skirt
G1 X139.260 Y115.534 E0.04163 ; skirt
G1 X136.297 Y118.584 E0.13332 ; skirt
G1 X135.420 Y119.352 E0.03656 ; skirt
G1 X134.457 Y120.026 E0.03685 ; skirt
G1 X133.069 Y120.814 E0.05006 ; skirt
G1 X131.880 Y121.328 E0.04062 ; skirt
G1 X127.457 Y122.535 E0.14373 ; skirt
G1 X126.214 Y122.710 E0.03935 ; skirt
G1 X124.792 Y122.753 E0.04462 ; skirt
G1 X123.440 Y122.676 E0.04245 ; skirt
G1 X122.157 Y122.448 E0.04087 ; skirt
G1 X118.647 Y121.506 E0.11396 ; skirt
G1 X117.124 Y120.910 E0.05126 ; skirt
G1 X115.547 Y120.028 E0.05666 ; skirt
G1 X114.458 Y119.254 E0.04189 ; skirt
G1 X111.422 Y116.303 E0.13276 ; skirt
G1 X110.648 Y115.420 E0.03682 ; skirt
G1 X109.980 Y114.464 E0.03656 ; skirt
G1 X109.185 Y113.068 E0.05038 ; skirt
G1 X108.670 Y111.879 E0.04062 ; skirt
G1 X107.465 Y107.454 E0.14378 ; skirt
G1 X107.290 Y106.212 E0.03935 ; skirt
G1 X107.248 Y104.802 E0.04422 ; skirt
G1 X107.324 Y103.445 E0.04261 ; skirt
G1 X107.550 Y102.161 E0.04087 ; skirt
G1 X108.493 Y98.651 E0.11396 ; skirt
G1 X109.088 Y97.128 E0.05126 ; skirt
G1 X109.976 Y95.542 E0.05699 ; skirt
G1 X110.710 Y94.508 E0.03975 ; skirt
G1 X111.017 Y94.727 F12000.000 ; move to first skirt point
G1 F1800
G1 X113.946 Y91.707 E0.13191 ; skirt
G1 X114.794 Y90.960 E0.03542 ; skirt
G1 X115.718 Y90.311 E0.03542 ; skirt
G1 X117.082 Y89.532 E0.04926 ; skirt
G1 X118.227 Y89.033 E0.03915 ; skirt
G1 X122.585 Y87.842 E0.14166 ; skirt
G1 X123.774 Y87.669 E0.03766 ; skirt
G1 X125.116 Y87.624 E0.04210 ; skirt
G1 X126.468 Y87.693 E0.04244 ; skirt
G1 X127.729 Y87.911 E0.04015 ; skirt
G1 X131.230 Y88.851 E0.11365 ; skirt
G1 X132.697 Y89.422 E0.04936 ; skirt
G1 X134.248 Y90.288 E0.05569 ; skirt
G1 X135.305 Y91.039 E0.04065 ; skirt
G1 X138.293 Y93.944 E0.13067 ; skirt
G1 X139.044 Y94.798 E0.03567 ; skirt
G1 X139.697 Y95.729 E0.03567 ; skirt
G1 X140.476 Y97.097 E0.04934 ; skirt
G1 X140.975 Y98.250 E0.03940 ; skirt
G1 X142.166 Y102.620 E0.14201 ; skirt
G1 X142.335 Y103.825 E0.03816 ; skirt
G1 X142.376 Y105.210 E0.04343 ; skirt
G1 X142.301 Y106.518 E0.04109 ; skirt
G1 X142.081 Y107.756 E0.03940 ; skirt
G1 X141.147 Y111.239 E0.11309 ; skirt
G1 X140.563 Y112.727 E0.05011 ; skirt
G1 X139.705 Y114.259 E0.05507 ; skirt
G1 X138.957 Y115.309 E0.04040 ; skirt
G1 X136.032 Y118.316 E0.13152 ; skirt
G1 X135.107 Y119.118 E0.03841 ; skirt
G1 X134.081 Y119.815 E0.03890 ; skirt
G1 X132.838 Y120.508 E0.04461 ; skirt
G1 X131.748 Y120.975 E0.03716 ; skirt
G1 X127.387 Y122.164 E0.14175 ; skirt
G1 X126.182 Y122.334 E0.03816 ; skirt
G1 X124.794 Y122.376 E0.04354 ; skirt
G1 X123.476 Y122.300 E0.04138 ; skirt
G1 X122.239 Y122.080 E0.03940 ; skirt
G1 X118.766 Y121.148 E0.11275 ; skirt
G1 X117.278 Y120.565 E0.05011 ; skirt
G1 X115.732 Y119.699 E0.05555 ; skirt
G1 X114.683 Y118.951 E0.04040 ; skirt
G1 X111.690 Y116.038 E0.13096 ; skirt
G1 X110.946 Y115.188 E0.03542 ; skirt
G1 X110.298 Y114.263 E0.03542 ; skirt
G1 X109.520 Y112.893 E0.04939 ; skirt
G1 X109.021 Y111.740 E0.03940 ; skirt
G1 X107.836 Y107.384 E0.14154 ; skirt
G1 X107.666 Y106.179 E0.03816 ; skirt
G1 X107.625 Y104.804 E0.04315 ; skirt
G1 X107.699 Y103.480 E0.04155 ; skirt
G1 X107.918 Y102.243 E0.03940 ; skirt
G1 X108.854 Y98.763 E0.11299 ; skirt
G1 X109.433 Y97.282 E0.04986 ; skirt
G1 X110.296 Y95.741 E0.05539 ; skirt
G1 X110.982 Y94.776 E0.03713 ; skirt
G1 F9600
G1 X113.523 Y92.145 E-0.76000 ; wipe and retract
G1 E-0.04000 F2100.00000 ; retract
G1 Z0.800 F12000.000 ; lift Z
G1 X110.341 Y101.074 F12000.000 ; move to first brim point
G1 Z0.200 F12000.000 ; restore layer Z
G1 E0.80000 F2100.00000 ; unretract
G1 F1800
G1 X110.385 Y100.505 E0.01790 ; brim
G1 X111.165 Y97.997 E0.08234 ; brim
G1 X112.654 Y95.686 E0.08619 ; brim
G1 X113.917 Y94.486 E0.05461 ; brim
G1 X114.265 Y94.256 E0.01309 ; brim
G1 X115.389 Y92.905 E0.05510 ; brim
G1 X116.138 Y92.338 E0.02945 ; brim
G1 X119.194 Y90.674 E0.10910 ; brim
G1 X120.791 Y90.337 E0.05119 ; brim
G1 X121.092 Y90.320 E0.00945 ; brim
G1 X121.457 Y90.136 E0.01282 ; brim
G1 X122.939 Y89.682 E0.04862 ; brim
G1 X125.440 Y89.521 E0.07857 ; brim
G1 X127.126 Y89.696 E0.05314 ; brim
G1 X128.404 Y90.072 E0.04177 ; brim
G1 X128.924 Y90.339 E0.01831 ; brim
G1 X129.471 Y90.382 E0.01723 ; brim
G1 X131.989 Y91.158 E0.08262 ; brim
G1 X134.378 Y92.708 E0.08929 ; brim
G1 X135.444 Y93.828 E0.04847 ; brim
G1 X135.728 Y94.255 E0.01608 ; brim
G1 X137.131 Y95.429 E0.05737 ; brim
G1 X137.738 Y96.240 E0.03177 ; brim
G1 X139.337 Y99.228 E0.10624 ; brim
G1 X139.650 Y100.703 E0.04730 ; brim
G1 X139.671 Y101.074 E0.01165 ; brim
G1 X139.864 Y101.455 E0.01339 ; brim
G1 X140.318 Y102.937 E0.04860 ; brim
G1 X140.482 Y105.380 E0.07675 ; brim
G1 X140.354 Y106.838 E0.04590 ; brim
G1 X140.032 Y108.097 E0.04076 ; brim
G1 X139.665 Y108.870 E0.02681 ; brim
G1 X139.621 Y109.465 E0.01870 ; brim
G1 X138.867 Y111.941 E0.08116 ; brim
G1 X137.399 Y114.251 E0.08580 ; brim
G1 X136.258 Y115.378 E0.05031 ; brim
G1 X135.776 Y115.701 E0.01818 ; brim
G1 X134.614 Y117.092 E0.05682 ; brim
G1 X133.865 Y117.660 E0.02949 ; brim
G1 X130.803 Y119.328 E0.10932 ; brim
G1 X129.203 Y119.664 E0.05125 ; brim
G1 X128.914 Y119.680 E0.00907 ; brim
G1 X128.580 Y119.848 E0.01174 ; brim
G1 X127.050 Y120.321 E0.05019 ; brim
G1 X124.549 Y120.478 E0.07859 ; brim
G1 X122.872 Y120.303 E0.05285 ; brim
G1 X121.595 Y119.927 E0.04174 ; brim
G1 X121.072 Y119.658 E0.01845 ; brim
G1 X120.483 Y119.612 E0.01853 ; brim
G1 X117.985 Y118.830 E0.08206 ; brim
G1 X115.682 Y117.342 E0.08596 ; brim
G1 X114.485 Y116.081 E0.05452 ; brim
G1 X114.267 Y115.753 E0.01236 ; brim
G1 X112.891 Y114.596 E0.05635 ; brim
G1 X112.329 Y113.850 E0.02930 ; brim
G1 X110.672 Y110.801 E0.10879 ; brim
G1 X110.337 Y109.207 E0.05107 ; brim
G1 X110.321 Y108.918 E0.00908 ; brim
G1 X110.162 Y108.602 E0.01110 ; brim
G1 X109.676 Y107.025 E0.05174 ; brim
G1 X109.522 Y104.550 E0.07773 ; brim
G1 X109.697 Y102.872 E0.05291 ; brim
G1 X110.073 Y101.595 E0.04173 ; brim
G1 X110.313 Y101.127 E0.01649 ; brim
G1 X110.712 Y101.178 F12000.000 ; move to first brim point
G1 F1800
G1 X110.752 Y100.594 E0.01837 ; brim
G1 X111.496 Y98.178 E0.07924 ; brim
G1 X112.931 Y95.944 E0.08325 ; brim
G1 X114.163 Y94.772 E0.05333 ; brim
G1 X114.518 Y94.541 E0.01328 ; brim
G1 X115.635 Y93.192 E0.05490 ; brim
G1 X116.332 Y92.662 E0.02745 ; brim
G1 X119.299 Y91.037 E0.10607 ; brim
G1 X120.853 Y90.709 E0.04981 ; brim
G1 X121.191 Y90.693 E0.01062 ; brim
G1 X121.585 Y90.491 E0.01389 ; brim
G1 X122.987 Y90.057 E0.04600 ; brim
G1 X125.418 Y89.898 E0.07639 ; brim
G1 X127.036 Y90.063 E0.05101 ; brim
G1 X128.280 Y90.429 E0.04063 ; brim
G1 X128.819 Y90.710 E0.01909 ; brim
G1 X129.383 Y90.749 E0.01771 ; brim
G1 X131.807 Y91.489 E0.07947 ; brim
G1 X134.121 Y92.984 E0.08637 ; brim
G1 X135.159 Y94.075 E0.04722 ; brim
G1 X135.444 Y94.509 E0.01626 ; brim
G1 X136.843 Y95.673 E0.05710 ; brim
G1 X137.413 Y96.432 E0.02974 ; brim
G1 X138.974 Y99.333 E0.10328 ; brim
G1 X139.278 Y100.766 E0.04595 ; brim
G1 X139.298 Y101.175 E0.01282 ; brim
G1 X139.509 Y101.584 E0.01442 ; brim
G1 X139.943 Y102.985 E0.04601 ; brim
G1 X140.105 Y105.362 E0.07470 ; brim
G1 X139.985 Y106.760 E0.04398 ; brim
G1 X139.671 Y107.986 E0.03967 ; brim
G1 X139.293 Y108.773 E0.02738 ; brim
G1 X139.253 Y109.377 E0.01901 ; brim
G1 X138.534 Y111.761 E0.07807 ; brim
G1 X137.119 Y113.998 E0.08298 ; brim
G1 X136.006 Y115.097 E0.04903 ; brim
G1 X135.522 Y115.416 E0.01821 ; brim
G1 X134.368 Y116.805 E0.05659 ; brim
G1 X133.671 Y117.336 E0.02749 ; brim
G1 X130.698 Y118.964 E0.10628 ; brim
G1 X129.141 Y119.292 E0.04987 ; brim
G1 X128.815 Y119.307 E0.01025 ; brim
G1 X128.451 Y119.494 E0.01283 ; brim
G1 X127.003 Y119.946 E0.04755 ; brim
G1 X124.571 Y120.102 E0.07641 ; brim
G1 X122.962 Y119.936 E0.05073 ; brim
G1 X121.720 Y119.571 E0.04059 ; brim
G1 X121.176 Y119.287 E0.01922 ; brim
G1 X120.572 Y119.245 E0.01898 ; brim
G1 X118.167 Y118.499 E0.07896 ; brim
G1 X115.940 Y117.066 E0.08304 ; brim
G1 X114.771 Y115.835 E0.05324 ; brim
G1 X114.552 Y115.500 E0.01252 ; brim
G1 X113.179 Y114.351 E0.05615 ; brim
G1 X112.653 Y113.657 E0.02732 ; brim
G1 X111.036 Y110.696 E0.10576 ; brim
G1 X110.709 Y109.145 E0.04970 ; brim
G1 X110.694 Y108.818 E0.01026 ; brim
G1 X110.516 Y108.473 E0.01217 ; brim
G1 X110.051 Y106.978 E0.04910 ; brim
G1 X109.899 Y104.573 E0.07555 ; brim
G1 X110.064 Y102.962 E0.05079 ; brim
G1 X110.430 Y101.720 E0.04059 ; brim
G1 X110.684 Y101.231 E0.01726 ; brim
G1 X111.084 Y101.282 F12000.000 ; move to first brim point
G1 F1800
G1 X111.120 Y100.681 E0.01887 ; brim
G1 X111.828 Y98.360 E0.07609 ; brim
G1 X113.235 Y96.167 E0.08170 ; brim
G1 X114.409 Y95.059 E0.05061 ; brim
G1 X114.771 Y94.827 E0.01350 ; brim
G1 X115.882 Y93.478 E0.05477 ; brim
G1 X116.527 Y92.985 E0.02545 ; brim
G1 X119.404 Y91.400 E0.10301 ; brim
G1 X120.914 Y91.081 E0.04839 ; brim
G1 X121.291 Y91.067 E0.01181 ; brim
G1 X121.714 Y90.846 E0.01498 ; brim
G1 X123.077 Y90.423 E0.04474 ; brim
G1 X125.396 Y90.275 E0.07286 ; brim
G1 X126.947 Y90.430 E0.04888 ; brim
G1 X128.154 Y90.785 E0.03946 ; brim
G1 X128.716 Y91.082 E0.01991 ; brim
G1 X129.296 Y91.116 E0.01823 ; brim
G1 X131.626 Y91.820 E0.07630 ; brim
G1 X133.863 Y93.261 E0.08344 ; brim
G1 X134.873 Y94.322 E0.04594 ; brim
G1 X135.158 Y94.762 E0.01644 ; brim
G1 X136.556 Y95.918 E0.05688 ; brim
G1 X137.089 Y96.624 E0.02772 ; brim
G1 X138.611 Y99.438 E0.10030 ; brim
G1 X138.906 Y100.829 E0.04459 ; brim
G1 X138.925 Y101.276 E0.01403 ; brim
G1 X139.154 Y101.712 E0.01547 ; brim
G1 X139.577 Y103.076 E0.04475 ; brim
G1 X139.728 Y105.345 E0.07131 ; brim
G1 X139.616 Y106.682 E0.04206 ; brim
G1 X139.311 Y107.873 E0.03856 ; brim
G1 X138.920 Y108.676 E0.02799 ; brim
G1 X138.885 Y109.292 E0.01934 ; brim
G1 X138.201 Y111.582 E0.07496 ; brim
G1 X136.838 Y113.745 E0.08014 ; brim
G1 X135.755 Y114.815 E0.04773 ; brim
G1 X135.268 Y115.131 E0.01823 ; brim
G1 X134.122 Y116.519 E0.05642 ; brim
G1 X133.476 Y117.013 E0.02549 ; brim
G1 X130.593 Y118.601 E0.10322 ; brim
G1 X129.080 Y118.919 E0.04846 ; brim
G1 X128.716 Y118.933 E0.01144 ; brim
G1 X128.322 Y119.139 E0.01394 ; brim
G1 X126.913 Y119.579 E0.04629 ; brim
G1 X124.594 Y119.725 E0.07285 ; brim
G1 X123.051 Y119.570 E0.04861 ; brim
G1 X121.845 Y119.214 E0.03942 ; brim
G1 X121.280 Y118.915 E0.02004 ; brim
G1 X120.661 Y118.878 E0.01946 ; brim
G1 X118.349 Y118.168 E0.07581 ; brim
G1 X116.164 Y116.761 E0.08149 ; brim
G1 X115.058 Y115.589 E0.05052 ; brim
G1 X114.839 Y115.248 E0.01272 ; brim
G1 X113.466 Y114.105 E0.05602 ; brim
G1 X112.976 Y113.462 E0.02533 ; brim
G1 X111.399 Y110.591 E0.10272 ; brim
G1 X111.082 Y109.084 E0.04829 ; brim
G1 X111.068 Y108.719 E0.01146 ; brim
G1 X110.871 Y108.343 E0.01332 ; brim
G1 X110.426 Y106.931 E0.04642 ; brim
G1 X110.275 Y104.595 E0.07338 ; brim
G1 X110.431 Y103.051 E0.04866 ; brim
G1 X110.786 Y101.845 E0.03942 ; brim
G1 X111.056 Y101.335 E0.01808 ; brim
G1 X111.456 Y101.386 F12000.000 ; move to first brim point
G1 F1800
G1 X111.488 Y100.767 E0.01942 ; brim
G1 X112.160 Y98.541 E0.07292 ; brim
G1 X113.511 Y96.425 E0.07871 ; brim
G1 X114.654 Y95.346 E0.04927 ; brim
G1 X115.024 Y95.114 E0.01371 ; brim
G1 X116.129 Y93.764 E0.05471 ; brim
G1 X116.722 Y93.308 E0.02345 ; brim
G1 X119.510 Y91.763 E0.09994 ; brim
G1 X120.975 Y91.454 E0.04694 ; brim
G1 X121.390 Y91.442 E0.01302 ; brim
G1 X121.843 Y91.200 E0.01611 ; brim
G1 X123.167 Y90.790 E0.04345 ; brim
G1 X125.374 Y90.651 E0.06934 ; brim
G1 X126.858 Y90.797 E0.04675 ; brim
G1 X128.029 Y91.141 E0.03826 ; brim
G1 X128.612 Y91.455 E0.02077 ; brim
G1 X129.211 Y91.484 E0.01880 ; brim
G1 X131.444 Y92.152 E0.07308 ; brim
G1 X133.640 Y93.565 E0.08187 ; brim
G1 X134.586 Y94.567 E0.04322 ; brim
G1 X134.872 Y95.015 E0.01666 ; brim
G1 X136.269 Y96.164 E0.05672 ; brim
G1 X136.764 Y96.817 E0.02570 ; brim
G1 X138.247 Y99.543 E0.09730 ; brim
G1 X138.533 Y100.890 E0.04319 ; brim
G1 X138.551 Y101.377 E0.01526 ; brim
G1 X138.800 Y101.842 E0.01655 ; brim
G1 X139.210 Y103.166 E0.04346 ; brim
G1 X139.351 Y105.328 E0.06793 ; brim
G1 X139.246 Y106.604 E0.04014 ; brim
G1 X138.950 Y107.760 E0.03743 ; brim
G1 X138.547 Y108.580 E0.02864 ; brim
G1 X138.517 Y109.208 E0.01970 ; brim
G1 X137.868 Y111.404 E0.07182 ; brim
G1 X136.558 Y113.492 E0.07728 ; brim
G1 X135.505 Y114.532 E0.04639 ; brim
G1 X134.983 Y114.866 E0.01943 ; brim
G1 X134.911 Y114.981 E0.00425 ; brim
G1 X133.875 Y116.233 E0.05095 ; brim
G1 X133.281 Y116.690 E0.02352 ; brim
G1 X130.487 Y118.238 E0.10013 ; brim
G1 X129.020 Y118.547 E0.04701 ; brim
G1 X128.616 Y118.558 E0.01267 ; brim
G1 X128.192 Y118.785 E0.01508 ; brim
G1 X126.822 Y119.212 E0.04499 ; brim
G1 X124.616 Y119.348 E0.06931 ; brim
G1 X123.141 Y119.203 E0.04647 ; brim
G1 X121.971 Y118.858 E0.03823 ; brim
G1 X121.384 Y118.543 E0.02090 ; brim
G1 X120.747 Y118.510 E0.01999 ; brim
G1 X118.530 Y117.836 E0.07265 ; brim
G1 X116.422 Y116.486 E0.07851 ; brim
G1 X115.345 Y115.345 E0.04918 ; brim
G1 X115.107 Y114.965 E0.01408 ; brim
G1 X114.993 Y114.893 E0.00420 ; brim
G1 X113.752 Y113.859 E0.05065 ; brim
G1 X113.299 Y113.267 E0.02337 ; brim
G1 X111.762 Y110.486 E0.09965 ; brim
G1 X111.454 Y109.024 E0.04685 ; brim
G1 X111.443 Y108.619 E0.01268 ; brim
G1 X111.225 Y108.212 E0.01448 ; brim
G1 X110.792 Y106.839 E0.04513 ; brim
G1 X110.652 Y104.617 E0.06981 ; brim
G1 X110.798 Y103.140 E0.04652 ; brim
G1 X111.142 Y101.971 E0.03823 ; brim
G1 X111.428 Y101.439 E0.01894 ; brim
G1 X111.830 Y101.489 F12000.000 ; move to first brim point
G1 F1800
G1 X111.856 Y100.851 E0.02001 ; brim
G1 X112.492 Y98.721 E0.06969 ; brim
G1 X113.816 Y96.649 E0.07713 ; brim
G1 X114.897 Y95.635 E0.04645 ; brim
G1 X115.310 Y95.381 E0.01522 ; brim
G1 X115.396 Y95.240 E0.00516 ; brim
G1 X116.376 Y94.049 E0.04837 ; brim
G1 X116.918 Y93.630 E0.02148 ; brim
G1 X119.616 Y92.126 E0.09683 ; brim
G1 X121.034 Y91.827 E0.04546 ; brim
G1 X121.489 Y91.818 E0.01427 ; brim
G1 X121.973 Y91.555 E0.01727 ; brim
G1 X123.257 Y91.157 E0.04213 ; brim
G1 X125.353 Y91.028 E0.06585 ; brim
G1 X126.769 Y91.164 E0.04460 ; brim
