; generated by Slic3r 1.37.2.1-prusa3d-win64 on 2018-02-13 at 18:22:25

; 

; external perimeters extrusion width = 0.45mm
; perimeters extrusion width = 0.45mm
; infill extrusion width = 0.45mm
; solid infill extrusion width = 0.45mm
; top infill extrusion width = 0.40mm
; support material extrusion width = 0.35mm
; first layer extrusion width = 0.42mm

M107 ; disable fan
M115 U3.1.1-RC5 ; tell printer latest fw version
M83  ; extruder relative mode
M104 S215 ; set extruder temp
M140 S60 ; set bed temp
M190 S60 ; wait for bed temp
M109 S215 ; wait for extruder temp
G28 W ; home all without mesh bed level
G80 ; mesh bed leveling
G1 Y-3.0 F1000.0 ; go outside print area
G92 E0.0
G1 X60.0 E9.0  F1000.0 ; intro line
G1 X100.0 E12.5  F1000.0 ; intro line
G92 E0.0
M221 S95
M900 K30
G21 ; set units to millimeters
G90 ; use absolute coordinates
M83 ; use relative distances for extrusion
;BEFORE_LAYER_CHANGE
;0.2


G1 E-0.80000 F2100.00000 ; retract
G1 Z0.600 F12000.000 ; lift Z
;AFTER_LAYER_CHANGE
;0.2
G1 X113.969 Y95.634 F12000.000 ; move to first skirt point
G1 Z0.200 F12000.000 ; restore layer Z
G1 E0.80000 F2100.00000 ; unretract
M204 S1000 ; adjust acceleration
G1 F1800
G1 X114.859 Y94.682 E0.04087 ; skirt
G1 X115.866 Y93.791 E0.04214 ; skirt
G1 X116.958 Y92.995 E0.04239 ; skirt
G1 X118.108 Y92.314 E0.04189 ; skirt
G1 X119.392 Y91.715 E0.04442 ; skirt
G1 X120.573 Y91.293 E0.03935 ; skirt
G1 X121.955 Y90.944 E0.04467 ; skirt
G1 X123.565 Y90.717 E0.05100 ; skirt
G1 X124.884 Y90.668 E0.04137 ; skirt
G1 X126.347 Y90.758 E0.04594 ; skirt
G1 X127.657 Y90.970 E0.04163 ; skirt
G1 X128.989 Y91.319 E0.04316 ; skirt
G1 X130.235 Y91.777 E0.04163 ; skirt
G1 X131.440 Y92.354 E0.04189 ; skirt
G1 X132.613 Y93.059 E0.04290 ; skirt
G1 X133.686 Y93.854 E0.04189 ; skirt
G1 X134.765 Y94.834 E0.04569 ; skirt
G1 X135.667 Y95.830 E0.04214 ; skirt
G1 X136.635 Y97.157 E0.05151 ; skirt
G1 X137.350 Y98.399 E0.04493 ; skirt
G1 X137.881 Y99.572 E0.04036 ; skirt
G1 X138.341 Y100.912 E0.04442 ; skirt
G1 X138.653 Y102.236 E0.04265 ; skirt
G1 X138.837 Y103.584 E0.04265 ; skirt
G1 X138.889 Y104.991 E0.04417 ; skirt
G1 X138.814 Y106.285 E0.04062 ; skirt
G1 X138.591 Y107.708 E0.04518 ; skirt
G1 X138.253 Y109.011 E0.04220 ; skirt
G1 X137.678 Y110.548 E0.05144 ; skirt
G1 X137.021 Y111.849 E0.04569 ; skirt
G1 X136.309 Y112.969 E0.04163 ; skirt
G1 X135.468 Y114.048 E0.04290 ; skirt
G1 X134.562 Y115.008 E0.04138 ; skirt
G1 X133.557 Y115.889 E0.04189 ; skirt
G1 X132.454 Y116.684 E0.04265 ; skirt
G1 X131.301 Y117.359 E0.04189 ; skirt
G1 X129.991 Y117.960 E0.04518 ; skirt
G1 X128.705 Y118.403 E0.04264 ; skirt
G1 X127.112 Y118.770 E0.05126 ; skirt
G1 X125.681 Y118.941 E0.04518 ; skirt
G1 X124.411 Y118.969 E0.03986 ; skirt
G1 X122.997 Y118.866 E0.04442 ; skirt
G1 X121.689 Y118.641 E0.04163 ; skirt
G1 X120.391 Y118.290 E0.04214 ; skirt
G1 X119.133 Y117.817 E0.04214 ; skirt
G1 X117.954 Y117.242 E0.04113 ; skirt
G1 X116.786 Y116.529 E0.04290 ; skirt
G1 X115.731 Y115.737 E0.04138 ; skirt
G1 X114.651 Y114.746 E0.04594 ; skirt
G1 X113.579 Y113.523 E0.05100 ; skirt
G1 X112.807 Y112.433 E0.04188 ; skirt
G1 X112.101 Y111.195 E0.04468 ; skirt
G1 X111.577 Y110.028 E0.04011 ; skirt
G1 X111.124 Y108.694 E0.04417 ; skirt
G1 X110.816 Y107.378 E0.04239 ; skirt
G1 X110.635 Y106.030 E0.04265 ; skirt
G1 X110.584 Y104.638 E0.04366 ; skirt
G1 X110.660 Y103.350 E0.04045 ; skirt
G1 X110.881 Y101.943 E0.04467 ; skirt
G1 X111.304 Y100.368 E0.05111 ; skirt
G1 X111.786 Y99.114 E0.04213 ; skirt
G1 X112.432 Y97.826 E0.04518 ; skirt
G1 X113.137 Y96.710 E0.04138 ; skirt
G1 X113.932 Y95.682 E0.04077 ; skirt
G1 X114.230 Y95.912 F12000.000 ; move to first skirt point
G1 F1800
G1 X115.128 Y94.947 E0.04134 ; skirt
G1 X116.102 Y94.084 E0.04079 ; skirt
G1 X117.167 Y93.309 E0.04129 ; skirt
G1 X118.279 Y92.650 E0.04054 ; skirt
G1 X119.530 Y92.066 E0.04328 ; skirt
G1 X120.672 Y91.657 E0.03805 ; skirt
G1 X122.018 Y91.316 E0.04353 ; skirt
G1 X123.593 Y91.093 E0.04988 ; skirt
G1 X124.885 Y91.045 E0.04053 ; skirt
G1 X126.302 Y91.132 E0.04452 ; skirt
G1 X127.586 Y91.341 E0.04079 ; skirt
G1 X128.875 Y91.679 E0.04179 ; skirt
G1 X130.089 Y92.125 E0.04054 ; skirt
G1 X131.263 Y92.686 E0.04079 ; skirt
G1 X132.404 Y93.374 E0.04179 ; skirt
G1 X133.443 Y94.143 E0.04054 ; skirt
G1 X134.495 Y95.097 E0.04452 ; skirt
G1 X135.373 Y96.067 E0.04103 ; skirt
G1 X136.316 Y97.359 E0.05013 ; skirt
G1 X137.017 Y98.575 E0.04403 ; skirt
G1 X137.530 Y99.710 E0.03904 ; skirt
G1 X137.978 Y101.016 E0.04328 ; skirt
G1 X138.282 Y102.305 E0.04154 ; skirt
G1 X138.461 Y103.618 E0.04154 ; skirt
G1 X138.512 Y104.989 E0.04303 ; skirt
G1 X138.439 Y106.248 E0.03954 ; skirt
G1 X138.223 Y107.627 E0.04378 ; skirt
G1 X137.894 Y108.896 E0.04107 ; skirt
G1 X137.331 Y110.399 E0.05035 ; skirt
G1 X136.691 Y111.667 E0.04453 ; skirt
G1 X135.997 Y112.757 E0.04054 ; skirt
G1 X135.182 Y113.802 E0.04154 ; skirt
G1 X134.300 Y114.737 E0.04029 ; skirt
G1 X133.322 Y115.594 E0.04079 ; skirt
G1 X132.247 Y116.369 E0.04154 ; skirt
G1 X131.124 Y117.026 E0.04079 ; skirt
G1 X129.848 Y117.612 E0.04403 ; skirt
G1 X128.595 Y118.042 E0.04153 ; skirt
G1 X127.037 Y118.401 E0.05013 ; skirt
G1 X125.650 Y118.565 E0.04377 ; skirt
G1 X124.413 Y118.592 E0.03880 ; skirt
G1 X123.045 Y118.492 E0.04303 ; skirt
G1 X121.770 Y118.273 E0.04054 ; skirt
G1 X120.507 Y117.931 E0.04104 ; skirt
G1 X119.282 Y117.470 E0.04104 ; skirt
G1 X118.141 Y116.914 E0.03979 ; skirt
G1 X117.003 Y116.220 E0.04179 ; skirt
G1 X115.975 Y115.450 E0.04029 ; skirt
G1 X114.922 Y114.485 E0.04477 ; skirt
G1 X113.873 Y113.288 E0.04988 ; skirt
G1 X113.127 Y112.233 E0.04053 ; skirt
G1 X112.439 Y111.027 E0.04353 ; skirt
G1 X111.928 Y109.891 E0.03904 ; skirt
G1 X111.487 Y108.592 E0.04303 ; skirt
G1 X111.187 Y107.309 E0.04129 ; skirt
G1 X111.010 Y105.996 E0.04154 ; skirt
G1 X110.961 Y104.641 E0.04253 ; skirt
G1 X111.035 Y103.395 E0.03913 ; skirt
G1 X111.250 Y102.023 E0.04354 ; skirt
G1 X111.663 Y100.483 E0.05000 ; skirt
G1 X112.133 Y99.262 E0.04103 ; skirt
G1 X112.763 Y98.007 E0.04403 ; skirt
G1 X113.450 Y96.921 E0.04029 ; skirt
G1 X114.194 Y95.960 E0.03810 ; skirt
G1 F9600
G1 X115.128 Y94.947 E-0.28640 ; wipe and retract
G1 F9600
G1 X116.102 Y94.084 E-0.27035 ; wipe and retract
G1 F9600
G1 X116.893 Y93.509 E-0.20325 ; wipe and retract
G1 E-0.04000 F2100.00000 ; retract
G1 Z0.800 F12000.000 ; lift Z
G1 X115.850 Y96.929 F12000.000 ; move to first brim point
G1 Z0.200 F12000.000 ; restore layer Z
G1 E0.80000 F2100.00000 ; unretract
G1 F1800
G1 X116.687 Y96.076 E0.03746 ; brim
G1 X117.517 Y95.380 E0.03398 ; brim
G1 X118.418 Y94.754 E0.03438 ; brim
G1 X119.372 Y94.215 E0.03437 ; brim
G1 X120.357 Y93.771 E0.03385 ; brim
G1 X121.312 Y93.439 E0.03171 ; brim
G1 X122.118 Y93.227 E0.02613 ; brim
G1 X122.932 Y93.072 E0.02600 ; brim
G1 X124.140 Y92.950 E0.03806 ; brim
G1 X125.341 Y92.951 E0.03765 ; brim
G1 X126.466 Y93.061 E0.03543 ; brim
G1 X127.576 Y93.279 E0.03547 ; brim
G1 X128.661 Y93.601 E0.03548 ; brim
G1 X129.706 Y94.024 E0.03537 ; brim
G1 X130.647 Y94.509 E0.03319 ; brim
G1 X131.556 Y95.086 E0.03376 ; brim
G1 X132.361 Y95.702 E0.03179 ; brim
G1 X132.950 Y96.230 E0.02478 ; brim
G1 X133.502 Y96.793 E0.02475 ; brim
G1 X134.236 Y97.678 E0.03602 ; brim
G1 X134.873 Y98.615 E0.03555 ; brim
G1 X135.418 Y99.608 E0.03550 ; brim
G1 X135.865 Y100.648 E0.03549 ; brim
G1 X136.211 Y101.725 E0.03548 ; brim
G1 X136.454 Y102.832 E0.03553 ; brim
G1 X136.590 Y103.958 E0.03555 ; brim
G1 X136.618 Y105.093 E0.03560 ; brim
G1 X136.574 Y105.877 E0.02464 ; brim
G1 X136.478 Y106.663 E0.02481 ; brim
G1 X136.277 Y107.657 E0.03179 ; brim
G1 X135.974 Y108.686 E0.03366 ; brim
G1 X135.583 Y109.677 E0.03338 ; brim
G1 X135.039 Y110.744 E0.03756 ; brim
G1 X134.393 Y111.746 E0.03739 ; brim
G1 X133.651 Y112.679 E0.03736 ; brim
G1 X132.813 Y113.538 E0.03764 ; brim
G1 X131.965 Y114.252 E0.03475 ; brim
G1 X131.039 Y114.895 E0.03536 ; brim
G1 X130.133 Y115.408 E0.03264 ; brim
G1 X129.385 Y115.756 E0.02585 ; brim
G1 X128.607 Y116.056 E0.02615 ; brim
G1 X127.515 Y116.374 E0.03566 ; brim
G1 X126.397 Y116.587 E0.03567 ; brim
G1 X125.261 Y116.692 E0.03578 ; brim
G1 X124.132 Y116.688 E0.03541 ; brim
G1 X123.009 Y116.577 E0.03538 ; brim
G1 X121.917 Y116.364 E0.03487 ; brim
G1 X120.849 Y116.049 E0.03494 ; brim
G1 X119.807 Y115.633 E0.03518 ; brim
G1 X119.098 Y115.281 E0.02480 ; brim
G1 X118.416 Y114.884 E0.02474 ; brim
G1 X117.580 Y114.307 E0.03186 ; brim
G1 X116.746 Y113.616 E0.03396 ; brim
G1 X115.998 Y112.873 E0.03305 ; brim
G1 X115.269 Y112.003 E0.03559 ; brim
G1 X114.618 Y111.051 E0.03615 ; brim
G1 X114.062 Y110.043 E0.03610 ; brim
G1 X113.607 Y108.985 E0.03611 ; brim
G1 X113.261 Y107.906 E0.03554 ; brim
G1 X113.016 Y106.782 E0.03605 ; brim
G1 X112.881 Y105.640 E0.03607 ; brim
G1 X112.857 Y104.497 E0.03584 ; brim
G1 X112.934 Y103.429 E0.03359 ; brim
G1 X113.105 Y102.384 E0.03319 ; brim
G1 X113.354 Y101.401 E0.03179 ; brim
G1 X113.606 Y100.655 E0.02471 ; brim
G1 X113.909 Y99.919 E0.02493 ; brim
G1 X114.455 Y98.859 E0.03739 ; brim
G1 X115.105 Y97.857 E0.03744 ; brim
G1 X115.813 Y96.976 E0.03544 ; brim
G1 X116.106 Y97.211 F12000.000 ; move to first brim point
G1 F1800
G1 X116.937 Y96.359 E0.03730 ; brim
G1 X117.739 Y95.684 E0.03288 ; brim
G1 X118.611 Y95.078 E0.03329 ; brim
G1 X119.535 Y94.555 E0.03329 ; brim
G1 X120.489 Y94.125 E0.03280 ; brim
G1 X121.415 Y93.802 E0.03075 ; brim
G1 X122.195 Y93.596 E0.02528 ; brim
G1 X122.995 Y93.444 E0.02554 ; brim
G1 X124.150 Y93.327 E0.03639 ; brim
G1 X125.314 Y93.327 E0.03649 ; brim
G1 X126.402 Y93.433 E0.03430 ; brim
G1 X127.477 Y93.643 E0.03435 ; brim
G1 X128.528 Y93.955 E0.03436 ; brim
G1 X129.542 Y94.363 E0.03427 ; brim
G1 X130.453 Y94.832 E0.03213 ; brim
G1 X131.334 Y95.391 E0.03271 ; brim
G1 X132.115 Y95.988 E0.03085 ; brim
G1 X132.685 Y96.498 E0.02396 ; brim
G1 X133.228 Y97.052 E0.02431 ; brim
G1 X133.929 Y97.897 E0.03445 ; brim
G1 X134.547 Y98.805 E0.03442 ; brim
G1 X135.075 Y99.766 E0.03437 ; brim
G1 X135.509 Y100.772 E0.03437 ; brim
G1 X135.845 Y101.815 E0.03435 ; brim
G1 X136.081 Y102.887 E0.03440 ; brim
G1 X136.213 Y103.976 E0.03443 ; brim
G1 X136.242 Y105.079 E0.03458 ; brim
G1 X136.198 Y105.850 E0.02420 ; brim
G1 X136.104 Y106.609 E0.02400 ; brim
G1 X135.909 Y107.574 E0.03085 ; brim
G1 X135.615 Y108.571 E0.03261 ; brim
G1 X135.236 Y109.529 E0.03230 ; brim
G1 X134.708 Y110.564 E0.03641 ; brim
G1 X134.082 Y111.534 E0.03620 ; brim
G1 X133.362 Y112.436 E0.03618 ; brim
G1 X132.562 Y113.256 E0.03591 ; brim
G1 X131.743 Y113.948 E0.03363 ; brim
G1 X130.845 Y114.571 E0.03427 ; brim
G1 X129.967 Y115.070 E0.03166 ; brim
G1 X129.232 Y115.412 E0.02541 ; brim
G1 X128.479 Y115.701 E0.02529 ; brim
G1 X127.419 Y116.009 E0.03463 ; brim
G1 X126.336 Y116.215 E0.03455 ; brim
G1 X125.253 Y116.315 E0.03411 ; brim
G1 X124.159 Y116.312 E0.03429 ; brim
G1 X123.072 Y116.205 E0.03426 ; brim
G1 X122.015 Y116.000 E0.03376 ; brim
G1 X120.980 Y115.696 E0.03383 ; brim
G1 X119.967 Y115.292 E0.03418 ; brim
G1 X119.283 Y114.952 E0.02397 ; brim
G1 X118.612 Y114.562 E0.02431 ; brim
G1 X117.801 Y114.001 E0.03092 ; brim
G1 X116.993 Y113.331 E0.03291 ; brim
G1 X116.270 Y112.612 E0.03199 ; brim
G1 X115.565 Y111.768 E0.03448 ; brim
G1 X114.934 Y110.846 E0.03501 ; brim
G1 X114.397 Y109.869 E0.03496 ; brim
G1 X113.963 Y108.861 E0.03441 ; brim
G1 X113.627 Y107.816 E0.03441 ; brim
G1 X113.389 Y106.729 E0.03491 ; brim
G1 X113.258 Y105.622 E0.03493 ; brim
G1 X113.234 Y104.515 E0.03473 ; brim
G1 X113.308 Y103.481 E0.03252 ; brim
G1 X113.472 Y102.468 E0.03215 ; brim
G1 X113.714 Y101.515 E0.03085 ; brim
G1 X113.962 Y100.781 E0.02428 ; brim
G1 X114.255 Y100.071 E0.02409 ; brim
G1 X114.786 Y99.040 E0.03635 ; brim
G1 X115.406 Y98.086 E0.03568 ; brim
G1 X116.069 Y97.258 E0.03326 ; brim
G1 X116.363 Y97.494 F12000.000 ; move to first brim point
G1 F1800
G1 X117.187 Y96.642 E0.03716 ; brim
G1 X117.962 Y95.989 E0.03179 ; brim
G1 X118.805 Y95.402 E0.03220 ; brim
G1 X119.698 Y94.895 E0.03221 ; brim
G1 X120.621 Y94.478 E0.03175 ; brim
G1 X121.518 Y94.164 E0.02979 ; brim
G1 X122.284 Y93.963 E0.02484 ; brim
G1 X123.057 Y93.816 E0.02466 ; brim
G1 X124.178 Y93.703 E0.03533 ; brim
G1 X125.286 Y93.703 E0.03475 ; brim
G1 X126.339 Y93.805 E0.03317 ; brim
G1 X127.379 Y94.007 E0.03322 ; brim
G1 X128.396 Y94.308 E0.03324 ; brim
G1 X129.377 Y94.702 E0.03317 ; brim
G1 X130.258 Y95.155 E0.03106 ; brim
G1 X131.112 Y95.695 E0.03167 ; brim
G1 X131.869 Y96.274 E0.02990 ; brim
G1 X132.429 Y96.775 E0.02354 ; brim
G1 X132.953 Y97.310 E0.02347 ; brim
G1 X133.633 Y98.131 E0.03344 ; brim
G1 X134.230 Y99.009 E0.03330 ; brim
G1 X134.740 Y99.939 E0.03324 ; brim
G1 X135.159 Y100.913 E0.03324 ; brim
G1 X135.483 Y101.922 E0.03323 ; brim
G1 X135.710 Y102.958 E0.03328 ; brim
G1 X135.838 Y104.013 E0.03330 ; brim
G1 X135.865 Y105.066 E0.03302 ; brim
G1 X135.823 Y105.810 E0.02337 ; brim
G1 X135.731 Y106.556 E0.02357 ; brim
G1 X135.542 Y107.491 E0.02991 ; brim
G1 X135.256 Y108.456 E0.03157 ; brim
G1 X134.889 Y109.382 E0.03123 ; brim
G1 X134.385 Y110.367 E0.03469 ; brim
G1 X133.781 Y111.307 E0.03502 ; brim
G1 X133.085 Y112.180 E0.03500 ; brim
G1 X132.312 Y112.974 E0.03476 ; brim
G1 X131.520 Y113.643 E0.03251 ; brim
G1 X130.651 Y114.248 E0.03318 ; brim
G1 X129.801 Y114.731 E0.03067 ; brim
G1 X129.091 Y115.062 E0.02456 ; brim
G1 X128.351 Y115.347 E0.02484 ; brim
G1 X127.339 Y115.641 E0.03304 ; brim
G1 X126.292 Y115.840 E0.03343 ; brim
G1 X125.244 Y115.938 E0.03298 ; brim
G1 X124.187 Y115.936 E0.03317 ; brim
G1 X123.135 Y115.833 E0.03314 ; brim
G1 X122.112 Y115.635 E0.03264 ; brim
G1 X121.111 Y115.342 E0.03272 ; brim
G1 X120.128 Y114.950 E0.03317 ; brim
G1 X119.456 Y114.617 E0.02353 ; brim
G1 X118.809 Y114.240 E0.02349 ; brim
G1 X118.022 Y113.696 E0.02997 ; brim
G1 X117.241 Y113.046 E0.03186 ; brim
G1 X116.542 Y112.351 E0.03092 ; brim
G1 X115.860 Y111.533 E0.03338 ; brim
G1 X115.251 Y110.641 E0.03387 ; brim
G1 X114.732 Y109.696 E0.03381 ; brim
G1 X114.313 Y108.721 E0.03328 ; brim
G1 X113.989 Y107.710 E0.03328 ; brim
G1 X113.760 Y106.657 E0.03378 ; brim
G1 X113.635 Y105.605 E0.03323 ; brim
G1 X113.610 Y104.533 E0.03362 ; brim
G1 X113.682 Y103.532 E0.03145 ; brim
G1 X113.840 Y102.553 E0.03111 ; brim
G1 X114.074 Y101.628 E0.02991 ; brim
G1 X114.313 Y100.919 E0.02346 ; brim
G1 X114.600 Y100.222 E0.02364 ; brim
G1 X115.117 Y99.222 E0.03530 ; brim
G1 X115.717 Y98.299 E0.03450 ; brim
G1 X116.325 Y97.540 E0.03050 ; brim
G1 X116.619 Y97.775 F12000.000 ; move to first brim point
G1 F1800
G1 X117.437 Y96.924 E0.03701 ; brim
G1 X118.185 Y96.293 E0.03070 ; brim
G1 X118.999 Y95.725 E0.03111 ; brim
G1 X119.862 Y95.235 E0.03112 ; brim
G1 X120.754 Y94.831 E0.03070 ; brim
G1 X121.622 Y94.527 E0.02883 ; brim
G1 X122.361 Y94.332 E0.02398 ; brim
G1 X123.119 Y94.188 E0.02419 ; brim
G1 X124.206 Y94.079 E0.03425 ; brim
G1 X125.277 Y94.080 E0.03357 ; brim
G1 X126.294 Y94.179 E0.03203 ; brim
G1 X127.281 Y94.372 E0.03155 ; brim
G1 X128.264 Y94.661 E0.03212 ; brim
G1 X129.213 Y95.042 E0.03207 ; brim
G1 X130.064 Y95.479 E0.02999 ; brim
G1 X130.890 Y96.000 E0.03062 ; brim
G1 X131.624 Y96.560 E0.02895 ; brim
G1 X132.173 Y97.052 E0.02310 ; brim
G1 X132.677 Y97.568 E0.02264 ; brim
G1 X133.326 Y98.351 E0.03188 ; brim
G1 X133.904 Y99.199 E0.03217 ; brim
G1 X134.397 Y100.096 E0.03212 ; brim
G1 X134.803 Y101.037 E0.03211 ; brim
G1 X135.117 Y102.012 E0.03210 ; brim
G1 X135.337 Y103.013 E0.03215 ; brim
G1 X135.461 Y104.032 E0.03218 ; brim
G1 X135.488 Y105.052 E0.03201 ; brim
G1 X135.447 Y105.782 E0.02293 ; brim
G1 X135.358 Y106.502 E0.02275 ; brim
G1 X135.174 Y107.407 E0.02896 ; brim
G1 X134.897 Y108.341 E0.03052 ; brim
G1 X134.542 Y109.234 E0.03015 ; brim
G1 X134.054 Y110.187 E0.03355 ; brim
G1 X133.469 Y111.094 E0.03384 ; brim
G1 X132.797 Y111.937 E0.03382 ; brim
G1 X132.048 Y112.704 E0.03358 ; brim
G1 X131.284 Y113.350 E0.03138 ; brim
G1 X130.457 Y113.924 E0.03156 ; brim
G1 X129.634 Y114.393 E0.02969 ; brim
G1 X128.937 Y114.718 E0.02411 ; brim
G1 X128.224 Y114.992 E0.02397 ; brim
G1 X127.243 Y115.276 E0.03201 ; brim
G1 X126.231 Y115.468 E0.03231 ; brim
G1 X125.219 Y115.561 E0.03186 ; brim
G1 X124.197 Y115.559 E0.03204 ; brim
