; generated by Slic3r 1.37.2.1-prusa3d-win64 on 2018-02-07 at 19:09:33

; 

; external perimeters extrusion width = 0.45mm
; perimeters extrusion width = 0.45mm
; infill extrusion width = 0.45mm
; solid infill extrusion width = 0.45mm
; top infill extrusion width = 0.40mm
; support material extrusion width = 0.35mm
; first layer extrusion width = 0.42mm

M107 ; disable fan
M115 U3.1.1-RC5 ; tell printer latest fw version
M83  ; extruder relative mode
M104 S215 ; set extruder temp
M140 S60 ; set bed temp
M190 S60 ; wait for bed temp
M109 S215 ; wait for extruder temp
G28 W ; home all without mesh bed level
G80 ; mesh bed leveling
G1 Y-3.0 F1000.0 ; go outside print area
G92 E0.0
G1 X60.0 E9.0  F1000.0 ; intro line
G1 X100.0 E12.5  F1000.0 ; intro line
G92 E0.0
M221 S95
M900 K30
G21 ; set units to millimeters
G90 ; use absolute coordinates
M83 ; use relative distances for extrusion
;BEFORE_LAYER_CHANGE
;0.2


G1 E-0.80000 F2100.00000 ; retract
G1 Z0.600 F12000.000 ; lift Z
;AFTER_LAYER_CHANGE
;0.2
G1 X66.947 Y87.124 F12000.000 ; move to first skirt point
G1 Z0.200 F12000.000 ; restore layer Z
G1 E0.80000 F2100.00000 ; unretract
M204 S1000 ; adjust acceleration
G1 F1800
G1 X68.688 Y86.236 E0.06129 ; skirt
G1 X70.566 Y85.692 E0.06129 ; skirt
G1 X72.512 Y85.509 E0.06129 ; skirt
G1 X179.762 Y86.972 E3.36305 ; skirt
G1 X180.857 Y87.048 E0.03442 ; skirt
G1 X181.946 Y87.240 E0.03467 ; skirt
G1 X183.240 Y87.632 E0.04239 ; skirt
G1 X184.479 Y88.192 E0.04264 ; skirt
G1 X185.635 Y88.909 E0.04264 ; skirt
G1 X186.686 Y89.771 E0.04264 ; skirt
G1 X187.611 Y90.757 E0.04239 ; skirt
G1 X188.404 Y91.862 E0.04264 ; skirt
G1 X189.046 Y93.061 E0.04264 ; skirt
G1 X189.526 Y94.333 E0.04264 ; skirt
G1 X189.853 Y95.775 E0.04637 ; skirt
G1 X189.973 Y97.250 E0.04637 ; skirt
G1 X189.972 Y110.595 E0.41843 ; skirt
G1 X189.895 Y111.682 E0.03417 ; skirt
G1 X189.704 Y112.763 E0.03442 ; skirt
G1 X189.099 Y114.580 E0.06005 ; skirt
G1 X188.176 Y116.249 E0.05980 ; skirt
G1 X186.957 Y117.726 E0.06005 ; skirt
G1 X185.487 Y118.955 E0.06005 ; skirt
G1 X183.868 Y119.869 E0.05831 ; skirt
G1 X177.283 Y122.656 E0.22419 ; skirt
G1 X175.849 Y123.104 E0.04712 ; skirt
G1 X174.356 Y123.341 E0.04737 ; skirt
G1 X75.485 Y123.378 E3.10005 ; skirt
G1 X71.545 Y123.108 E0.12382 ; skirt
G1 X70.156 Y122.883 E0.04413 ; skirt
G1 X68.847 Y122.486 E0.04289 ; skirt
G1 X67.594 Y121.916 E0.04314 ; skirt
G1 X66.428 Y121.186 E0.04314 ; skirt
G1 X65.369 Y120.308 E0.04314 ; skirt
G1 X64.435 Y119.298 E0.04314 ; skirt
G1 X63.643 Y118.173 E0.04314 ; skirt
G1 X63.007 Y116.953 E0.04314 ; skirt
G1 X62.538 Y115.660 E0.04314 ; skirt
G1 X62.246 Y114.332 E0.04264 ; skirt
G1 X62.131 Y112.977 E0.04264 ; skirt
G1 X62.149 Y95.234 E0.55631 ; skirt
G1 X62.453 Y93.311 E0.06105 ; skirt
G1 X63.115 Y91.471 E0.06129 ; skirt
G1 X64.109 Y89.788 E0.06129 ; skirt
G1 X65.402 Y88.322 E0.06129 ; skirt
G1 X66.899 Y87.160 E0.05941 ; skirt
G1 F9600
G1 X68.688 Y86.236 E-0.41850 ; wipe and retract
G1 F9600
G1 X70.267 Y85.779 E-0.34150 ; wipe and retract
G1 E-0.04000 F2100.00000 ; retract
G1 Z0.800 F12000.000 ; lift Z
G1 X78.253 Y89.516 F12000.000 ; move to first brim point
G1 Z0.200 F12000.000 ; restore layer Z
G1 E0.80000 F2100.00000 ; unretract
G1 F1800
G1 X169.102 Y89.516 E2.84852 ; brim
G1 X169.557 Y89.297 E0.01585 ; brim
G1 X172.093 Y88.675 E0.08187 ; brim
G1 X178.613 Y88.675 E0.20441 ; brim
G1 X181.457 Y88.846 E0.08933 ; brim
G1 X182.681 Y89.221 E0.04016 ; brim
G1 X183.852 Y89.755 E0.04033 ; brim
G1 X185.765 Y91.235 E0.07586 ; brim
G1 X187.248 Y93.226 E0.07785 ; brim
G1 X188.107 Y95.554 E0.07779 ; brim
G1 X188.102 Y112.316 E0.52554 ; brim
G1 X187.615 Y113.762 E0.04784 ; brim
G1 X186.899 Y115.109 E0.04784 ; brim
G1 X184.403 Y117.578 E0.11006 ; brim
G1 X182.906 Y118.339 E0.05268 ; brim
G1 X181.266 Y118.792 E0.05333 ; brim
G1 X179.512 Y118.894 E0.05510 ; brim
G1 X178.791 Y119.638 E0.03247 ; brim
G1 X176.989 Y120.748 E0.06637 ; brim
G1 X174.066 Y121.492 E0.09458 ; brim
G1 X172.020 Y121.453 E0.06414 ; brim
G1 X171.597 Y121.376 E0.01347 ; brim
G1 X170.997 Y121.480 E0.01911 ; brim
G1 X168.994 Y121.466 E0.06279 ; brim
G1 X168.475 Y121.373 E0.01654 ; brim
G1 X167.870 Y121.479 E0.01927 ; brim
G1 X165.867 Y121.467 E0.06280 ; brim
G1 X165.363 Y121.378 E0.01605 ; brim
G1 X164.914 Y121.461 E0.01430 ; brim
G1 X162.956 Y121.490 E0.06142 ; brim
G1 X162.210 Y121.361 E0.02372 ; brim
G1 X161.466 Y121.490 E0.02369 ; brim
G1 X159.500 Y121.460 E0.06165 ; brim
G1 X159.067 Y121.381 E0.01379 ; brim
G1 X158.630 Y121.461 E0.01393 ; brim
G1 X156.671 Y121.490 E0.06142 ; brim
G1 X155.924 Y121.361 E0.02377 ; brim
G1 X155.170 Y121.491 E0.02399 ; brim
G1 X153.168 Y121.453 E0.06278 ; brim
G1 X152.743 Y121.376 E0.01356 ; brim
G1 X152.129 Y121.481 E0.01953 ; brim
G1 X150.095 Y121.463 E0.06375 ; brim
G1 X149.668 Y121.386 E0.01362 ; brim
G1 X149.355 Y121.442 E0.00997 ; brim
G1 X147.308 Y121.493 E0.06421 ; brim
G1 X146.567 Y121.371 E0.02355 ; brim
G1 X146.118 Y121.453 E0.01431 ; brim
G1 X144.116 Y121.491 E0.06277 ; brim
G1 X143.417 Y121.372 E0.02225 ; brim
G1 X142.976 Y121.453 E0.01405 ; brim
G1 X140.973 Y121.491 E0.06281 ; brim
G1 X140.221 Y121.361 E0.02392 ; brim
G1 X139.488 Y121.489 E0.02332 ; brim
G1 X137.545 Y121.463 E0.06094 ; brim
G1 X137.056 Y121.375 E0.01558 ; brim
G1 X136.488 Y121.477 E0.01810 ; brim
G1 X134.454 Y121.468 E0.06377 ; brim
G1 X133.933 Y121.376 E0.01660 ; brim
G1 X133.411 Y121.468 E0.01660 ; brim
G1 X131.377 Y121.477 E0.06379 ; brim
G1 X130.784 Y121.369 E0.01891 ; brim
G1 X130.153 Y121.480 E0.02009 ; brim
G1 X128.149 Y121.466 E0.06282 ; brim
G1 X127.645 Y121.376 E0.01604 ; brim
G1 X127.127 Y121.468 E0.01649 ; brim
G1 X125.093 Y121.477 E0.06379 ; brim
G1 X124.500 Y121.369 E0.01891 ; brim
G1 X123.869 Y121.480 E0.02009 ; brim
G1 X121.864 Y121.466 E0.06285 ; brim
G1 X121.317 Y121.367 E0.01744 ; brim
G1 X120.558 Y121.493 E0.02411 ; brim
G1 X118.511 Y121.442 E0.06422 ; brim
G1 X118.198 Y121.386 E0.00997 ; brim
G1 X117.770 Y121.463 E0.01362 ; brim
G1 X115.737 Y121.481 E0.06375 ; brim
G1 X115.123 Y121.376 E0.01953 ; brim
G1 X114.697 Y121.453 E0.01356 ; brim
G1 X112.695 Y121.491 E0.06279 ; brim
G1 X111.939 Y121.361 E0.02406 ; brim
G1 X111.183 Y121.491 E0.02406 ; brim
G1 X109.180 Y121.453 E0.06281 ; brim
G1 X108.743 Y121.373 E0.01391 ; brim
G1 X108.067 Y121.489 E0.02151 ; brim
G1 X106.125 Y121.463 E0.06090 ; brim
G1 X105.636 Y121.375 E0.01558 ; brim
G1 X105.068 Y121.477 E0.01810 ; brim
G1 X103.034 Y121.468 E0.06377 ; brim
G1 X102.513 Y121.376 E0.01660 ; brim
G1 X101.991 Y121.468 E0.01660 ; brim
G1 X99.957 Y121.477 E0.06379 ; brim
G1 X99.364 Y121.369 E0.01891 ; brim
G1 X98.733 Y121.480 E0.02009 ; brim
G1 X96.729 Y121.466 E0.06281 ; brim
G1 X96.263 Y121.384 E0.01486 ; brim
G1 X95.940 Y121.442 E0.01029 ; brim
G1 X93.893 Y121.493 E0.06421 ; brim
G1 X93.087 Y121.358 E0.02562 ; brim
G1 X92.281 Y121.493 E0.02562 ; brim
G1 X90.234 Y121.442 E0.06421 ; brim
G1 X89.911 Y121.384 E0.01029 ; brim
G1 X89.444 Y121.466 E0.01486 ; brim
G1 X87.441 Y121.480 E0.06281 ; brim
G1 X86.810 Y121.369 E0.02009 ; brim
G1 X86.216 Y121.477 E0.01891 ; brim
G1 X84.183 Y121.468 E0.06377 ; brim
G1 X83.682 Y121.380 E0.01594 ; brim
G1 X83.276 Y121.453 E0.01291 ; brim
G1 X81.275 Y121.491 E0.06275 ; brim
G1 X80.539 Y121.365 E0.02343 ; brim
G1 X79.888 Y121.479 E0.02071 ; brim
G1 X77.885 Y121.467 E0.06281 ; brim
G1 X77.417 Y121.385 E0.01489 ; brim
G1 X77.118 Y121.439 E0.00954 ; brim
G1 X75.026 Y121.495 E0.06561 ; brim
G1 X74.084 Y121.321 E0.03002 ; brim
G1 X73.134 Y121.472 E0.03015 ; brim
G1 X70.784 Y121.318 E0.07385 ; brim
G1 X68.401 Y120.440 E0.07963 ; brim
G1 X66.317 Y118.928 E0.08074 ; brim
G1 X64.825 Y116.915 E0.07856 ; brim
G1 X63.978 Y114.554 E0.07864 ; brim
G1 X63.845 Y95.134 E0.60892 ; brim
G1 X64.188 Y93.339 E0.05730 ; brim
G1 X64.922 Y91.646 E0.05788 ; brim
G1 X66.422 Y89.778 E0.07510 ; brim
G1 X67.705 Y88.703 E0.05248 ; brim
G1 X70.777 Y87.517 E0.10324 ; brim
G1 X74.136 Y87.495 E0.10533 ; brim
G1 X75.990 Y88.031 E0.06050 ; brim
G1 X77.470 Y88.837 E0.05286 ; brim
G1 X78.207 Y89.477 E0.03060 ; brim
G1 X78.110 Y89.893 F12000.000 ; move to first brim point
G1 F1800
G1 X169.191 Y89.893 E2.85577 ; brim
G1 X169.669 Y89.658 E0.01670 ; brim
G1 X172.116 Y89.052 E0.07906 ; brim
G1 X178.607 Y89.052 E0.20352 ; brim
G1 X181.368 Y89.213 E0.08670 ; brim
G1 X182.559 Y89.578 E0.03905 ; brim
G1 X183.675 Y90.088 E0.03847 ; brim
G1 X185.513 Y91.517 E0.07300 ; brim
G1 X186.929 Y93.429 E0.07459 ; brim
G1 X187.741 Y95.652 E0.07422 ; brim
G1 X187.734 Y112.225 E0.51963 ; brim
G1 X187.274 Y113.599 E0.04543 ; brim
G1 X186.579 Y114.907 E0.04645 ; brim
G1 X184.206 Y117.255 E0.10467 ; brim
G1 X182.752 Y117.994 E0.05115 ; brim
G1 X181.186 Y118.423 E0.05090 ; brim
G1 X179.341 Y118.526 E0.05793 ; brim
G1 X178.573 Y119.330 E0.03489 ; brim
G1 X176.816 Y120.412 E0.06469 ; brim
G1 X174.048 Y121.114 E0.08954 ; brim
G1 X172.044 Y121.076 E0.06284 ; brim
G1 X171.599 Y120.993 E0.01418 ; brim
G1 X170.982 Y121.103 E0.01966 ; brim
G1 X169.014 Y121.089 E0.06169 ; brim
G1 X168.476 Y120.990 E0.01716 ; brim
G1 X167.854 Y121.102 E0.01981 ; brim
G1 X165.886 Y121.090 E0.06170 ; brim
G1 X165.361 Y120.995 E0.01673 ; brim
G1 X164.892 Y121.084 E0.01498 ; brim
G1 X162.968 Y121.112 E0.06032 ; brim
G1 X162.210 Y120.978 E0.02415 ; brim
G1 X161.453 Y121.113 E0.02411 ; brim
G1 X159.522 Y121.083 E0.06054 ; brim
G1 X159.067 Y120.997 E0.01453 ; brim
G1 X158.608 Y121.084 E0.01466 ; brim
G1 X156.684 Y121.112 E0.06031 ; brim
G1 X155.924 Y120.978 E0.02420 ; brim
G1 X155.159 Y121.113 E0.02438 ; brim
G1 X153.192 Y121.076 E0.06168 ; brim
G1 X152.745 Y120.992 E0.01426 ; brim
G1 X152.114 Y121.104 E0.02007 ; brim
G1 X150.116 Y121.086 E0.06265 ; brim
G1 X149.667 Y121.002 E0.01431 ; brim
G1 X149.329 Y121.066 E0.01078 ; brim
G1 X147.317 Y121.116 E0.06312 ; brim
G1 X146.563 Y120.987 E0.02397 ; brim
G1 X146.094 Y121.076 E0.01496 ; brim
G1 X144.127 Y121.113 E0.06167 ; brim
G1 X143.414 Y120.989 E0.02271 ; brim
G1 X142.952 Y121.076 E0.01473 ; brim
G1 X140.984 Y121.113 E0.06171 ; brim
G1 X140.220 Y120.978 E0.02433 ; brim
G1 X139.475 Y121.112 E0.02376 ; brim
G1 X137.567 Y121.087 E0.05983 ; brim
G1 X137.056 Y120.991 E0.01629 ; brim
G1 X136.471 Y121.100 E0.01866 ; brim
G1 X134.473 Y121.091 E0.06265 ; brim
G1 X133.933 Y120.992 E0.01721 ; brim
G1 X133.393 Y121.091 E0.01721 ; brim
G1 X131.394 Y121.100 E0.06267 ; brim
G1 X130.785 Y120.986 E0.01942 ; brim
G1 X130.137 Y121.103 E0.02063 ; brim
G1 X128.169 Y121.089 E0.06172 ; brim
G1 X127.646 Y120.993 E0.01668 ; brim
G1 X127.108 Y121.091 E0.01712 ; brim
G1 X125.110 Y121.100 E0.06267 ; brim
G1 X124.501 Y120.986 E0.01942 ; brim
G1 X123.853 Y121.103 E0.02063 ; brim
G1 X121.884 Y121.089 E0.06175 ; brim
G1 X121.320 Y120.984 E0.01800 ; brim
G1 X120.549 Y121.116 E0.02452 ; brim
G1 X118.536 Y121.066 E0.06313 ; brim
G1 X118.198 Y121.002 E0.01078 ; brim
G1 X117.749 Y121.086 E0.01431 ; brim
G1 X115.751 Y121.104 E0.06265 ; brim
G1 X115.121 Y120.992 E0.02007 ; brim
G1 X114.674 Y121.076 E0.01426 ; brim
G1 X112.706 Y121.113 E0.06169 ; brim
G1 X111.939 Y120.977 E0.02445 ; brim
G1 X111.171 Y121.113 E0.02445 ; brim
G1 X109.203 Y121.076 E0.06171 ; brim
G1 X108.745 Y120.990 E0.01461 ; brim
G1 X108.054 Y121.112 E0.02202 ; brim
G1 X106.147 Y121.087 E0.05980 ; brim
G1 X105.636 Y120.991 E0.01629 ; brim
G1 X105.051 Y121.100 E0.01866 ; brim
G1 X103.053 Y121.091 E0.06265 ; brim
G1 X102.513 Y120.992 E0.01721 ; brim
G1 X101.973 Y121.091 E0.01721 ; brim
G1 X99.974 Y121.100 E0.06267 ; brim
G1 X99.365 Y120.986 E0.01942 ; brim
G1 X98.717 Y121.103 E0.02063 ; brim
G1 X96.749 Y121.089 E0.06172 ; brim
G1 X96.261 Y121.001 E0.01554 ; brim
G1 X95.914 Y121.066 E0.01106 ; brim
G1 X93.902 Y121.116 E0.06312 ; brim
G1 X93.087 Y120.975 E0.02594 ; brim
G1 X92.271 Y121.116 E0.02594 ; brim
G1 X90.259 Y121.066 E0.06312 ; brim
G1 X89.912 Y121.001 E0.01106 ; brim
G1 X89.424 Y121.089 E0.01554 ; brim
G1 X87.456 Y121.103 E0.06172 ; brim
G1 X86.808 Y120.986 E0.02063 ; brim
G1 X86.200 Y121.100 E0.01942 ; brim
G1 X84.201 Y121.091 E0.06266 ; brim
G1 X83.681 Y120.997 E0.01658 ; brim
G1 X83.253 Y121.076 E0.01364 ; brim
G1 X81.287 Y121.113 E0.06166 ; brim
G1 X80.538 Y120.981 E0.02385 ; brim
G1 X79.873 Y121.102 E0.02119 ; brim
G1 X77.904 Y121.090 E0.06172 ; brim
G1 X77.416 Y121.001 E0.01556 ; brim
G1 X77.092 Y121.062 E0.01034 ; brim
G1 X75.036 Y121.117 E0.06447 ; brim
G1 X74.089 Y120.938 E0.03024 ; brim
G1 X73.136 Y121.094 E0.03028 ; brim
G1 X70.888 Y120.954 E0.07060 ; brim
G1 X68.556 Y120.095 E0.07793 ; brim
G1 X66.563 Y118.641 E0.07737 ; brim
G1 X65.145 Y116.715 E0.07499 ; brim
G1 X64.344 Y114.458 E0.07507 ; brim
G1 X64.219 Y95.187 E0.60425 ; brim
G1 X64.554 Y93.431 E0.05606 ; brim
G1 X65.257 Y91.820 E0.05511 ; brim
G1 X66.704 Y90.030 E0.07216 ; brim
G1 X67.923 Y89.013 E0.04977 ; brim
G1 X70.879 Y87.882 E0.09927 ; brim
G1 X74.058 Y87.865 E0.09967 ; brim
G1 X75.828 Y88.372 E0.05772 ; brim
G1 X77.271 Y89.158 E0.05153 ; brim
G1 X78.065 Y89.854 E0.03310 ; brim
G1 X77.967 Y90.270 F12000.000 ; move to first brim point
G1 F1800
G1 X169.281 Y90.270 E2.86310 ; brim
G1 X169.781 Y90.018 E0.01756 ; brim
G1 X172.140 Y89.429 E0.07622 ; brim
G1 X178.602 Y89.429 E0.20263 ; brim
G1 X181.280 Y89.580 E0.08409 ; brim
G1 X182.413 Y89.926 E0.03716 ; brim
G1 X183.497 Y90.422 E0.03737 ; brim
G1 X185.260 Y91.798 E0.07013 ; brim
G1 X186.584 Y93.584 E0.06968 ; brim
G1 X187.375 Y95.750 E0.07233 ; brim
G1 X187.367 Y112.134 E0.51370 ; brim
G1 X186.922 Y113.464 E0.04397 ; brim
G1 X186.260 Y114.704 E0.04408 ; brim
G1 X184.008 Y116.932 E0.09932 ; brim
G1 X182.633 Y117.636 E0.04843 ; brim
G1 X181.106 Y118.054 E0.04965 ; brim
G1 X179.170 Y118.157 E0.06078 ; brim
G1 X178.353 Y119.022 E0.03731 ; brim
G1 X176.643 Y120.076 E0.06300 ; brim
G1 X174.030 Y120.737 E0.08451 ; brim
G1 X172.068 Y120.699 E0.06153 ; brim
G1 X171.601 Y120.609 E0.01491 ; brim
G1 X170.966 Y120.726 E0.02024 ; brim
G1 X169.035 Y120.712 E0.06056 ; brim
G1 X168.477 Y120.606 E0.01781 ; brim
G1 X167.838 Y120.724 E0.02038 ; brim
G1 X165.906 Y120.713 E0.06057 ; brim
G1 X165.360 Y120.610 E0.01743 ; brim
G1 X164.869 Y120.707 E0.01569 ; brim
G1 X162.982 Y120.735 E0.05917 ; brim
G1 X162.210 Y120.595 E0.02459 ; brim
G1 X161.440 Y120.735 E0.02455 ; brim
G1 X159.546 Y120.706 E0.05940 ; brim
G1 X159.067 Y120.612 E0.01529 ; brim
G1 X158.584 Y120.707 E0.01542 ; brim
G1 X156.697 Y120.735 E0.05917 ; brim
G1 X155.924 Y120.595 E0.02464 ; brim
G1 X155.147 Y120.736 E0.02478 ; brim
G1 X153.216 Y120.699 E0.06055 ; brim
G1 X152.747 Y120.608 E0.01498 ; brim
G1 X152.099 Y120.726 E0.02064 ; brim
G1 X150.137 Y120.709 E0.06152 ; brim
G1 X149.667 Y120.618 E0.01502 ; brim
G1 X149.303 Y120.689 E0.01161 ; brim
G1 X147.327 Y120.738 E0.06200 ; brim
G1 X146.559 Y120.604 E0.02443 ; brim
G1 X146.070 Y120.699 E0.01563 ; brim
G1 X144.139 Y120.736 E0.06054 ; brim
G1 X143.411 Y120.605 E0.02320 ; brim
G1 X142.928 Y120.699 E0.01543 ; brim
G1 X140.996 Y120.736 E0.06057 ; brim
G1 X140.220 Y120.595 E0.02474 ; brim
G1 X139.461 Y120.735 E0.02421 ; brim
G1 X137.589 Y120.710 E0.05870 ; brim
G1 X137.056 Y120.607 E0.01701 ; brim
G1 X136.454 Y120.723 E0.01923 ; brim
G1 X134.492 Y120.714 E0.06151 ; brim
G1 X133.933 Y120.608 E0.01785 ; brim
G1 X133.373 Y120.714 E0.01785 ; brim
G1 X131.411 Y120.723 E0.06152 ; brim
G1 X130.786 Y120.602 E0.01996 ; brim
G1 X130.121 Y120.726 E0.02120 ; brim
G1 X128.189 Y120.712 E0.06059 ; brim
G1 X127.646 Y120.609 E0.01733 ; brim
G1 X127.089 Y120.714 E0.01776 ; brim
G1 X125.127 Y120.723 E0.06152 ; brim
G1 X124.502 Y120.602 E0.01996 ; brim
G1 X123.837 Y120.726 E0.02120 ; brim
G1 X121.905 Y120.712 E0.06061 ; brim
G1 X121.323 Y120.600 E0.01858 ; brim
G1 X120.539 Y120.738 E0.02495 ; brim
G1 X118.562 Y120.689 E0.06200 ; brim
G1 X118.199 Y120.618 E0.01161 ; brim
G1 X117.728 Y120.709 E0.01502 ; brim
G1 X115.766 Y120.726 E0.06152 ; brim
G1 X115.119 Y120.608 E0.02064 ; brim
G1 X114.650 Y120.699 E0.01498 ; brim
G1 X112.718 Y120.736 E0.06056 ; brim
G1 X111.939 Y120.594 E0.02485 ; brim
G1 X111.159 Y120.736 E0.02485 ; brim
G1 X109.227 Y120.699 E0.06057 ; brim
G1 X108.748 Y120.606 E0.01532 ; brim
G1 X108.040 Y120.735 E0.02256 ; brim
