; generated by Slic3r 1.37.2.1-prusa3d-win64 on 2018-02-13 at 18:46:20

; 

; external perimeters extrusion width = 0.45mm
; perimeters extrusion width = 0.45mm
; infill extrusion width = 0.45mm
; solid infill extrusion width = 0.45mm
; top infill extrusion width = 0.40mm
; support material extrusion width = 0.35mm
; first layer extrusion width = 0.42mm

M107 ; disable fan
M115 U3.1.1-RC5 ; tell printer latest fw version
M83  ; extruder relative mode
M104 S215 ; set extruder temp
M140 S60 ; set bed temp
M190 S60 ; wait for bed temp
M109 S215 ; wait for extruder temp
G28 W ; home all without mesh bed level
G80 ; mesh bed leveling
G1 Y-3.0 F1000.0 ; go outside print area
G92 E0.0
G1 X60.0 E9.0  F1000.0 ; intro line
G1 X100.0 E12.5  F1000.0 ; intro line
G92 E0.0
M221 S95
M900 K30
G21 ; set units to millimeters
G90 ; use absolute coordinates
M83 ; use relative distances for extrusion
;BEFORE_LAYER_CHANGE
;0.2


G1 E-0.80000 F2100.00000 ; retract
G1 Z0.600 F12000.000 ; lift Z
;AFTER_LAYER_CHANGE
;0.2
G1 X98.188 Y80.565 F12000.000 ; move to first skirt point
G1 Z0.200 F12000.000 ; restore layer Z
G1 E0.80000 F2100.00000 ; unretract
M204 S1000 ; adjust acceleration
G1 F1800
G1 X98.968 Y79.705 E0.03641 ; skirt
G1 X99.840 Y78.938 E0.03641 ; skirt
G1 X100.799 Y78.269 E0.03666 ; skirt
G1 X101.820 Y77.715 E0.03641 ; skirt
G1 X102.903 Y77.276 E0.03666 ; skirt
G1 X104.030 Y76.962 E0.03666 ; skirt
G1 X105.184 Y76.776 E0.03666 ; skirt
G1 X106.233 Y76.722 E0.03292 ; skirt
G1 X143.758 Y76.722 E1.17658 ; skirt
G1 X145.759 Y76.918 E0.06303 ; skirt
G1 X147.691 Y77.499 E0.06328 ; skirt
G1 X149.468 Y78.439 E0.06303 ; skirt
G1 X151.036 Y79.710 E0.06328 ; skirt
G1 X152.329 Y81.260 E0.06328 ; skirt
G1 X153.294 Y83.024 E0.06303 ; skirt
G1 X153.900 Y84.940 E0.06303 ; skirt
G1 X154.126 Y86.946 E0.06328 ; skirt
G1 X154.126 Y108.119 E0.66388 ; skirt
G1 X154.053 Y109.239 E0.03517 ; skirt
G1 X153.859 Y110.343 E0.03517 ; skirt
G1 X153.491 Y111.578 E0.04040 ; skirt
G1 X152.972 Y112.757 E0.04040 ; skirt
G1 X144.494 Y128.489 E0.56033 ; skirt
G1 X143.800 Y129.450 E0.03716 ; skirt
G1 X143.001 Y130.325 E0.03716 ; skirt
G1 X142.107 Y131.103 E0.03716 ; skirt
G1 X141.130 Y131.775 E0.03716 ; skirt
G1 X140.084 Y132.330 E0.03716 ; skirt
G1 X138.980 Y132.763 E0.03716 ; skirt
G1 X137.835 Y133.067 E0.03716 ; skirt
G1 X136.662 Y133.238 E0.03716 ; skirt
G1 X113.661 Y133.262 E0.72117 ; skirt
G1 X112.343 Y133.102 E0.04164 ; skirt
G1 X111.056 Y132.775 E0.04164 ; skirt
G1 X109.821 Y132.286 E0.04164 ; skirt
G1 X108.665 Y131.647 E0.04139 ; skirt
G1 X107.673 Y130.928 E0.03841 ; skirt
G1 X106.773 Y130.098 E0.03841 ; skirt
G1 X105.978 Y129.166 E0.03841 ; skirt
G1 X105.297 Y128.148 E0.03841 ; skirt
G1 X97.018 Y112.739 E0.54845 ; skirt
G1 X96.491 Y111.529 E0.04139 ; skirt
G1 X96.121 Y110.254 E0.04164 ; skirt
G1 X95.941 Y109.187 E0.03392 ; skirt
G1 X95.873 Y108.107 E0.03392 ; skirt
G1 X95.885 Y86.597 E0.67442 ; skirt
G1 X96.038 Y85.254 E0.04239 ; skirt
G1 X96.362 Y83.950 E0.04214 ; skirt
G1 X96.855 Y82.691 E0.04239 ; skirt
G1 X97.504 Y81.514 E0.04214 ; skirt
G1 X98.153 Y80.614 E0.03478 ; skirt
G1 F9600
G1 X98.968 Y79.705 E-0.25373 ; wipe and retract
G1 F9600
G1 X99.840 Y78.938 E-0.24134 ; wipe and retract
G1 F9600
G1 X100.799 Y78.269 E-0.24299 ; wipe and retract
G1 F9600
G1 X100.892 Y78.218 E-0.02194 ; wipe and retract
G1 E-0.04000 F2100.00000 ; retract
G1 Z0.800 F12000.000 ; lift Z
G1 X124.972 Y129.935 F12000.000 ; move to first brim point
G1 Z0.200 F12000.000 ; restore layer Z
G1 E0.80000 F2100.00000 ; unretract
G1 F1800
G1 X123.581 Y130.741 E0.05041 ; brim
G1 X121.202 Y131.360 E0.07708 ; brim
G1 X113.485 Y131.374 E0.24196 ; brim
G1 X111.443 Y130.944 E0.06541 ; brim
G1 X109.529 Y129.995 E0.06699 ; brim
G1 X107.289 Y127.800 E0.09834 ; brim
G1 X106.275 Y125.882 E0.06802 ; brim
G1 X105.815 Y124.027 E0.05992 ; brim
G1 X105.786 Y120.396 E0.11385 ; brim
G1 X105.321 Y120.104 E0.01720 ; brim
G1 X103.605 Y118.289 E0.07833 ; brim
G1 X102.712 Y116.657 E0.05835 ; brim
G1 X102.372 Y115.494 E0.03796 ; brim
G1 X101.022 Y114.714 E0.04889 ; brim
G1 X99.280 Y112.889 E0.07911 ; brim
G1 X97.922 Y109.868 E0.10384 ; brim
G1 X97.766 Y108.514 E0.04275 ; brim
G1 X97.766 Y86.449 E0.69183 ; brim
G1 X98.187 Y84.350 E0.06712 ; brim
G1 X99.157 Y82.375 E0.06898 ; brim
G1 X101.787 Y79.830 E0.11478 ; brim
G1 X103.465 Y79.057 E0.05793 ; brim
G1 X105.526 Y78.614 E0.06607 ; brim
G1 X144.411 Y78.618 E1.21921 ; brim
G1 X146.147 Y78.925 E0.05528 ; brim
G1 X147.797 Y79.589 E0.05577 ; brim
G1 X149.897 Y81.230 E0.08355 ; brim
G1 X151.341 Y83.233 E0.07744 ; brim
G1 X152.127 Y85.588 E0.07784 ; brim
G1 X152.206 Y108.964 E0.73293 ; brim
G1 X151.672 Y111.123 E0.06975 ; brim
G1 X150.593 Y113.062 E0.06955 ; brim
G1 X148.786 Y114.862 E0.07998 ; brim
G1 X147.359 Y115.716 E0.05215 ; brim
G1 X146.908 Y115.880 E0.01504 ; brim
G1 X146.082 Y117.979 E0.07072 ; brim
G1 X145.191 Y119.093 E0.04474 ; brim
G1 X144.225 Y120.001 E0.04155 ; brim
G1 X144.178 Y124.052 E0.12704 ; brim
G1 X143.708 Y125.943 E0.06108 ; brim
G1 X142.827 Y127.650 E0.06023 ; brim
G1 X140.221 Y130.165 E0.11358 ; brim
G1 X138.583 Y130.928 E0.05665 ; brim
G1 X136.641 Y131.366 E0.06242 ; brim
G1 X128.744 Y131.346 E0.24762 ; brim
G1 X126.763 Y130.881 E0.06381 ; brim
G1 X125.154 Y130.072 E0.05644 ; brim
G1 X125.020 Y129.972 E0.00527 ; brim
G1 F9600
G1 X123.581 Y130.741 E-0.33917 ; wipe and retract
G1 F9600
G1 X121.621 Y131.251 E-0.42083 ; wipe and retract
G1 E-0.04000 F2100.00000 ; retract
G1 Z0.800 F12000.000 ; lift Z
G1 X143.849 Y119.836 F12000.000 ; move to first brim point
G1 Z0.200 F12000.000 ; restore layer Z
G1 E0.80000 F2100.00000 ; unretract
G1 F1800
G1 X143.807 Y123.984 E0.13007 ; brim
G1 X143.362 Y125.790 E0.05832 ; brim
G1 X142.506 Y127.450 E0.05856 ; brim
G1 X140.032 Y129.837 E0.10780 ; brim
G1 X138.479 Y130.565 E0.05378 ; brim
G1 X136.620 Y130.989 E0.05978 ; brim
G1 X128.808 Y130.974 E0.24495 ; brim
G1 X126.912 Y130.534 E0.06104 ; brim
G1 X125.345 Y129.746 E0.05498 ; brim
G1 X125.010 Y129.475 E0.01349 ; brim
G1 X123.459 Y130.383 E0.05635 ; brim
G1 X121.177 Y130.983 E0.07401 ; brim
G1 X113.504 Y130.997 E0.24057 ; brim
G1 X111.545 Y130.580 E0.06278 ; brim
G1 X109.724 Y129.672 E0.06382 ; brim
G1 X107.575 Y127.552 E0.09464 ; brim
G1 X106.619 Y125.728 E0.06458 ; brim
G1 X106.192 Y124.002 E0.05574 ; brim
G1 X106.161 Y120.182 E0.11979 ; brim
G1 X105.576 Y119.825 E0.02147 ; brim
G1 X103.924 Y118.087 E0.07521 ; brim
G1 X103.053 Y116.494 E0.05691 ; brim
G1 X102.692 Y115.243 E0.04084 ; brim
G1 X101.276 Y114.433 E0.05115 ; brim
G1 X99.575 Y112.652 E0.07723 ; brim
G1 X98.294 Y109.796 E0.09815 ; brim
G1 X98.143 Y108.503 E0.04082 ; brim
G1 X98.143 Y86.468 E0.69089 ; brim
G1 X98.552 Y84.450 E0.06457 ; brim
G1 X99.480 Y82.572 E0.06568 ; brim
G1 X101.975 Y80.158 E0.10883 ; brim
G1 X103.566 Y79.421 E0.05500 ; brim
G1 X105.546 Y78.991 E0.06353 ; brim
G1 X144.394 Y78.995 E1.21805 ; brim
G1 X146.061 Y79.292 E0.05310 ; brim
G1 X147.630 Y79.928 E0.05309 ; brim
G1 X149.642 Y81.509 E0.08023 ; brim
G1 X151.018 Y83.429 E0.07405 ; brim
G1 X151.760 Y85.678 E0.07424 ; brim
G1 X151.828 Y108.941 E0.72942 ; brim
G1 X151.312 Y111.007 E0.06677 ; brim
G1 X150.277 Y112.854 E0.06639 ; brim
G1 X148.573 Y114.551 E0.07540 ; brim
G1 X147.182 Y115.383 E0.05081 ; brim
G1 X146.619 Y115.582 E0.01872 ; brim
G1 X145.770 Y117.767 E0.07350 ; brim
G1 X144.905 Y118.847 E0.04340 ; brim
G1 X143.893 Y119.794 E0.04346 ; brim
G1 F9600
G1 X143.818 Y123.451 E-0.76000 ; wipe and retract
G1 E-0.04000 F2100.00000 ; retract
G1 Z0.800 F12000.000 ; lift Z
G1 X146.330 Y115.282 F12000.000 ; move to first brim point
G1 Z0.200 F12000.000 ; restore layer Z
G1 E0.80000 F2100.00000 ; unretract
G1 F1800
G1 X145.457 Y117.554 E0.07631 ; brim
G1 X144.619 Y118.601 E0.04204 ; brim
G1 X143.474 Y119.670 E0.04914 ; brim
G1 X143.435 Y123.915 E0.13309 ; brim
G1 X143.002 Y125.678 E0.05692 ; brim
G1 X142.186 Y127.248 E0.05550 ; brim
G1 X139.843 Y129.509 E0.10208 ; brim
G1 X138.374 Y130.202 E0.05093 ; brim
G1 X136.599 Y130.612 E0.05713 ; brim
G1 X128.871 Y130.602 E0.24229 ; brim
G1 X127.061 Y130.187 E0.05825 ; brim
G1 X125.535 Y129.420 E0.05354 ; brim
G1 X125.049 Y129.014 E0.01985 ; brim
G1 X123.337 Y130.026 E0.06236 ; brim
G1 X121.151 Y130.606 E0.07090 ; brim
G1 X113.524 Y130.620 E0.23916 ; brim
G1 X111.649 Y130.217 E0.06014 ; brim
G1 X109.921 Y129.348 E0.06063 ; brim
G1 X107.862 Y127.306 E0.09093 ; brim
G1 X106.965 Y125.574 E0.06115 ; brim
G1 X106.568 Y123.977 E0.05160 ; brim
G1 X106.536 Y119.965 E0.12580 ; brim
G1 X105.830 Y119.545 E0.02576 ; brim
G1 X104.242 Y117.884 E0.07206 ; brim
G1 X103.394 Y116.332 E0.05545 ; brim
G1 X103.013 Y114.990 E0.04374 ; brim
G1 X101.529 Y114.152 E0.05343 ; brim
G1 X99.870 Y112.415 E0.07533 ; brim
G1 X98.665 Y109.723 E0.09246 ; brim
G1 X98.520 Y108.492 E0.03888 ; brim
G1 X98.520 Y86.487 E0.68994 ; brim
G1 X98.916 Y84.550 E0.06201 ; brim
G1 X99.803 Y82.769 E0.06238 ; brim
G1 X102.163 Y80.487 E0.10293 ; brim
G1 X103.668 Y79.784 E0.05207 ; brim
G1 X105.567 Y79.368 E0.06096 ; brim
G1 X144.377 Y79.372 E1.21687 ; brim
G1 X145.975 Y79.660 E0.05090 ; brim
G1 X147.463 Y80.267 E0.05040 ; brim
G1 X149.387 Y81.788 E0.07691 ; brim
G1 X150.693 Y83.624 E0.07064 ; brim
G1 X151.392 Y85.766 E0.07065 ; brim
G1 X151.451 Y108.918 E0.72592 ; brim
G1 X150.953 Y110.890 E0.06376 ; brim
G1 X149.962 Y112.646 E0.06323 ; brim
G1 X148.359 Y114.239 E0.07083 ; brim
G1 X147.006 Y115.049 E0.04946 ; brim
G1 X146.387 Y115.262 E0.02053 ; brim
G1 X146.041 Y114.981 F12000.000 ; move to first brim point
G1 F1800
G1 X145.144 Y117.342 E0.07919 ; brim
G1 X144.350 Y118.337 E0.03991 ; brim
G1 X143.364 Y119.271 E0.04258 ; brim
G1 X143.098 Y119.440 E0.00987 ; brim
G1 X143.064 Y123.847 E0.13820 ; brim
G1 X142.656 Y125.524 E0.05410 ; brim
G1 X141.865 Y127.048 E0.05381 ; brim
G1 X139.654 Y129.182 E0.09638 ; brim
G1 X138.268 Y129.840 E0.04808 ; brim
G1 X136.577 Y130.234 E0.05446 ; brim
G1 X128.934 Y130.230 E0.23965 ; brim
G1 X127.209 Y129.839 E0.05544 ; brim
G1 X125.725 Y129.093 E0.05207 ; brim
G1 X125.016 Y128.488 E0.02924 ; brim
G1 X124.677 Y128.801 E0.01448 ; brim
G1 X123.215 Y129.668 E0.05328 ; brim
G1 X121.078 Y130.236 E0.06931 ; brim
G1 X113.544 Y130.242 E0.23623 ; brim
G1 X111.753 Y129.854 E0.05748 ; brim
G1 X110.118 Y129.026 E0.05744 ; brim
G1 X108.149 Y127.060 E0.08723 ; brim
G1 X107.325 Y125.461 E0.05641 ; brim
G1 X106.945 Y123.951 E0.04882 ; brim
G1 X106.912 Y119.745 E0.13187 ; brim
G1 X106.083 Y119.264 E0.03005 ; brim
G1 X104.561 Y117.681 E0.06886 ; brim
G1 X103.735 Y116.170 E0.05397 ; brim
G1 X103.334 Y114.737 E0.04667 ; brim
G1 X101.782 Y113.871 E0.05573 ; brim
G1 X100.165 Y112.178 E0.07341 ; brim
G1 X99.036 Y109.651 E0.08679 ; brim
G1 X98.897 Y108.481 E0.03694 ; brim
G1 X98.897 Y86.507 E0.68898 ; brim
G1 X99.280 Y84.651 E0.05942 ; brim
G1 X100.126 Y82.967 E0.05908 ; brim
G1 X102.352 Y80.815 E0.09708 ; brim
G1 X103.770 Y80.148 E0.04914 ; brim
G1 X105.587 Y79.746 E0.05837 ; brim
G1 X144.360 Y79.749 E1.21569 ; brim
G1 X145.850 Y80.017 E0.04747 ; brim
G1 X147.295 Y80.606 E0.04893 ; brim
G1 X149.131 Y82.066 E0.07355 ; brim
G1 X150.369 Y83.818 E0.06724 ; brim
G1 X151.024 Y85.854 E0.06706 ; brim
G1 X151.074 Y108.895 E0.72245 ; brim
G1 X150.594 Y110.772 E0.06073 ; brim
G1 X149.647 Y112.437 E0.06008 ; brim
G1 X148.146 Y113.927 E0.06630 ; brim
G1 X146.830 Y114.715 E0.04809 ; brim
G1 X146.098 Y114.962 E0.02424 ; brim
G1 X145.751 Y114.679 F12000.000 ; move to first brim point
G1 F1800
G1 X144.830 Y117.131 E0.08210 ; brim
G1 X144.080 Y118.072 E0.03774 ; brim
G1 X143.121 Y118.983 E0.04147 ; brim
G1 X142.723 Y119.224 E0.01461 ; brim
G1 X142.692 Y123.781 E0.14287 ; brim
G1 X142.311 Y125.371 E0.05127 ; brim
G1 X141.545 Y126.847 E0.05212 ; brim
G1 X139.464 Y128.855 E0.09069 ; brim
G1 X138.162 Y129.478 E0.04525 ; brim
G1 X136.555 Y129.857 E0.05177 ; brim
G1 X128.995 Y129.857 E0.23703 ; brim
G1 X127.357 Y129.492 E0.05261 ; brim
G1 X125.916 Y128.767 E0.05057 ; brim
G1 X125.003 Y127.977 E0.03788 ; brim
G1 X124.465 Y128.488 E0.02329 ; brim
G1 X123.045 Y129.330 E0.05176 ; brim
G1 X121.053 Y129.859 E0.06460 ; brim
G1 X113.603 Y129.869 E0.23361 ; brim
G1 X111.901 Y129.506 E0.05457 ; brim
G1 X110.316 Y128.703 E0.05571 ; brim
G1 X108.437 Y126.815 E0.08350 ; brim
G1 X107.685 Y125.348 E0.05172 ; brim
G1 X107.322 Y123.925 E0.04603 ; brim
G1 X107.287 Y119.524 E0.13799 ; brim
G1 X106.335 Y118.982 E0.03437 ; brim
G1 X104.880 Y117.477 E0.06562 ; brim
G1 X104.077 Y116.009 E0.05247 ; brim
G1 X103.655 Y114.483 E0.04963 ; brim
G1 X102.034 Y113.589 E0.05804 ; brim
G1 X100.460 Y111.941 E0.07147 ; brim
G1 X99.407 Y109.578 E0.08112 ; brim
G1 X99.274 Y108.469 E0.03500 ; brim
G1 X99.274 Y86.526 E0.68803 ; brim
G1 X99.629 Y84.797 E0.05531 ; brim
G1 X100.448 Y83.164 E0.05730 ; brim
G1 X102.541 Y81.142 E0.09124 ; brim
G1 X103.873 Y80.511 E0.04622 ; brim
G1 X105.608 Y80.123 E0.05575 ; brim
G1 X144.343 Y80.126 E1.21450 ; brim
G1 X145.763 Y80.384 E0.04525 ; brim
G1 X147.127 Y80.944 E0.04622 ; brim
G1 X148.875 Y82.344 E0.07021 ; brim
G1 X150.019 Y83.961 E0.06210 ; brim
G1 X150.656 Y85.941 E0.06524 ; brim
G1 X150.697 Y108.871 E0.71895 ; brim
G1 X150.236 Y110.652 E0.05768 ; brim
G1 X149.333 Y112.227 E0.05693 ; brim
G1 X147.933 Y113.615 E0.06180 ; brim
G1 X146.655 Y114.380 E0.04671 ; brim
G1 X145.808 Y114.660 E0.02796 ; brim
G1 X145.419 Y114.390 F12000.000 ; move to first brim point
G1 F1800
G1 X145.389 Y114.570 E0.00572 ; brim
G1 X144.516 Y116.920 E0.07859 ; brim
G1 X143.811 Y117.808 E0.03555 ; brim
G1 X142.878 Y118.694 E0.04034 ; brim
G1 X142.347 Y119.007 E0.01933 ; brim
G1 X142.320 Y123.714 E0.14761 ; brim
G1 X141.950 Y125.260 E0.04985 ; brim
G1 X141.225 Y126.645 E0.04899 ; brim
G1 X139.273 Y128.529 E0.08507 ; brim
G1 X138.054 Y129.116 E0.04242 ; brim
G1 X136.532 Y129.480 E0.04905 ; brim
G1 X129.056 Y129.484 E0.23442 ; brim
G1 X127.506 Y129.144 E0.04976 ; brim
G1 X126.108 Y128.441 E0.04906 ; brim
G1 X124.990 Y127.463 E0.04658 ; brim
G1 X124.253 Y128.176 E0.03216 ; brim
G1 X122.875 Y128.993 E0.05022 ; brim
G1 X121.028 Y129.482 E0.05990 ; brim
G1 X113.662 Y129.497 E0.23097 ; brim
G1 X112.004 Y129.143 E0.05315 ; brim
G1 X110.515 Y128.382 E0.05244 ; brim
G1 X108.727 Y126.572 E0.07977 ; brim
G1 X108.045 Y125.233 E0.04710 ; brim
G1 X107.699 Y123.898 E0.04323 ; brim
G1 X107.662 Y119.301 E0.14415 ; brim
G1 X106.585 Y118.698 E0.03871 ; brim
G1 X105.198 Y117.274 E0.06235 ; brim
G1 X104.418 Y115.846 E0.05101 ; brim
G1 X104.059 Y114.575 E0.04141 ; brim
G1 X104.037 Y114.261 E0.00987 ; brim
G1 X102.286 Y113.307 E0.06250 ; brim
G1 X100.755 Y111.704 E0.06952 ; brim
G1 X99.778 Y109.504 E0.07547 ; brim
G1 X99.651 Y108.458 E0.03306 ; brim
G1 X99.651 Y86.545 E0.68706 ; brim
G1 X99.993 Y84.899 E0.05271 ; brim
G1 X100.770 Y83.363 E0.05398 ; brim
G1 X102.731 Y81.469 E0.08548 ; brim
G1 X103.978 Y80.874 E0.04331 ; brim
G1 X105.630 Y80.500 E0.05311 ; brim
G1 X144.326 Y80.503 E1.21329 ; brim
G1 X145.675 Y80.751 E0.04301 ; brim
G1 X146.957 Y81.282 E0.04350 ; brim
G1 X148.617 Y82.620 E0.06686 ; brim
G1 X149.693 Y84.153 E0.05872 ; brim
G1 X150.288 Y86.027 E0.06166 ; brim
G1 X150.320 Y108.848 E0.71552 ; brim
G1 X149.895 Y110.488 E0.05312 ; brim
G1 X149.048 Y111.979 E0.05378 ; brim
G1 X147.719 Y113.303 E0.05883 ; brim
G1 X146.480 Y114.045 E0.04530 ; brim
G1 X145.476 Y114.372 E0.03310 ; brim
G1 X145.055 Y114.110 F12000.000 ; move to first brim point
G1 F1800
G1 X145.024 Y114.471 E0.01136 ; brim
G1 X144.201 Y116.710 E0.07479 ; brim
G1 X143.542 Y117.544 E0.03334 ; brim
G1 X142.635 Y118.404 E0.03919 ; brim
G1 X141.970 Y118.787 E0.02405 ; brim
G1 X141.948 Y123.649 E0.15245 ; brim
G1 X141.604 Y125.107 E0.04696 ; brim
G1 X140.905 Y126.443 E0.04728 ; brim
G1 X139.081 Y128.203 E0.07947 ; brim
G1 X137.944 Y128.754 E0.03961 ; brim
G1 X136.509 Y129.103 E0.04632 ; brim
G1 X129.115 Y129.112 E0.23183 ; brim
G1 X127.653 Y128.796 E0.04689 ; brim
G1 X126.299 Y128.116 E0.04752 ; brim
G1 X124.977 Y126.946 E0.05534 ; brim
G1 X124.040 Y127.863 E0.04109 ; brim
G1 X122.705 Y128.655 E0.04867 ; brim
G1 X121.003 Y129.105 E0.05520 ; brim
G1 X113.720 Y129.123 E0.22838 ; brim
G1 X112.153 Y128.795 E0.05018 ; brim
