;FLAVOR:Marlin
;TIME:911
;Filament used: 0.253518m
;Layer height: 0.13125
;Generated with Cura_SteamEngine 3.2.1
M190 S55
M104 S210
M109 S210
M82 ;absolute extrusion mode
G21;(metric values)
G90;(absolute positioning)
M82;(set extruder to absolute mode)
M107;(start with the fan off)
G28;(Home the printer)
G92 E0;(Reset the extruder to 0)
G0 Z5 E5 F500;(Move up and prime the nozzle)
G0 X-1 Z0;(Move outside the printable area)
G1 Y60 E8 F500;(Draw a priming/wiping line to the rear)
G1 X-1;(Move a little closer to the print area)
G1 Y10 E16 F500;(draw more priming/wiping)
G1 E15 F250;(Small retract)
G92 E0;(Zero the extruder)
;LAYER_COUNT:152
;LAYER:-7
M107
G0 F2160 X54.248 Y54.481 Z0.306
G1 F1125 X54.865 Y53.901 E0.08619
G1 X55.154 Y53.669 E0.1239
G1 X55.371 Y53.51 E0.15128
G1 X55.918 Y53.152 E0.21782
G1 X56.09 Y53.051 E0.23812
G1 X56.364 Y52.905 E0.26972
G1 X56.853 Y52.673 E0.3248
G1 X57.313 Y52.494 E0.37504
G1 X57.72 Y52.361 E0.41862
G1 X58.046 Y52.27 E0.45306
G1 X58.445 Y52.18 E0.49469
G1 X58.81 Y52.116 E0.53241
G1 X59.343 Y52.055 E0.58701
G1 X59.803 Y52.031 E0.63389
G1 X60.098 Y52.028 E0.66392
G1 X60.538 Y52.047 E0.70874
G1 X61.047 Y52.095 E0.76077
G1 X61.257 Y52.127 E0.78239
G1 X61.839 Y52.239 E0.84271
G1 X62.185 Y52.332 E0.87918
G1 X62.942 Y52.592 E0.96064
G1 X63.476 Y52.826 E1.01998
G1 X63.91 Y53.051 E1.06973
G1 X64.079 Y53.152 E1.08977
G1 X64.622 Y53.504 E1.15563
G1 X64.998 Y53.789 E1.20365
G1 X65.253 Y54.005 E1.23766
G1 X65.631 Y54.36 E1.29044
G1 X65.772 Y54.503 E1.31088
G1 X66.122 Y54.895 E1.36436
G1 X66.24 Y55.039 E1.38331
G1 X66.616 Y55.553 E1.44812
G1 X66.896 Y55.995 E1.50138
G1 X67.052 Y56.283 E1.53471
G1 X67.282 Y56.762 E1.58879
G1 X67.414 Y57.083 E1.62411
G1 X67.49 Y57.307 E1.64819
G1 X67.605 Y57.606 E1.68079
G1 X67.68 Y57.853 E1.70707
G1 X67.771 Y58.231 E1.74664
G1 X67.868 Y58.725 E1.79787
G1 X67.92 Y59.097 E1.8361
G1 X67.958 Y59.53 E1.88034
G1 X67.975 Y59.997 E1.9279
G1 X67.96 Y60.431 E1.9721
G1 X67.919 Y60.923 E2.02235
G1 X67.783 Y61.726 E2.10524
G1 X67.679 Y62.155 E2.15016
G1 X67.642 Y62.276 E2.16304
G1 X67.454 Y62.835 E2.22306
G1 X67.284 Y63.239 E2.26767
G1 X67.066 Y63.694 E2.31902
G1 X66.67 Y64.368 E2.39858
G1 X66.401 Y64.747 E2.44588
G1 X66.23 Y64.972 E2.47465
G1 X65.916 Y65.334 E2.52342
G1 X65.608 Y65.669 E2.56973
G1 X65.197 Y66.045 E2.62643
G1 X64.8 Y66.354 E2.67763
G1 X64.674 Y66.459 E2.69432
G1 X64.51 Y66.576 E2.71483
G1 X64.143 Y66.812 E2.75923
G1 X63.887 Y66.958 E2.78923
G1 X63.412 Y67.203 E2.84362
G1 X62.68 Y67.508 E2.92433
G1 X62.228 Y67.655 E2.97271
G1 X61.876 Y67.752 E3.00987
G1 X61.551 Y67.821 E3.04368
G1 X61.237 Y67.877 E3.07614
G1 X60.881 Y67.925 E3.1127
G1 X60.614 Y67.949 E3.13999
G1 X60.204 Y67.969 E3.18176
G1 X59.892 Y67.972 E3.21352
G1 X59.438 Y67.952 E3.25977
G1 X58.973 Y67.907 E3.30732
G1 X58.674 Y67.862 E3.33809
G1 X58.047 Y67.726 E3.40339
G1 X57.688 Y67.63 E3.44121
G1 X57.342 Y67.516 E3.47829
G1 X56.837 Y67.32 E3.53342
G1 X56.401 Y67.114 E3.5825
G1 X56.076 Y66.942 E3.61992
G1 X55.465 Y66.554 E3.69359
G1 X55.178 Y66.348 E3.72954
G1 X54.875 Y66.106 E3.76901
G1 X54.405 Y65.682 E3.83343
G1 X54.219 Y65.487 E3.86086
G1 X53.797 Y65.007 E3.92591
G1 X53.462 Y64.558 E3.98292
G1 X53.338 Y64.377 E4.00525
G1 X53.041 Y63.887 E4.06357
G1 X52.906 Y63.639 E4.0923
G1 X52.745 Y63.305 E4.13004
G1 X52.645 Y63.074 E4.15566
G1 X52.387 Y62.366 E4.23235
G1 X52.273 Y61.969 E4.27439
G1 X52.199 Y61.64 E4.30871
G1 X52.114 Y61.167 E4.35762
G1 X52.079 Y60.882 E4.38685
G1 X52.042 Y60.465 E4.42945
G1 X52.026 Y60.019 E4.47487
G1 X52.044 Y59.494 E4.52834
G1 X52.068 Y59.197 E4.55866
G1 X52.13 Y58.731 E4.60651
G1 X52.185 Y58.476 E4.63306
G1 X52.264 Y58.074 E4.67476
G1 X52.358 Y57.73 E4.71105
G1 X52.532 Y57.203 E4.76753
G1 X52.78 Y56.623 E4.83173
G1 X52.957 Y56.263 E4.87256
G1 X53.083 Y56.034 E4.89916
G1 X53.244 Y55.768 E4.93081
G1 X53.559 Y55.3 E4.98822
G1 X53.83 Y54.953 E5.03304
G1 X54.075 Y54.676 E5.07067
G0 F1012.5 X54.248 Y54.481
G0 F2160 X54.4 Y54.338
G1 F2400 E5.09724
G1 F1125 X54.4 Y65.676 E6.25117
G0 F2160 X56 Y66.893
G1 F1125 X56 Y53.103 E7.65466
G0 F2160 X57.6 Y52.4
G1 F1125 X57.6 Y67.601 E9.20176
G0 F2160 X59.2 Y67.928
G1 F1125 X59.2 Y52.071 E10.81562
G0 F2160 X60.8 Y52.072
G1 F1125 X60.8 Y67.933 E12.42989
G0 F2160 X62.4 Y67.6
G1 F1125 X62.4 Y52.406 E13.97628
G0 F2160 X64 Y53.105
G1 F1125 X64 Y66.894 E15.37967
G0 F2160 X65.6 Y65.677
G1 F1125 X65.6 Y54.331 E16.53442
G0 F2160 X67.2 Y56.592
M104 S205
G1 F1125 X67.2 Y63.415 E17.22883
G0 F2160 X52.8 Y63.419
G1 F1125 X52.8 Y56.582 E17.92468
G0 F2160 X52.598 Y63.093
;TIME_ELAPSED:12.808601
;LAYER:-6
M140 S50
G0 X52.598 Y63.093 Z0.524
;TYPE:SUPPORT
G1 F1125 X52.699 Y63.324 E17.94067
G1 X52.861 Y63.66 E17.96434
G1 X52.997 Y63.912 E17.98251
G1 X53.296 Y64.403 E18.01898
G1 X53.414 Y64.578 E18.03237
G1 X53.757 Y65.037 E18.06872
G1 X54.174 Y65.512 E18.10882
G1 X54.346 Y65.693 E18.12466
G1 X54.791 Y66.098 E18.16284
G1 X55.146 Y66.385 E18.1918
G1 X55.446 Y66.6 E18.21522
G1 X55.99 Y66.948 E18.25619
G1 X56.376 Y67.157 E18.28404
G1 X56.818 Y67.366 E18.31506
G1 X57.243 Y67.533 E18.34403
G1 X57.422 Y67.593 E18.356
G1 X52.412 Y62.583 E18.80552
G1 X52.336 Y62.373 E18.81968
G1 X52.248 Y62.071 E18.83964
G1 X52.13 Y61.556 E18.87316
G1 X52.065 Y61.183 E18.89718
G1 X52.038 Y60.938 E18.91282
G1 X59.066 Y67.965 E19.54335
G1 X59.427 Y68 E19.56636
G1 X59.889 Y68.021 E19.5957
G1 X60.205 Y68.018 E19.61575
G1 X60.38 Y68.008 E19.62687
G1 X51.989 Y59.617 E20.37974
G1 X51.994 Y59.481 E20.38837
G1 X52.019 Y59.19 E20.4069
G1 X52.072 Y58.771 E20.43369
G1 X52.128 Y58.485 E20.45218
G1 X61.519 Y67.876 E21.29477
G1 X61.537 Y67.874 E21.29592
G1 X61.849 Y67.808 E21.31615
G1 X62.233 Y67.704 E21.34139
G1 X62.524 Y67.61 E21.3608
G1 X52.388 Y57.473 E22.27027
G1 X52.485 Y57.18 E22.28985
G1 X52.733 Y56.601 E22.32981
G1 X52.751 Y56.565 E22.33237
G1 X63.433 Y67.247 E23.29079
G0 F2160 X63.434 Y67.247
G1 F1125 X63.899 Y67.007 E23.32399
G1 X64.168 Y66.854 E23.34362
G1 X64.254 Y66.797 E23.35017
G1 X53.2 Y55.743 E24.34197
G1 X53.48 Y55.32 E24.37415
G1 X53.66 Y55.08 E24.39318
G1 X53.728 Y54.999 E24.39989
G1 X64.995 Y66.266 E25.4108
G1 X65.239 Y66.074 E25.4305
G1 X65.412 Y65.921 E25.44515
G1 X65.671 Y65.671 E25.46799
G1 X54.328 Y54.328 E26.48572
G1 X54.343 Y54.312 E26.48711
G1 X54.814 Y53.879 E26.5277
G1 X55 Y53.729 E26.54286
G1 X66.27 Y64.998 E27.55399
G1 X66.306 Y64.954 E27.5576
G1 X66.625 Y64.522 E27.59167
G1 X66.798 Y64.255 E27.61185
G1 X55.746 Y53.203 E28.60347
G1 X55.879 Y53.117 E28.61352
G1 X56.065 Y53.006 E28.62726
G1 X56.34 Y52.861 E28.64698
G1 X56.565 Y52.751 E28.66287
G1 X67.247 Y63.433 E29.62129
G1 X67.328 Y63.259 E29.63347
G1 X67.502 Y62.848 E29.66179
G1 X67.61 Y62.524 E29.68345
G1 X57.473 Y52.388 E30.59293
G1 X57.704 Y52.313 E30.60834
G1 X58.107 Y52.201 E30.63488
G1 X58.435 Y52.13 E30.65617
G1 X58.48 Y52.123 E30.65906
G1 X67.87 Y61.513 E31.50156
G1 X67.903 Y61.34 E31.51273
G1 X67.967 Y60.927 E31.53924
G1 X68.008 Y60.432 E31.57076
G1 X68.01 Y60.382 E31.57393
G1 X59.62 Y51.992 E32.32671
G1 X59.901 Y51.978 E32.34456
G1 X60.2 Y51.98 E32.36353
G1 X60.538 Y51.995 E32.38499
G1 X60.934 Y52.035 E32.41024
G1 X67.964 Y59.065 E33.041
G1 X67.916 Y58.716 E33.06335
G1 X67.819 Y58.221 E33.09535
G1 X67.727 Y57.837 E33.1204
G1 X67.653 Y57.598 E33.13627
G1 X67.585 Y57.414 E33.14872
G1 X62.588 Y52.417 E33.59706
G1 X63.023 Y52.571 E33.62634
G1 X63.549 Y52.806 E33.66289
G1 X63.955 Y53.02 E33.69201
G1 X64.202 Y53.168 E33.71028
G1 X64.642 Y53.458 E33.74371
G1 X64.872 Y53.626 E33.76178
G1 X65.163 Y53.861 E33.78551
G1 X65.658 Y54.316 E33.82817
G1 X65.843 Y54.507 E33.84504
G1 X66.246 Y54.967 E33.88384
G1 X66.578 Y55.413 E33.91911
G1 X66.783 Y55.717 E33.94237
G1 X66.942 Y55.976 E33.96166
G1 X67.092 Y56.252 E33.98158
G1 X67.316 Y56.712 E34.01404
G1 X67.39 Y56.888 E34.02616
G0 F2160 X62.041 Y52.058
;TIME_ELAPSED:26.820408
;LAYER:-5
G0 X62.041 Y52.058 Z0.655
G1 F1500 X61.601 Y51.959 E34.03475
G1 X61.11 Y51.875 E34.04425
G1 X60.829 Y51.844 E34.04964
G1 X60.21 Y51.805 E34.06146
G1 X59.898 Y51.802 E34.06741
G1 X59.327 Y51.83 E34.07831
G1 X58.892 Y51.876 E34.08665
G1 X58.431 Y51.954 E34.09556
G1 X58.072 Y52.029 E34.10255
G1 X57.704 Y52.131 E34.10983
G1 X57.645 Y52.15 E34.11101
G1 X62.353 Y52.15 E34.20076
G0 F2160 X57.645 Y52.15
G1 F1500 X57.293 Y52.263 E34.2078
G1 X56.819 Y52.443 E34.21747
G1 X56.697 Y52.5 E34.22003
G1 X63.296 Y52.5 E34.34583
G1 X63.628 Y52.649 E34.35276
G1 X64.005 Y52.85 E34.36091
G1 X55.995 Y52.85 E34.5136
G1 X55.93 Y52.884 E34.51499
G1 X55.438 Y53.2 E34.52614
G1 X64.57 Y53.2 E34.70022
G1 X64.68 Y53.27 E34.7027
G1 X64.927 Y53.447 E34.70849
G1 X65.057 Y53.55 E34.71166
G1 X54.948 Y53.55 E34.90436
G1 X54.771 Y53.685 E34.9086
G1 X54.601 Y53.833 E34.9129
G1 X54.531 Y53.9 E34.91474
G1 X65.466 Y53.9 E35.12319
G1 X65.785 Y54.195 E35.13147
G1 X65.84 Y54.25 E35.13295
G1 X54.166 Y54.25 E35.35549
G1 X54.09 Y54.322 E35.35748
G1 X53.84 Y54.6 E35.36461
G1 X66.162 Y54.6 E35.59949
G1 X66.286 Y54.74 E35.60306
G1 X66.414 Y54.895 E35.60689
G1 X66.455 Y54.95 E35.6082
G1 X53.544 Y54.95 E35.85431
G1 X53.525 Y54.973 E35.85488
G1 X53.34 Y55.217 E35.86071
G1 X53.285 Y55.3 E35.86261
G1 X66.71 Y55.3 E36.11852
G1 X66.806 Y55.432 E36.12163
G1 X66.945 Y55.65 E36.12656
G1 X53.056 Y55.65 E36.39132
G1 X52.859 Y55.974 E36.39855
G1 X52.845 Y56 E36.39911
G1 X67.156 Y56 E36.67191
G1 X67.249 Y56.173 E36.67565
G1 X67.336 Y56.35 E36.67941
G1 X52.667 Y56.35 E36.95904
G1 X52.499 Y56.7 E36.96644
G1 X67.502 Y56.7 E37.25243
G1 X67.627 Y57.01 E37.2588
G1 X67.641 Y57.05 E37.25961
G1 X52.354 Y57.05 E37.55101
G1 X52.304 Y57.171 E37.55351
G1 X52.229 Y57.4 E37.5581
G1 X67.767 Y57.4 E37.85429
G1 X67.82 Y57.539 E37.85712
G1 X67.885 Y57.75 E37.86133
G1 X52.119 Y57.75 E38.16187
G1 X52.048 Y58.012 E38.16704
G1 X52.031 Y58.1 E38.16875
G1 X67.973 Y58.1 E38.47264
G1 X67.988 Y58.165 E38.47391
G1 X68.042 Y58.45 E38.47944
G1 X51.959 Y58.45 E38.78602
G1 X51.91 Y58.688 E38.79065
G1 X51.895 Y58.8 E38.7928
G1 X68.107 Y58.8 E39.10184
G1 X68.114 Y58.839 E39.1026
G1 X68.144 Y59.074 E39.10711
G1 X68.152 Y59.15 E39.10857
G1 X51.849 Y59.15 E39.41934
G1 X51.845 Y59.173 E39.41979
G1 X51.818 Y59.473 E39.42553
G1 X51.817 Y59.5 E39.42604
G1 X68.181 Y59.5 E39.73798
G1 X68.196 Y59.85 E39.74465
G1 X51.805 Y59.85 E40.0571
G1 X51.805 Y60.2 E40.06377
G1 X68.194 Y60.2 E40.37619
G1 X68.178 Y60.55 E40.38286
G1 X51.821 Y60.55 E40.69466
G1 X51.823 Y60.568 E40.69501
G1 X51.853 Y60.9 E40.70136
G1 X68.147 Y60.9 E41.01196
G1 X68.143 Y60.945 E41.01283
G1 X68.116 Y61.152 E41.0168
G1 X68.098 Y61.25 E41.0187
G1 X51.898 Y61.25 E41.32751
G1 X51.959 Y61.6 E41.33428
G1 X68.034 Y61.6 E41.64071
G1 X68.005 Y61.759 E41.64379
G1 X67.958 Y61.95 E41.64754
G1 X52.036 Y61.95 E41.95105
G1 X52.134 Y62.3 E41.95798
G1 X67.868 Y62.3 E42.2579
G1 X67.763 Y62.632 E42.26454
G1 X67.756 Y62.65 E42.26491
G1 X52.249 Y62.65 E42.56051
G1 X52.377 Y63 E42.56761
G1 X67.628 Y63 E42.85833
G1 X67.487 Y63.333 E42.86522
G1 X67.478 Y63.35 E42.86559
G1 X52.517 Y63.35 E43.15078
G1 X52.684 Y63.7 E43.15817
G1 X67.313 Y63.7 E43.43703
G1 X67.303 Y63.722 E43.43749
G1 X67.221 Y63.88 E43.44088
G1 X67.12 Y64.05 E43.44465
G1 X52.875 Y64.05 E43.71619
G1 X53.089 Y64.4 E43.72401
G1 X66.912 Y64.4 E43.98751
G1 X66.864 Y64.481 E43.98931
G1 X66.719 Y64.694 E43.99422
G1 X66.677 Y64.75 E43.99555
G1 X53.328 Y64.75 E44.25001
G1 X53.585 Y65.1 E44.25829
G1 X66.415 Y65.1 E44.50286
G1 X66.408 Y65.11 E44.50309
G1 X66.112 Y65.45 E44.51169
G1 X53.885 Y65.45 E44.74476
G1 X54.07 Y65.66 E44.75009
G1 X54.204 Y65.8 E44.75379
G1 X65.792 Y65.8 E44.97468
G1 X65.764 Y65.831 E44.97548
G1 X65.533 Y66.048 E44.98152
G1 X65.417 Y66.15 E44.98446
G1 X54.587 Y66.15 E45.19091
G1 X54.722 Y66.271 E45.19436
G1 X55.006 Y66.5 E45.20132
G1 X64.976 Y66.5 E45.39137
G1 X64.672 Y66.736 E45.3987
G1 X64.498 Y66.85 E45.40267
G1 X55.51 Y66.85 E45.574
G1 X55.898 Y67.098 E45.58278
G1 X56.086 Y67.2 E45.58686
G1 X63.908 Y67.2 E45.73596
G1 X63.517 Y67.403 E45.74436
G1 X63.163 Y67.55 E45.75166
G1 X56.809 Y67.55 E45.87279
G1 X56.886 Y67.584 E45.87439
G1 X57.27 Y67.729 E45.88222
G1 X57.626 Y67.847 E45.88936
G1 X57.825 Y67.9 E45.89329
G1 X62.182 Y67.9 E45.97634
G1 X62.022 Y67.945 E45.97951
G1 X61.594 Y68.042 E45.98788
G1 X61.315 Y68.092 E45.99328
G1 X60.903 Y68.148 E46.00121
G1 X60.543 Y68.179 E46.00809
G1 X60.078 Y68.197 E46.01697
G1 X59.797 Y68.195 E46.02232
G1 X59.122 Y68.151 E46.03522
G1 X58.638 Y68.084 E46.04453
G1 X57.987 Y67.943 E46.05723
G0 F2160 X52.149 Y57.638
;TIME_ELAPSED:53.187107
;LAYER:-4
G0 X52.149 Y57.638 Z0.786
G1 F1500 X52.149 Y62.352 E46.14709
G1 X52.174 Y62.443 E46.14889
G1 X52.437 Y63.161 E46.16346
G1 X52.499 Y63.308 E46.1665
G1 X52.499 Y56.695 E46.29256
G1 X52.759 Y56.155 E46.30399
G1 X52.849 Y55.989 E46.30759
G1 X52.849 Y64.005 E46.46039
G1 X53.18 Y64.547 E46.47249
G1 X53.199 Y64.572 E46.47309
G1 X53.199 Y55.424 E46.64747
G1 X53.339 Y55.216 E46.65225
G1 X53.524 Y54.972 E46.65809
G1 X53.549 Y54.941 E46.65885
G1 X53.549 Y65.049 E46.85153
G1 X53.616 Y65.141 E46.8537
G1 X53.899 Y65.464 E46.86189
G1 X53.899 Y54.532 E47.07027
G1 X54.089 Y54.321 E47.07569
G1 X54.249 Y54.167 E47.07992
G1 X54.249 Y65.845 E47.30253
G0 F2160 X54.25 Y65.847
G1 F1500 X54.599 Y66.16 E47.31146
G1 X54.599 Y53.832 E47.54646
G1 X54.77 Y53.684 E47.55077
G1 X54.949 Y53.547 E47.55507
G1 X54.949 Y66.453 E47.80109
G1 X55.034 Y66.522 E47.80317
G1 X55.299 Y66.711 E47.80938
G1 X55.299 Y53.287 E48.06527
G1 X55.649 Y53.062 E48.0732
G1 X55.649 Y66.938 E48.33771
G1 X55.898 Y67.098 E48.34335
G1 X55.999 Y67.152 E48.34553
G1 X55.999 Y52.846 E48.61824
G1 X56.349 Y52.661 E48.62579
G1 X56.349 Y67.338 E48.90556
G1 X56.521 Y67.422 E48.90921
G1 X56.699 Y67.501 E48.91292
G1 X56.699 Y52.497 E49.19893
G1 X56.818 Y52.442 E49.20143
G1 X57.049 Y52.354 E49.20614
G1 X57.049 Y67.645 E49.49762
G1 X57.27 Y67.729 E49.50213
G1 X57.399 Y67.771 E49.50472
G1 X57.399 Y52.227 E49.80102
G1 X57.703 Y52.13 E49.8071
G1 X57.749 Y52.117 E49.80801
G1 X57.749 Y67.879 E50.10847
G1 X57.987 Y67.943 E50.11317
G1 X58.099 Y67.967 E50.11535
G1 X58.099 Y52.022 E50.4193
G1 X58.43 Y51.953 E50.42575
G1 X58.449 Y51.949 E50.42612
G1 X58.449 Y68.043 E50.7329
G1 X58.638 Y68.084 E50.73659
G1 X58.799 Y68.106 E50.73969
G1 X58.799 Y51.89 E51.0488
G1 X58.891 Y51.875 E51.05058
G1 X59.149 Y51.847 E51.05552
G1 X59.149 Y68.152 E51.36633
G1 X59.499 Y68.175 E51.37302
G1 X59.499 Y51.82 E51.68478
G1 X59.849 Y51.804 E51.69146
G1 X59.849 Y68.194 E52.00389
G1 X60.078 Y68.196 E52.00826
G1 X60.199 Y68.192 E52.01056
G1 X60.199 Y51.805 E52.32294
G1 X60.209 Y51.805 E52.32313
G1 X60.549 Y51.827 E52.32962
G1 X60.549 Y68.178 E52.64131
G1 X60.899 Y68.148 E52.648
G1 X60.899 Y51.852 E52.95864
G1 X61.109 Y51.875 E52.96267
G1 X61.249 Y51.899 E52.96538
G1 X61.249 Y68.1 E53.2742
G1 X61.315 Y68.091 E53.27547
G1 X61.599 Y68.04 E53.28097
G1 X61.599 Y51.959 E53.58751
G1 X61.949 Y52.038 E53.59435
G1 X61.949 Y67.961 E53.89788
G1 X62.022 Y67.944 E53.89931
G1 X62.299 Y67.867 E53.90479
G1 X62.299 Y52.135 E54.20468
G1 X62.413 Y52.168 E54.20694
G1 X62.649 Y52.251 E54.21171
G1 X62.649 Y67.754 E54.50723
G1 X62.765 Y67.715 E54.50956
G1 X62.999 Y67.618 E54.51439
G1 X62.999 Y52.375 E54.80496
G1 X63.084 Y52.406 E54.80668
G1 X63.349 Y52.525 E54.81222
G1 X63.349 Y67.472 E55.09714
G1 X63.517 Y67.402 E55.10061
G1 X63.699 Y67.308 E55.10451
G1 X63.699 Y52.688 E55.3832
G1 X64.049 Y52.875 E55.39077
G1 X64.049 Y67.123 E55.66237
G1 X64.341 Y66.952 E55.66882
G1 X64.399 Y66.914 E55.67014
G1 X64.399 Y53.093 E55.9336
G1 X64.679 Y53.27 E55.93991
G1 X64.749 Y53.321 E55.94156
G1 X64.749 Y66.676 E56.19614
G1 X65.099 Y66.404 E56.20459
G1 X65.099 Y53.586 E56.44893
G1 X65.278 Y53.728 E56.45328
G1 X65.449 Y53.886 E56.45772
G1 X65.449 Y66.122 E56.69097
G1 X65.533 Y66.047 E56.69311
G1 X65.763 Y65.83 E56.69914
G1 X65.799 Y65.791 E56.70015
G1 X65.8 Y54.211 E56.92089
G1 X65.94 Y54.352 E56.92468
G1 X66.15 Y54.588 E56.9307
G1 X66.149 Y65.408 E57.13696
G1 X66.407 Y65.11 E57.14447
G1 X66.499 Y64.987 E57.1474
G1 X66.5 Y55.013 E57.33752
G1 X66.806 Y55.432 E57.34741
G1 X66.85 Y55.502 E57.34899
G1 X66.849 Y64.502 E57.52055
G1 X66.863 Y64.481 E57.52103
G1 X67.199 Y63.916 E57.53356
G1 X67.2 Y56.083 E57.68288
G1 X67.249 Y56.173 E57.68483
