;FLAVOR:Marlin
;TIME:9357
;Filament used: 4.94263m
;Layer height: 0.13125
;Generated with Cura_SteamEngine 3.2.1
M190 S55
M104 S210
M109 S210
M82 ;absolute extrusion mode
G21;(metric values)
G90;(absolute positioning)
M82;(set extruder to absolute mode)
M107;(start with the fan off)
G28;(Home the printer)
G92 E0;(Reset the extruder to 0)
G0 Z5 E5 F500;(Move up and prime the nozzle)
G0 X-1 Z0;(Move outside the printable area)
G1 Y60 E8 F500;(Draw a priming/wiping line to the rear)
G1 X-1;(Move a little closer to the print area)
G1 Y10 E16 F500;(draw more priming/wiping)
G1 E15 F250;(Small retract)
G92 E0;(Zero the extruder)
;LAYER_COUNT:114
;LAYER:-7
M107
G0 F2160 X8.86 Y39.977 Z0.306
G1 F1125 X9.121 Y39.921 E0.02717
G1 X9.441 Y39.873 E0.0601
G1 X9.909 Y39.837 E0.10787
G1 X10.101 Y39.83 E0.12743
G1 X110.322 Y39.834 E10.32752
G1 X110.699 Y39.858 E10.36597
G1 X110.997 Y39.895 E10.39653
G1 X111.281 Y39.95 E10.42597
G1 X111.572 Y40.026 E10.45658
G1 X111.83 Y40.11 E10.4842
G1 X112.109 Y40.221 E10.51476
G1 X112.367 Y40.343 E10.5438
G1 X112.626 Y40.487 E10.57396
G1 X112.845 Y40.626 E10.60036
G1 X113.111 Y40.824 E10.63411
G1 X113.587 Y41.24 E10.69845
G1 X113.925 Y41.62 E10.75021
G1 X114.092 Y41.835 E10.77792
G1 X114.248 Y42.066 E10.80629
G1 X114.406 Y42.334 E10.83795
G1 X114.538 Y42.593 E10.86754
G1 X114.641 Y42.832 E10.89402
G1 X114.746 Y43.124 E10.92561
G1 X114.827 Y43.406 E10.95547
G1 X114.883 Y43.66 E10.98194
G1 X114.932 Y43.99 E11.01589
G1 X114.968 Y44.451 E11.06295
G1 X114.975 Y44.636 E11.0818
G1 X114.975 Y47.089 E11.33145
G1 X115.017 Y47.753 E11.39917
G1 X115.101 Y48.24 E11.44946
G1 X115.145 Y48.553 E11.48163
G1 X115.164 Y48.762 E11.50299
G1 X115.175 Y49.065 E11.53385
G1 X115.171 Y49.86 E11.61476
G1 X115.109 Y50.841 E11.71481
G1 X115.127 Y51.27 E11.75851
G1 X115.167 Y51.795 E11.81209
G1 X115.175 Y52.017 E11.8347
G1 X115.171 Y52.738 E11.90808
G1 X115.148 Y53.11 E11.94602
G1 X115.108 Y53.425 E11.97833
G1 X115.068 Y53.64 E12.00059
G1 X114.975 Y54.617 E12.10048
G1 X114.975 Y57.163 E12.3596
G1 X114.969 Y57.341 E12.37772
G1 X114.914 Y58.005 E12.44553
G1 X114.886 Y58.138 E12.45937
G1 X114.718 Y58.787 E12.5276
G1 X114.651 Y59.003 E12.55061
G1 X113.945 Y60.929 E12.75939
G1 X113.78 Y61.306 E12.80127
G1 X113.655 Y61.547 E12.8289
G1 X113.508 Y61.795 E12.85824
G1 X113.351 Y62.024 E12.8865
G1 X113.156 Y62.274 E12.91877
G1 X112.973 Y62.477 E12.94659
G1 X112.747 Y62.7 E12.9789
G1 X112.552 Y62.871 E13.0053
G1 X112.213 Y63.131 E13.04878
G1 X111.796 Y63.387 E13.09858
G1 X111.54 Y63.518 E13.12785
G1 X111.266 Y63.64 E13.15837
G1 X111.003 Y63.737 E13.1869
G1 X110.719 Y63.821 E13.21705
G1 X110.434 Y63.886 E13.2468
G1 X110.135 Y63.935 E13.27763
G1 X109.882 Y63.963 E13.30354
G1 X109.462 Y63.98 E13.34632
G1 X109.124 Y63.976 E13.38072
G1 X108.748 Y63.952 E13.41907
G1 X108.467 Y63.917 E13.44789
G1 X107.794 Y63.874 E13.51652
G1 X107.533 Y63.896 E13.54318
G1 X107.531 Y63.877 E13.54513
G1 X106.742 Y63.962 E13.62589
G1 X106.32 Y63.98 E13.66888
G1 X105.982 Y63.976 E13.70328
G1 X105.606 Y63.952 E13.74163
G1 X105.325 Y63.917 E13.77045
G1 X104.652 Y63.874 E13.83908
G1 X104.391 Y63.896 E13.86574
G1 X104.389 Y63.877 E13.86769
G1 X103.6 Y63.962 E13.94845
G1 X103.178 Y63.98 E13.99144
G1 X102.84 Y63.976 E14.02584
G1 X102.464 Y63.952 E14.06419
G1 X102.183 Y63.917 E14.09301
G1 X101.51 Y63.874 E14.16164
G1 X101.249 Y63.896 E14.1883
G1 X101.247 Y63.877 E14.19025
G1 X100.458 Y63.962 E14.27101
G1 X100.036 Y63.98 E14.314
G1 X99.698 Y63.976 E14.3484
G1 X99.322 Y63.952 E14.38675
G1 X99.041 Y63.917 E14.41557
G1 X98.368 Y63.874 E14.4842
G1 X98.107 Y63.896 E14.51086
G1 X98.105 Y63.877 E14.51281
G1 X97.316 Y63.962 E14.59357
G1 X96.894 Y63.98 E14.63656
G1 X96.556 Y63.976 E14.67096
G1 X96.18 Y63.952 E14.70931
G1 X95.899 Y63.917 E14.73813
G1 X95.226 Y63.874 E14.80676
G1 X94.965 Y63.896 E14.83342
G1 X94.963 Y63.877 E14.83537
G1 X94.174 Y63.962 E14.91613
G1 X93.752 Y63.98 E14.95912
G1 X93.414 Y63.976 E14.99352
G1 X93.038 Y63.952 E15.03187
G1 X92.757 Y63.917 E15.06069
G1 X92.084 Y63.874 E15.12932
G1 X91.823 Y63.896 E15.15598
G1 X91.821 Y63.877 E15.15793
G1 X91.032 Y63.962 E15.23869
G1 X90.61 Y63.98 E15.28168
G1 X90.272 Y63.976 E15.31608
G1 X89.896 Y63.952 E15.35443
G1 X89.615 Y63.917 E15.38325
G1 X88.942 Y63.874 E15.45188
G1 X88.681 Y63.896 E15.47854
G1 X88.679 Y63.877 E15.48049
G1 X87.89 Y63.962 E15.56125
G1 X87.468 Y63.98 E15.60424
G1 X87.13 Y63.976 E15.63864
G1 X86.754 Y63.952 E15.67699
G1 X86.473 Y63.917 E15.70581
G1 X85.8 Y63.874 E15.77444
G1 X85.539 Y63.896 E15.8011
G1 X85.537 Y63.877 E15.80305
G1 X84.748 Y63.962 E15.88381
G1 X84.326 Y63.98 E15.9268
G1 X83.988 Y63.976 E15.9612
G1 X83.612 Y63.952 E15.99955
G1 X83.331 Y63.917 E16.02837
G1 X82.658 Y63.874 E16.097
G1 X82.397 Y63.896 E16.12366
G1 X82.395 Y63.877 E16.12561
G1 X81.606 Y63.962 E16.20637
G1 X81.184 Y63.98 E16.24936
G1 X80.846 Y63.976 E16.28376
G1 X80.47 Y63.952 E16.32211
G1 X80.189 Y63.917 E16.35093
G1 X79.516 Y63.874 E16.41956
G1 X79.255 Y63.896 E16.44622
G1 X79.253 Y63.877 E16.44817
G1 X78.464 Y63.962 E16.52893
G1 X78.042 Y63.98 E16.57192
G1 X77.704 Y63.976 E16.60632
G1 X77.328 Y63.952 E16.64467
G1 X77.047 Y63.917 E16.67349
G1 X76.374 Y63.874 E16.74212
G1 X76.113 Y63.896 E16.76878
G1 X76.111 Y63.877 E16.77073
G1 X75.322 Y63.962 E16.85149
G1 X74.9 Y63.98 E16.89448
G1 X74.562 Y63.976 E16.92888
G1 X74.186 Y63.952 E16.96723
G1 X73.905 Y63.917 E16.99605
G1 X73.232 Y63.874 E17.06468
G1 X72.971 Y63.896 E17.09134
G1 X72.969 Y63.877 E17.09329
G1 X72.18 Y63.962 E17.17405
G1 X71.758 Y63.98 E17.21704
G1 X71.42 Y63.976 E17.25144
G1 X71.044 Y63.952 E17.28979
G1 X70.763 Y63.917 E17.31861
G1 X70.09 Y63.874 E17.38724
G1 X69.829 Y63.896 E17.4139
G1 X69.827 Y63.877 E17.41585
G1 X69.038 Y63.962 E17.49661
G1 X68.616 Y63.98 E17.5396
G1 X68.278 Y63.976 E17.574
G1 X67.902 Y63.952 E17.61235
G1 X67.621 Y63.917 E17.64117
G1 X66.948 Y63.874 E17.7098
G1 X66.687 Y63.896 E17.73646
G1 X66.685 Y63.877 E17.73841
G1 X65.896 Y63.962 E17.81917
G1 X65.474 Y63.98 E17.86216
G1 X65.136 Y63.976 E17.89656
G1 X64.76 Y63.952 E17.93491
G1 X64.479 Y63.917 E17.96373
G1 X63.806 Y63.874 E18.03236
G1 X63.545 Y63.896 E18.05902
G1 X63.543 Y63.877 E18.06097
G1 X62.754 Y63.962 E18.14173
G1 X62.332 Y63.98 E18.18472
G1 X61.994 Y63.976 E18.21912
G1 X61.618 Y63.952 E18.25747
G1 X61.337 Y63.917 E18.28629
G1 X60.664 Y63.874 E18.35492
G1 X60.403 Y63.896 E18.38158
G1 X60.401 Y63.877 E18.38353
G1 X59.612 Y63.962 E18.46429
G1 X59.19 Y63.98 E18.50728
G1 X58.852 Y63.976 E18.54168
G1 X58.476 Y63.952 E18.58003
G1 X58.195 Y63.917 E18.60885
G1 X57.522 Y63.874 E18.67748
G1 X57.261 Y63.896 E18.70414
G1 X57.259 Y63.877 E18.70609
G1 X56.47 Y63.962 E18.78685
G1 X56.048 Y63.98 E18.82984
G1 X55.71 Y63.976 E18.86424
G1 X55.334 Y63.952 E18.90259
G1 X55.053 Y63.917 E18.93141
G1 X54.38 Y63.874 E19.00004
G1 X54.119 Y63.896 E19.0267
G1 X54.117 Y63.877 E19.02865
G1 X53.328 Y63.962 E19.10941
G1 X52.906 Y63.98 E19.1524
G1 X52.568 Y63.976 E19.1868
G1 X52.192 Y63.952 E19.22515
G1 X51.911 Y63.917 E19.25397
G1 X51.238 Y63.874 E19.3226
G1 X50.977 Y63.896 E19.34926
G1 X50.975 Y63.877 E19.35121
G1 X50.186 Y63.962 E19.43197
G1 X49.764 Y63.98 E19.47496
G1 X49.426 Y63.976 E19.50936
G1 X49.05 Y63.952 E19.54771
G1 X48.769 Y63.917 E19.57653
G1 X48.096 Y63.874 E19.64516
G1 X47.835 Y63.896 E19.67182
G1 X47.833 Y63.877 E19.67377
G1 X47.044 Y63.962 E19.75453
G1 X46.622 Y63.98 E19.79752
G1 X46.284 Y63.976 E19.83192
G1 X45.908 Y63.952 E19.87027
G1 X45.627 Y63.917 E19.89909
G1 X44.954 Y63.874 E19.96772
G1 X44.693 Y63.896 E19.99438
G1 X44.691 Y63.877 E19.99633
G1 X43.902 Y63.962 E20.07709
G1 X43.48 Y63.98 E20.12008
G1 X43.142 Y63.976 E20.15448
G1 X42.766 Y63.952 E20.19283
G1 X42.485 Y63.917 E20.22165
G1 X41.812 Y63.874 E20.29028
G1 X41.551 Y63.896 E20.31694
G1 X41.549 Y63.877 E20.31889
G1 X40.76 Y63.962 E20.39965
G1 X40.338 Y63.98 E20.44264
G1 X40 Y63.976 E20.47704
G1 X39.624 Y63.952 E20.51539
G1 X39.343 Y63.917 E20.54421
G1 X38.67 Y63.874 E20.61284
G1 X38.409 Y63.896 E20.6395
G1 X38.407 Y63.877 E20.64144
G1 X37.618 Y63.962 E20.72221
G1 X37.196 Y63.98 E20.7652
G1 X36.858 Y63.976 E20.7996
G1 X36.482 Y63.952 E20.83795
G1 X36.201 Y63.917 E20.86677
G1 X35.528 Y63.874 E20.9354
G1 X35.267 Y63.896 E20.96206
G1 X35.265 Y63.877 E20.964
G1 X34.476 Y63.962 E21.04477
G1 X34.054 Y63.98 E21.08776
G1 X33.716 Y63.976 E21.12216
G1 X33.34 Y63.952 E21.16051
G1 X33.059 Y63.917 E21.18933
G1 X32.386 Y63.874 E21.25796
G1 X32.125 Y63.896 E21.28462
G1 X32.123 Y63.877 E21.28656
G1 X31.334 Y63.962 E21.36733
G1 X30.912 Y63.98 E21.41032
G1 X30.574 Y63.976 E21.44472
G1 X30.198 Y63.952 E21.48307
G1 X29.917 Y63.917 E21.51189
G1 X29.244 Y63.874 E21.58052
G1 X28.983 Y63.896 E21.60718
G1 X28.981 Y63.877 E21.60912
G1 X28.192 Y63.962 E21.68989
G1 X27.77 Y63.98 E21.73288
G1 X27.432 Y63.976 E21.76728
G1 X27.056 Y63.952 E21.80563
G1 X26.775 Y63.917 E21.83445
G1 X26.102 Y63.874 E21.90308
G1 X25.841 Y63.896 E21.92974
G1 X25.839 Y63.877 E21.93168
G1 X25.05 Y63.962 E22.01245
G1 X24.628 Y63.98 E22.05544
G1 X24.29 Y63.976 E22.08984
G1 X23.914 Y63.952 E22.12819
G1 X23.633 Y63.917 E22.15701
G1 X22.96 Y63.874 E22.22564
G1 X22.699 Y63.896 E22.2523
G1 X22.697 Y63.877 E22.25424
G1 X21.908 Y63.962 E22.33501
G1 X21.486 Y63.98 E22.378
G1 X21.148 Y63.976 E22.4124
G1 X20.772 Y63.952 E22.45075
G1 X20.491 Y63.917 E22.47957
G1 X19.818 Y63.874 E22.5482
G1 X19.557 Y63.896 E22.57486
G1 X19.555 Y63.877 E22.5768
G1 X18.766 Y63.962 E22.65757
G1 X18.344 Y63.98 E22.70056
G1 X18.006 Y63.976 E22.73496
G1 X17.63 Y63.952 E22.77331
G1 X17.349 Y63.917 E22.80213
G1 X16.676 Y63.874 E22.87076
G1 X16.415 Y63.896 E22.89742
G1 X16.413 Y63.877 E22.89936
G1 X15.624 Y63.962 E22.98013
G1 X15.202 Y63.98 E23.02312
G1 X14.864 Y63.976 E23.05752
G1 X14.488 Y63.952 E23.09587
G1 X14.207 Y63.917 E23.12469
G1 X13.534 Y63.874 E23.19332
G1 X13.273 Y63.896 E23.21998
G1 X13.271 Y63.877 E23.22192
G1 X12.482 Y63.962 E23.30269
G1 X12.06 Y63.98 E23.34568
G1 X11.722 Y63.976 E23.38008
G1 X11.345 Y63.952 E23.41853
G1 X11.047 Y63.915 E23.44909
G1 X10.763 Y63.86 E23.47853
G1 X10.472 Y63.784 E23.50914
G1 X10.212 Y63.699 E23.53698
G1 X9.947 Y63.594 E23.56599
G1 X9.648 Y63.452 E23.59968
G1 X9.432 Y63.334 E23.62473
G1 X9.11 Y63.131 E23.66347
G1 X8.723 Y62.829 E23.71343
G1 X8.495 Y62.625 E23.74457
G1 X8.308 Y62.434 E23.77178
G1 X8.104 Y62.198 E23.80352
G1 X7.942 Y61.985 E23.83076
G1 X7.712 Y61.638 E23.87313
G1 X7.306 Y61.102 E23.94157
G1 X7.146 Y60.942 E23.96459
G1 X7.162 Y60.926 E23.9669
G1 X6.669 Y60.47 E24.03525
G1 X6.331 Y60.09 E24.08701
G1 X6.164 Y59.875 E24.11471
G1 X6.007 Y59.642 E24.14331
G1 X5.85 Y59.376 E24.17474
G1 X5.72 Y59.119 E24.20406
G1 X5.604 Y58.849 E24.23397
G1 X5.512 Y58.593 E24.26165
G1 X5.428 Y58.301 E24.29258
G1 X5.372 Y58.04 E24.31974
G1 X5.324 Y57.72 E24.35268
G1 X5.287 Y57.242 E24.40147
G1 X5.281 Y57.074 E24.41858
G1 X5.281 Y54.621 E24.66824
G1 X5.239 Y53.957 E24.73595
G1 X5.155 Y53.47 E24.78625
G1 X5.112 Y53.162 E24.8179
G1 X5.092 Y52.948 E24.83977
G1 X5.081 Y52.645 E24.87063
G1 X5.085 Y51.85 E24.95154
G1 X5.147 Y50.869 E25.05159
G1 X5.13 Y50.449 E25.09437
G1 X5.088 Y49.875 E25.15294
G1 X5.081 Y49.673 E25.17351
G1 X5.09 Y48.927 E25.24944
G1 X5.112 Y48.588 E25.28402
G1 X5.155 Y48.259 E25.31779
G1 X5.182 Y48.125 E25.3317
G1 X5.269 Y47.467 E25.39925
G1 X5.281 Y47.101 E25.43652
G1 X5.285 Y44.483 E25.70297
G1 X5.309 Y44.106 E25.74142
G1 X5.346 Y43.808 E25.77198
G1 X5.401 Y43.524 E25.80142
G1 X5.477 Y43.233 E25.83203
G1 X5.561 Y42.975 E25.85965
G1 X5.672 Y42.696 E25.89021
G1 X5.794 Y42.438 E25.91925
G1 X5.933 Y42.188 E25.94837
G1 X6.085 Y41.95 E25.97711
G1 X6.275 Y41.694 E26.00955
G1 X6.691 Y41.218 E26.07389
G1 X7.071 Y40.88 E26.12565
G1 X7.286 Y40.713 E26.15336
G1 X7.517 Y40.557 E26.18173
G1 X7.785 Y40.399 E26.21339
G1 X8.042 Y40.269 E26.24271
G1 X8.312 Y40.153 E26.27261
G1 X8.568 Y40.061 E26.3003
G1 X8.609 Y40.049 E26.30465
G0 F1012.5 X8.86 Y39.977
G0 F2160 X9.6 Y39.86
G1 F2400 E26.33121
G1 F1125 X9.6 Y63.425 E28.72956
G0 F2160 X11.2 Y63.933
G1 F1125 X11.2 Y39.831 E31.18257
G0 F2160 X12.8 Y39.831
G1 F1125 X12.8 Y63.928 E33.63507
G0 F2160 X14.4 Y63.941
G1 F1125 X14.4 Y39.831 E36.08888
G0 F2160 X16 Y39.831
G1 F1125 X16 Y63.922 E38.54077
G0 F2160 X17.6 Y63.948
G1 F1125 X17.6 Y39.831 E40.9953
G0 F2160 X19.2 Y39.831
G1 F1125 X19.2 Y63.916 E43.44658
G0 F2160 X20.8 Y63.953
G1 F1125 X20.8 Y39.831 E45.90162
G0 F2160 X22.4 Y39.831
G1 F1125 X22.4 Y63.909 E48.35218
G0 F2160 X24 Y63.957
G1 F1125 X24 Y39.831 E50.80763
G0 F2160 X25.6 Y39.831
G1 F1125 X25.6 Y63.903 E53.25758
G0 F2160 X27.2 Y63.961
G1 F1125 X27.2 Y39.831 E55.71344
G0 F2160 X28.8 Y39.831
G1 F1125 X28.8 Y63.897 E58.16278
G0 F2160 X30.4 Y63.964
G1 F1125 X30.4 Y39.831 E60.61894
G0 F2160 X32 Y39.831
G1 F1125 X32 Y63.891 E63.06767
G0 F2160 X33.6 Y63.968
G1 F1125 X33.6 Y39.831 E65.52424
G0 F2160 X35.2 Y39.832
G1 F1125 X35.2 Y63.885 E67.97226
G0 F2160 X36.8 Y63.972
G1 F1125 X36.8 Y39.832 E70.42913
G0 F2160 X38.4 Y39.832
G1 F1125 X38.4 Y63.878 E72.87644
G0 F2160 X40 Y63.976
G1 F1125 X40 Y39.832 E75.33372
G0 F2160 X41.6 Y39.832
G1 F1125 X41.6 Y63.892 E77.78245
G0 F2160 X43.2 Y63.976
G1 F1125 X43.2 Y39.832 E80.23973
G0 F2160 X44.8 Y39.832
G1 F1125 X44.8 Y63.887 E82.68795
G0 F2160 X46.4 Y63.977
G1 F1125 X46.4 Y39.832 E85.14533
G0 F2160 X48 Y39.832
G1 F1125 X48 Y63.883 E87.59315
G0 F2160 X49.6 Y63.978
G1 F1125 X49.6 Y39.832 E90.05063
G0 F2160 X51.2 Y39.832
G1 F1125 X51.2 Y63.878 E92.49793
G0 F2160 X52.8 Y63.978
G1 F1125 X52.8 Y39.832 E94.95542
G0 F2160 X54.4 Y39.832
G1 F1125 X54.4 Y63.875 E97.40242
G0 F2160 X56 Y63.979
G1 F1125 X56 Y39.832 E99.86
G0 F2160 X57.6 Y39.832
G1 F1125 X57.6 Y63.878 E102.30731
G0 F2160 X59.2 Y63.98
G1 F1125 X59.2 Y39.832 E104.765
G0 F2160 X60.8 Y39.833
G1 F1125 X60.8 Y63.882 E107.21261
G0 F2160 X62.4 Y63.978
G1 F1125 X62.4 Y39.833 E109.66999
G0 F2160 X64 Y39.833
G1 F1125 X64 Y63.886 E112.11801
G0 F2160 X65.6 Y63.975
G1 F1125 X65.6 Y39.833 E114.57509
G0 F2160 X67.2 Y39.833
G1 F1125 X67.2 Y63.89 E117.02351
G0 F2160 X68.8 Y63.973
G1 F1125 X68.8 Y39.833 E119.48038
G0 F2160 X70.4 Y39.833
G1 F1125 X70.4 Y63.893 E121.92912
G0 F2160 X72 Y63.97
G1 F1125 X72 Y39.833 E124.38568
G0 F2160 X73.6 Y39.833
G1 F1125 X73.6 Y63.897 E126.83482
G0 F2160 X75.2 Y63.968
G1 F1125 X75.2 Y39.833 E129.29119
G0 F2160 X76.8 Y39.833
G1 F1125 X76.8 Y63.901 E131.74073
G0 F2160 X78.4 Y63.965
G1 F1125 X78.4 Y39.833 E134.19679
G0 F2160 X80 Y39.833
G1 F1125 X80 Y63.904 E136.64664
G0 F2160 X81.6 Y63.963
G1 F1125 X81.6 Y39.833 E139.10249
G0 F2160 X83.2 Y39.833
G1 F1125 X83.2 Y63.908 E141.55275
G0 F2160 X84.8 Y63.957
G1 F1125 X84.8 Y39.833 E144.008
G0 F2160 X86.4 Y39.834
G1 F1125 X86.4 Y63.912 E146.45856
G0 F2160 X88 Y63.951
G1 F1125 X88 Y39.834 E148.91309
G0 F2160 X89.6 Y39.834
G1 F1125 X89.6 Y63.916 E151.36406
G0 F2160 X91.2 Y63.944
G1 F1125 X91.2 Y39.834 E153.81788
G0 F2160 X92.8 Y39.834
G1 F1125 X92.8 Y63.922 E156.26946
G0 F2160 X94.4 Y63.938
G1 F1125 X94.4 Y39.834 E158.72267
G0 F2160 X96 Y39.834
G1 F1125 X96 Y63.929 E161.17496
G0 F2160 X97.6 Y63.932
G1 F1125 X97.6 Y39.834 E163.62756
G0 F2160 X99.2 Y39.834
G1 F1125 X99.2 Y63.936 E166.08057
G0 F2160 X100.8 Y63.926
G1 F1125 X100.8 Y39.834 E168.53256
G0 F2160 X102.4 Y39.834
G1 F1125 X102.4 Y63.944 E170.98638
G0 F2160 X104 Y63.919
G1 F1125 X104 Y39.834 E173.43765
G0 F2160 X105.6 Y39.834
G1 F1125 X105.6 Y63.951 E175.89218
G0 F2160 X107.2 Y63.913
G1 F1125 X107.2 Y39.834 E178.34285
G0 F2160 X108.8 Y39.834
G1 F1125 X108.8 Y63.955 E180.79779
G0 F2160 X110.4 Y63.892
G1 F1125 X110.4 Y39.839 E183.2458
G0 F2160 X112 Y40.178
G1 F1125 X112 Y63.262 E185.5952
G0 F2160 X113.6 Y61.64
G1 F1125 X113.6 Y41.255 E187.66991
G0 F2160 X8 Y40.29
G1 F1125 X8 Y62.061 E189.88567
G0 F2160 X6.4 Y60.167
M104 S205
G1 F1125 X6.4 Y41.55 E191.78044
G0 F2160 X5.673 Y59.139
;TIME_ELAPSED:109.637639
;LAYER:-6
M140 S50
G0 X5.673 Y59.139 Z0.524
;TYPE:SUPPORT
G1 F1125 X5.806 Y59.4 E191.79902
G1 X5.953 Y59.65 E191.81742
G1 X6.127 Y59.908 E191.83716
G1 X6.297 Y60.128 E191.8548
G1 X6.634 Y60.505 E191.88688
G1 X7.09 Y60.926 E191.92626
G1 X7.075 Y60.941 E191.9276
G1 X7.268 Y61.134 E191.94492
G1 X7.671 Y61.666 E191.98726
G1 X7.887 Y61.993 E192.01213
