;FLAVOR:Marlin
;TIME:10845
;Filament used: 5.48254m
;Layer height: 0.13125
;Generated with Cura_SteamEngine 3.2.1
M190 S55
M104 S210
M109 S210
M82 ;absolute extrusion mode
G21;(metric values)
G90;(absolute positioning)
M82;(set extruder to absolute mode)
M107;(start with the fan off)
G28;(Home the printer)
G92 E0;(Reset the extruder to 0)
G0 Z5 E5 F500;(Move up and prime the nozzle)
G0 X-1 Z0;(Move outside the printable area)
G1 Y60 E8 F500;(Draw a priming/wiping line to the rear)
G1 X-1;(Move a little closer to the print area)
G1 Y10 E16 F500;(draw more priming/wiping)
G1 E15 F250;(Small retract)
G92 E0;(Zero the extruder)
;LAYER_COUNT:396
;LAYER:-7
M107
G0 F2160 X46.001 Y36.754 Z0.306
G1 F1125 X46.357 Y36.312 E0.05776
G1 X46.703 Y35.958 E0.10814
G1 X46.994 Y35.692 E0.14827
G1 X47.312 Y35.442 E0.18944
G1 X47.556 Y35.269 E0.21988
G1 X48.033 Y34.971 E0.27712
G1 X48.3 Y34.83 E0.30785
G1 X48.541 Y34.715 E0.33503
G1 X49.035 Y34.509 E0.3895
G1 X49.557 Y34.353 E0.44495
G1 X49.953 Y34.256 E0.48645
G1 X50.072 Y34.234 E0.49876
G1 X50.583 Y34.164 E0.55126
G1 X50.891 Y34.14 E0.5827
G1 X51.291 Y34.124 E0.62344
G1 X55.172 Y34.128 E1.01843
G1 X55.549 Y34.152 E1.05688
G1 X55.847 Y34.189 E1.08744
G1 X56.131 Y34.244 E1.11688
G1 X56.422 Y34.32 E1.14749
G1 X56.68 Y34.404 E1.17511
G1 X56.947 Y34.51 E1.20435
G1 X57.232 Y34.645 E1.23644
G1 X57.383 Y34.73 E1.25408
G1 X57.989 Y35.018 E1.32237
G1 X58.638 Y35.232 E1.39192
G1 X59.308 Y35.362 E1.46138
G1 X59.989 Y35.406 E1.53083
G1 X60.671 Y35.364 E1.60037
G1 X61.342 Y35.236 E1.6699
G1 X61.994 Y35.023 E1.73971
G1 X62.135 Y34.954 E1.75568
G1 X62.14 Y34.966 E1.75701
G1 X62.936 Y34.563 E1.84781
G1 X63.206 Y34.447 E1.87772
G1 X63.462 Y34.355 E1.90541
G1 X63.754 Y34.271 E1.93633
G1 X64.015 Y34.215 E1.9635
G1 X64.335 Y34.167 E1.99643
G1 X64.803 Y34.131 E2.0442
G1 X64.995 Y34.124 E2.06376
G1 X68.81 Y34.127 E2.45203
G1 X69.22 Y34.147 E2.49381
G1 X69.515 Y34.174 E2.52396
G1 X70 Y34.247 E2.57388
G1 X70.361 Y34.331 E2.6116
G1 X70.707 Y34.432 E2.64828
G1 X71.295 Y34.642 E2.71183
G1 X71.665 Y34.814 E2.75336
G1 X71.998 Y34.987 E2.79155
G1 X72.133 Y35.067 E2.80752
G1 X72.457 Y35.279 E2.84693
G1 X72.723 Y35.469 E2.8802
G1 X72.906 Y35.609 E2.90365
G1 X72.975 Y35.662 E2.9125
G1 X73.268 Y35.931 E2.95298
G1 X73.473 Y36.134 E2.98235
G1 X73.812 Y36.507 E3.03365
G1 X74.08 Y36.861 E3.07883
G1 X74.353 Y37.263 E3.12829
G1 X74.674 Y37.864 E3.19764
G1 X74.796 Y38.135 E3.22788
G1 X74.934 Y38.468 E3.26457
G1 X75.023 Y38.751 E3.29476
G1 X75.133 Y39.143 E3.3362
G1 X75.197 Y39.412 E3.36434
G1 X75.267 Y39.881 E3.4126
G1 X75.302 Y40.233 E3.44861
G1 X75.321 Y40.597 E3.4857
G1 X75.325 Y68.297 E6.3049
G1 X75.297 Y68.8 E6.35617
G1 X75.26 Y69.098 E6.38673
G1 X75.205 Y69.382 E6.41617
G1 X75.129 Y69.673 E6.44678
G1 X75.045 Y69.931 E6.4744
G1 X74.934 Y70.21 E6.50496
G1 X74.812 Y70.468 E6.53401
G1 X74.668 Y70.727 E6.56417
G1 X74.529 Y70.946 E6.59057
G1 X74.331 Y71.212 E6.62431
G1 X73.915 Y71.688 E6.68865
G1 X73.537 Y72.024 E6.74013
G1 X73.32 Y72.193 E6.76812
G1 X73.089 Y72.349 E6.79649
G1 X72.821 Y72.507 E6.82815
G1 X72.564 Y72.637 E6.85746
G1 X72.295 Y72.752 E6.88724
G1 X72.038 Y72.845 E6.91506
G1 X71.746 Y72.929 E6.94598
G1 X71.485 Y72.985 E6.97315
G1 X71.165 Y73.033 E7.00608
G1 X70.697 Y73.069 E7.05385
G1 X70.505 Y73.076 E7.07341
G1 X68.941 Y73.076 E7.23258
G1 X68.273 Y73.118 E7.3007
G1 X67.602 Y73.247 E7.37025
G1 X66.953 Y73.46 E7.43977
G1 X66.336 Y73.752 E7.50924
G1 X65.761 Y74.12 E7.57872
G1 X65.237 Y74.558 E7.64823
G1 X64.773 Y75.058 E7.71765
G1 X64.374 Y75.614 E7.7873
G1 X64.05 Y76.214 E7.8567
G1 X63.804 Y76.849 E7.92601
G1 X63.653 Y77.445 E7.98858
G1 X63.609 Y77.675 E8.01242
G1 X63.531 Y77.973 E8.04377
G1 X63.447 Y78.231 E8.07138
G1 X63.336 Y78.51 E8.10194
G1 X63.214 Y78.768 E8.13099
G1 X63.07 Y79.027 E8.16115
G1 X62.931 Y79.246 E8.18755
G1 X62.733 Y79.512 E8.2213
G1 X62.317 Y79.988 E8.28564
G1 X61.939 Y80.324 E8.33711
G1 X61.722 Y80.493 E8.3651
G1 X61.009 Y80.976 E8.45275
G1 X61.02 Y80.992 E8.45473
G1 X60.908 Y81.073 E8.4688
G1 X60.411 Y81.542 E8.53835
G1 X59.974 Y82.074 E8.60842
G1 X59.488 Y82.897 E8.70569
G1 X59.32 Y83.254 E8.74585
G1 X59.169 Y83.526 E8.77751
G1 X59.029 Y83.746 E8.80405
G1 X58.831 Y84.012 E8.8378
G1 X58.422 Y84.481 E8.90113
G1 X58.047 Y84.816 E8.95231
G1 X57.82 Y84.993 E8.98161
G1 X57.589 Y85.149 E9.00998
G1 X57.321 Y85.307 E9.04164
G1 X57.064 Y85.437 E9.07095
G1 X56.795 Y85.552 E9.10073
G1 X56.538 Y85.645 E9.12854
G1 X56.246 Y85.729 E9.15947
G1 X55.985 Y85.785 E9.18663
G1 X55.665 Y85.833 E9.21957
G1 X55.197 Y85.869 E9.26734
G1 X55.005 Y85.876 E9.28689
G1 X49.328 Y85.872 E9.86468
G1 X48.951 Y85.848 E9.90312
G1 X48.653 Y85.811 E9.93369
G1 X48.369 Y85.756 E9.96313
G1 X48.078 Y85.68 E9.99374
G1 X47.818 Y85.595 E10.02158
G1 X47.541 Y85.485 E10.05191
G1 X47.282 Y85.362 E10.08109
G1 X47.024 Y85.219 E10.11111
G1 X46.805 Y85.08 E10.13751
G1 X46.539 Y84.882 E10.17126
G1 X46.063 Y84.466 E10.2356
G1 X45.725 Y84.086 E10.28736
G1 X45.558 Y83.871 E10.31507
G1 X45.399 Y83.635 E10.34403
G1 X45.244 Y83.372 E10.3751
G1 X45.114 Y83.115 E10.40441
G1 X44.998 Y82.845 E10.43432
G1 X44.906 Y82.589 E10.46201
G1 X44.822 Y82.297 E10.49293
G1 X44.766 Y82.036 E10.5201
G1 X44.718 Y81.716 E10.55303
G1 X44.681 Y81.238 E10.60183
G1 X44.675 Y81.07 E10.61894
G1 X44.679 Y40.605 E14.7373
G1 X44.69 Y40.327 E14.76562
G1 X44.712 Y40.049 E14.794
G1 X44.785 Y39.51 E14.84936
G1 X44.866 Y39.144 E14.88751
G1 X44.967 Y38.78 E14.92596
G1 X45.08 Y38.433 E14.9631
G1 X45.244 Y38.039 E15.00653
G1 X45.465 Y37.581 E15.05829
G1 X45.813 Y37.013 E15.12609
G1 X45.848 Y36.965 E15.13213
G0 F1012.5 X46.001 Y36.754
G0 F2160 X46.4 Y36.268
G1 F2400 E15.15869
G1 F1125 X46.4 Y84.76 E20.09402
G0 F2160 X48 Y85.654
G1 F1125 X48 Y34.991 E25.2503
G0 F2160 X49.6 Y34.342
G1 F1125 X49.6 Y85.872 E30.49481
G0 F2160 X51.2 Y85.873
G1 F1125 X51.2 Y34.127 E35.76131
G0 F2160 X52.8 Y34.126
G1 F1125 X52.8 Y85.874 E41.02802
G0 F2160 X54.4 Y85.875
G1 F1125 X54.4 Y34.128 E46.29462
G0 F2160 X56 Y34.219
G1 F1125 X56 Y85.782 E51.5425
G0 F2160 X57.6 Y85.142
G1 F1125 X57.6 Y34.834 E56.66265
G0 F2160 X59.2 Y35.342
G1 F1125 X59.2 Y83.471 E61.56103
G0 F2160 X60.8 Y81.175
G1 F1125 X60.8 Y35.339 E66.22603
G0 F2160 X62.4 Y34.834
G1 F1125 X62.4 Y79.894 E70.81206
G0 F2160 X64 Y76.344
G1 F1125 X64 Y34.218 E75.09947
G0 F2160 X65.6 Y34.125
G1 F1125 X65.6 Y74.255 E79.18375
G0 F2160 X67.2 Y73.379
G1 F1125 X67.2 Y34.126 E83.17876
G0 F2160 X68.8 Y34.127
G1 F1125 X68.8 Y73.085 E87.14375
G0 F2160 X70.4 Y73.076
G1 F1125 X70.4 Y34.343 E91.08584
G0 F2160 X72 Y34.989
G1 F1125 X72 Y72.856 E94.93979
G0 F2160 X73.6 Y71.968
G1 F1125 X73.6 Y36.274 E98.57258
G0 F2160 X75.2 Y39.433
G1 F1125 X75.2 Y69.402 E101.62271
G0 F2160 X44.8 Y82.194
M104 S205
G1 F1125 X44.8 Y39.442 E105.97384
G0 F2160 X74.66 Y37.724
;TIME_ELAPSED:60.397511
;LAYER:-6
M140 S50
G0 X74.66 Y37.724 Z0.524
;TYPE:SUPPORT
G1 F1125 X74.4 Y37.246 E106.00836
G1 X74.12 Y36.831 E106.04012
G1 X73.784 Y36.396 E106.07499
G1 X73.509 Y36.099 E106.10067
G1 X73.023 Y35.638 E106.14317
G1 X72.626 Y35.336 E106.17482
G1 X72.349 Y35.146 E106.19613
G1 X72.089 Y34.981 E106.21567
G1 X71.764 Y34.808 E106.23902
G1 X71.6 Y34.73 E106.25055
G1 X74.718 Y37.848 E106.5303
G0 F2160 X71.6 Y34.73
G1 F1125 X71.363 Y34.617 E106.54696
G1 X71.187 Y34.546 E106.559
G1 X70.564 Y34.334 E106.60075
G1 X70.293 Y34.262 E106.61854
G1 X70.009 Y34.198 E106.63701
G1 X69.759 Y34.161 E106.65305
G1 X75.289 Y39.691 E107.14921
G1 X75.315 Y39.863 E107.16025
G1 X75.358 Y40.325 E107.18969
G1 X75.37 Y40.596 E107.2069
G1 X75.371 Y41.044 E107.23532
G1 X68.404 Y34.076 E107.86046
G1 X67.131 Y34.075 E107.94123
G1 X75.371 Y42.315 E108.68055
G1 X75.371 Y43.586 E108.76118
G1 X65.859 Y34.074 E109.61463
G1 X64.992 Y34.073 E109.66963
G1 X64.797 Y34.081 E109.68202
G1 X64.609 Y34.095 E109.69398
G1 X75.371 Y44.858 E110.65962
G1 X75.371 Y46.129 E110.74026
G1 X63.525 Y34.283 E111.80311
G1 X63.46 Y34.301 E111.80739
G1 X63.186 Y34.401 E111.8259
G1 X62.9 Y34.523 E111.84562
G1 X62.631 Y34.66 E111.86478
G1 X75.371 Y47.401 E113.00789
G1 X75.371 Y48.672 E113.08853
G1 X61.749 Y35.05 E114.31074
G1 X61.328 Y35.187 E114.33882
G1 X60.729 Y35.302 E114.37752
G1 X75.371 Y49.944 E115.69124
G1 X75.371 Y51.215 E115.77188
G1 X59.479 Y35.323 E117.19776
G1 X59.312 Y35.312 E117.20838
G1 X58.65 Y35.182 E117.25118
G1 X58.006 Y34.971 E117.29417
G1 X57.719 Y34.834 E117.31435
G1 X75.372 Y52.487 E118.89823
G1 X75.372 Y53.759 E118.97893
G1 X55.739 Y34.125 E120.7405
G1 X55.555 Y34.102 E120.75227
G1 X55.046 Y34.074 E120.78461
G1 X54.416 Y34.074 E120.82458
G1 X75.372 Y55.03 E122.70481
G1 X75.372 Y56.301 E122.78545
G1 X53.145 Y34.074 E124.77972
G1 X51.874 Y34.075 E124.86036
G1 X75.373 Y57.574 E126.96876
G1 X75.373 Y58.845 E127.0494
G1 X50.639 Y34.111 E129.2686
G1 X50.478 Y34.124 E129.27885
G1 X49.962 Y34.202 E129.31196
G1 X49.559 Y34.303 E129.33832
G1 X75.373 Y60.116 E131.65438
G1 X75.373 Y61.388 E131.73508
G1 X48.615 Y34.629 E134.13594
G1 X48.529 Y34.664 E134.14183
G1 X48.278 Y34.783 E134.15945
G1 X48.006 Y34.928 E134.179
G1 X47.78 Y35.066 E134.1958
G1 X75.373 Y62.659 E136.67153
G1 X75.374 Y63.931 E136.75223
G1 X47.033 Y35.59 E139.29507
G0 F2160 X47.031 Y35.591
G1 F1125 X46.708 Y35.882 E139.32265
G1 X46.459 Y36.128 E139.34486
G1 X46.381 Y36.21 E139.35204
G1 X75.374 Y65.203 E141.95338
G1 X75.374 Y66.474 E142.03401
G1 X45.818 Y36.918 E144.68586
G1 X45.771 Y36.983 E144.69095
G1 X45.428 Y37.543 E144.73262
G1 X45.344 Y37.716 E144.74482
G1 X75.374 Y67.745 E147.43915
G1 X75.374 Y68.298 E147.47424
G1 X75.345 Y68.807 E147.50658
G1 X75.326 Y68.969 E147.51693
G1 X44.968 Y38.611 E150.24074
G1 X44.918 Y38.765 E150.25101
G1 X44.819 Y39.119 E150.27433
G1 X44.751 Y39.411 E150.29335
G1 X44.718 Y39.633 E150.30759
G1 X75.075 Y69.99 E153.03131
G1 X74.985 Y70.217 E153.04681
G1 X74.85 Y70.497 E153.06653
G1 X74.712 Y70.749 E153.08476
G1 X74.654 Y70.84 E153.0916
G1 X44.627 Y40.813 E155.78571
G1 X44.627 Y42.084 E155.86635
G1 X74.098 Y71.555 E158.51057
G1 X73.96 Y71.713 E158.52388
G1 X73.573 Y72.059 E158.55682
G1 X73.436 Y72.165 E158.56781
G1 X44.627 Y43.356 E161.15264
G1 X44.627 Y44.627 E161.23327
G1 X72.649 Y72.649 E163.74749
G1 X72.597 Y72.675 E163.75118
G1 X72.312 Y72.798 E163.77087
G1 X72.038 Y72.897 E163.78936
G1 X71.769 Y72.974 E163.80711
G1 X71.714 Y72.986 E163.81068
G1 X44.627 Y45.899 E166.241
G1 X44.627 Y47.17 E166.32164
G1 X70.579 Y73.121 E168.65009
G1 X70.507 Y73.124 E168.65466
G1 X69.31 Y73.124 E168.7306
G1 X44.627 Y48.441 E170.94523
G1 X44.626 Y49.712 E171.02587
G1 X68.113 Y73.198 E173.13315
G1 X67.613 Y73.294 E173.16545
G1 X67.104 Y73.461 E173.19944
G1 X44.626 Y50.983 E175.21623
G1 X44.626 Y52.255 E175.29693
G1 X66.242 Y73.87 E177.23633
G1 X65.791 Y74.159 E177.27032
G1 X65.501 Y74.401 E177.29428
G1 X44.626 Y53.526 E179.16725
G1 X44.626 Y54.797 E179.24789
G1 X64.863 Y75.034 E181.06361
G1 X64.811 Y75.089 E181.06841
G1 X64.417 Y75.639 E181.11133
G1 X64.34 Y75.782 E181.12164
G1 X44.626 Y56.069 E182.89039
G1 X44.626 Y57.339 E182.97097
G1 X63.935 Y76.649 E184.70347
G1 X63.852 Y76.863 E184.71803
G1 X63.701 Y77.455 E184.75679
G1 X63.665 Y77.65 E184.76937
G1 X44.626 Y58.611 E186.47761
G1 X44.626 Y59.882 E186.55825
G1 X63.346 Y78.603 E188.23791
G1 X63.253 Y78.797 E188.25155
G1 X63.114 Y79.048 E188.26976
G1 X62.972 Y79.273 E188.28664
G1 X62.875 Y79.403 E188.29693
G1 X44.626 Y61.154 E189.93428
G1 X44.626 Y62.425 E190.01492
G1 X62.284 Y80.083 E191.59925
G1 X61.976 Y80.358 E191.62544
G1 X61.755 Y80.528 E191.64313
G1 X61.577 Y80.648 E191.65675
G1 X44.626 Y63.696 E193.17769
G1 X44.625 Y64.967 E193.25833
G1 X60.851 Y81.193 E194.71417
G1 X60.447 Y81.576 E194.74949
G1 X60.229 Y81.842 E194.77131
G1 X44.625 Y66.238 E196.17135
G1 X44.625 Y67.51 E196.25205
G1 X59.72 Y82.604 E197.60637
G1 X59.533 Y82.92 E197.62967
G1 X59.36 Y83.283 E197.65518
G1 X59.277 Y83.433 E197.66606
G1 X44.625 Y68.781 E198.98068
G1 X44.625 Y70.053 E199.06138
G1 X58.752 Y84.179 E200.32885
G1 X58.46 Y84.511 E200.3569
G1 X58.118 Y84.817 E200.38601
G1 X44.625 Y71.324 E201.59665
G1 X44.625 Y72.595 E201.67728
G1 X57.367 Y85.337 E202.82053
G1 X57.346 Y85.35 E202.8221
G1 X57.098 Y85.475 E202.83972
G1 X56.813 Y85.598 E202.85941
G1 X56.538 Y85.697 E202.87796
G1 X56.473 Y85.715 E202.88223
G1 X44.624 Y73.866 E203.94536
G1 X44.624 Y75.137 E204.026
G1 X55.39 Y85.903 E204.99196
G1 X55.201 Y85.918 E205.00398
G1 X55.006 Y85.925 E205.01636
G1 X54.14 Y85.924 E205.07131
G1 X44.624 Y76.409 E205.92506
G1 X44.624 Y77.68 E206.0057
G1 X52.867 Y85.923 E206.74529
G1 X51.595 Y85.922 E206.82599
G1 X44.624 Y78.952 E207.4514
G1 X44.624 Y80.223 E207.53204
G1 X50.323 Y85.921 E208.04333
G1 X49.325 Y85.921 E208.10664
G1 X49.032 Y85.902 E208.12527
G1 X44.652 Y81.522 E208.51826
G1 X44.668 Y81.725 E208.53118
G1 X44.715 Y82.04 E208.55138
G1 X44.776 Y82.32 E208.56956
G1 X44.852 Y82.589 E208.5873
G1 X44.952 Y82.863 E208.6058
G1 X45.073 Y83.146 E208.62533
G1 X45.143 Y83.285 E208.6352
G1 X47.267 Y85.409 E208.82577
G1 X47.252 Y85.402 E208.82682
G1 X47.002 Y85.263 E208.84497
G1 X46.775 Y85.12 E208.86199
G1 X46.504 Y84.918 E208.88344
G1 X46.034 Y84.508 E208.92301
G1 X45.691 Y84.124 E208.95567
G1 X45.521 Y83.904 E208.97331
G1 X45.355 Y83.659 E208.99209
G1 X45.195 Y83.386 E209.01216
G0 F2160 X55.572 Y33.929
;TIME_ELAPSED:148.998474
;LAYER:-5
G0 X55.572 Y33.929 Z0.655
G1 F1500 X55.174 Y33.903 E209.01977
G1 X51.288 Y33.899 E209.09384
G1 X50.883 Y33.915 E209.10157
G1 X50.472 Y33.95 E209.10943
G1 X55.742 Y33.95 E209.20989
G0 F2160 X50.472 Y33.95
G1 F1500 X50.46 Y33.951 E209.21012
G1 X49.941 Y34.028 E209.22012
G1 X49.729 Y34.076 E209.22426
G1 X49.268 Y34.201 E209.23337
G1 X48.952 Y34.3 E209.23968
G1 X57.028 Y34.3 E209.39363
G1 X57.042 Y34.306 E209.39392
G1 X57.327 Y34.441 E209.39993
G1 X57.487 Y34.53 E209.40342
G1 X57.74 Y34.65 E209.40876
G1 X48.164 Y34.65 E209.5913
G1 X48.017 Y34.72 E209.5944
G1 X47.564 Y35 E209.60455
G1 X58.653 Y35 E209.81593
G1 X58.695 Y35.014 E209.81678
G1 X59.337 Y35.138 E209.82924
G1 X59.99 Y35.179 E209.84171
G1 X60.643 Y35.139 E209.85418
G1 X61.286 Y35.017 E209.86666
G0 F2160 X62.251 Y34.65
G1 F1500 X62.241 Y34.65 E209.86685
G1 X61.909 Y34.814 E209.87391
G1 X61.339 Y35 E209.88534
G1 X72.44 Y35 E210.09695
G1 X72.735 Y35.197 E210.10371
G1 X72.935 Y35.35 E210.10851
G1 X47.064 Y35.35 E210.60167
G1 X46.91 Y35.466 E210.60534
G1 X46.65 Y35.7 E210.61201
G1 X73.348 Y35.7 E211.12094
G1 X73.5 Y35.842 E211.1249
G1 X73.705 Y36.05 E211.13047
G1 X46.297 Y36.05 E211.65292
G1 X46.122 Y36.241 E211.65786
G1 X45.997 Y36.4 E211.66172
G1 X74.014 Y36.4 E212.19578
G1 X74.266 Y36.733 E212.20374
G1 X74.278 Y36.75 E212.20414
G1 X45.724 Y36.75 E212.74844
G1 X45.547 Y37.011 E212.75446
G1 X45.493 Y37.1 E212.75644
G1 X74.515 Y37.1 E213.30966
G1 X74.547 Y37.148 E213.31076
G1 X74.712 Y37.45 E213.31732
G1 X45.281 Y37.45 E213.87834
G1 X45.271 Y37.465 E213.87869
G1 X45.11 Y37.8 E213.88577
G1 X74.892 Y37.8 E214.45348
G1 X74.942 Y37.906 E214.45572
G1 X75.045 Y38.15 E214.46077
G1 X44.955 Y38.15 E215.03435
G1 X44.872 Y38.348 E215.03844
G1 X44.822 Y38.5 E215.04149
G1 X75.18 Y38.5 E215.62018
G1 X75.237 Y38.68 E215.62378
G1 X75.285 Y38.85 E215.62715
G1 X44.714 Y38.85 E216.2099
G1 X44.649 Y39.085 E216.21455
G1 X44.624 Y39.2 E216.21679
G1 X75.378 Y39.2 E216.80303
G1 X75.419 Y39.374 E216.80644
G1 X75.444 Y39.55 E216.80982
G1 X44.553 Y39.55 E217.39868
G1 X44.506 Y39.9 E217.40541
G1 X75.493 Y39.9 E217.99609
G1 X75.512 Y40.044 E217.99886
G1 X75.527 Y40.208 E218.002
G1 X75.529 Y40.25 E218.0028
G1 X44.471 Y40.25 E218.59483
G1 X44.454 Y40.6 E218.60151
G1 X75.544 Y40.6 E219.19416
G1 X75.55 Y40.757 E219.19715
G1 X75.549 Y40.95 E219.20083
G1 X44.454 Y40.95 E219.79357
G1 X44.454 Y41.3 E219.80024
G1 X75.549 Y41.3 E220.39298
G1 X75.549 Y41.65 E220.39965
G1 X44.454 Y41.65 E220.99239
G1 X44.454 Y42 E220.99906
G1 X75.549 Y42 E221.5918
G1 X75.549 Y42.35 E221.59848
G1 X44.454 Y42.35 E222.19121
G1 X44.454 Y42.7 E222.19789
G1 X75.549 Y42.7 E222.79063
G1 X75.549 Y43.05 E222.7973
G1 X44.454 Y43.05 E223.39004
G1 X44.454 Y43.4 E223.39671
G1 X75.549 Y43.4 E223.98945
G1 X75.549 Y43.75 E223.99612
G1 X44.454 Y43.75 E224.58886
G1 X44.454 Y44.1 E224.59553
G1 X75.549 Y44.1 E225.18827
