;FLAVOR:Marlin
;TIME:1212
;Filament used: 0.507974m
;Layer height: 0.13125
;Generated with Cura_SteamEngine 3.2.1
M190 S55
M104 S210
M109 S210
M82 ;absolute extrusion mode
G21;(metric values)
G90;(absolute positioning)
M82;(set extruder to absolute mode)
M107;(start with the fan off)
G28;(Home the printer)
G92 E0;(Reset the extruder to 0)
G0 Z5 E5 F500;(Move up and prime the nozzle)
G0 X-1 Z0;(Move outside the printable area)
G1 Y60 E8 F500;(Draw a priming/wiping line to the rear)
G1 X-1;(Move a little closer to the print area)
G1 Y10 E16 F500;(draw more priming/wiping)
G1 E15 F250;(Small retract)
G92 E0;(Zero the extruder)
;LAYER_COUNT:91
;LAYER:-7
M107
G0 F2160 X51.271 Y52.479 Z0.306
G1 F1125 X51.464 Y52.31 E0.02611
G1 X51.69 Y52.134 E0.05526
G1 X52.485 Y51.594 E0.15307
G1 X53.188 Y50.939 E0.25087
G1 X53.448 Y50.649 E0.29051
G1 X53.66 Y50.441 E0.32073
G1 X53.883 Y50.249 E0.35068
G1 X54.105 Y50.08 E0.37908
G1 X54.381 Y49.895 E0.4129
G1 X54.583 Y49.776 E0.43676
G1 X54.857 Y49.635 E0.46812
G1 X55.269 Y49.439 E0.51455
G1 X55.643 Y49.288 E0.5556
G1 X55.906 Y49.2 E0.58383
G1 X56.186 Y49.126 E0.61331
G1 X56.471 Y49.068 E0.64291
G1 X56.771 Y49.029 E0.6737
G1 X57.705 Y48.961 E0.76901
G1 X58.663 Y48.738 E0.86911
G1 X58.959 Y48.639 E0.90088
G1 X59.285 Y48.553 E0.93519
G1 X59.53 Y48.505 E0.9606
G1 X59.859 Y48.461 E0.99439
G1 X60.153 Y48.442 E1.02437
G1 X60.391 Y48.437 E1.0486
G1 X61.04 Y48.475 E1.11476
G1 X61.557 Y48.539 E1.16778
G1 X61.852 Y48.598 E1.1984
G1 X62.125 Y48.671 E1.22716
G1 X62.391 Y48.76 E1.25571
G1 X62.671 Y48.875 E1.28652
G1 X63.654 Y49.352 E1.39772
G1 X63.654 Y49.327 E1.40027
G1 X64.431 Y49.567 E1.48303
G1 X64.84 Y49.652 E1.52555
G1 X65.102 Y49.726 E1.55326
G1 X65.401 Y49.829 E1.58544
G1 X65.654 Y49.937 E1.61344
G1 X65.939 Y50.078 E1.6458
G1 X66.294 Y50.288 E1.68778
G1 X66.719 Y50.578 E1.74015
G1 X67.114 Y50.886 E1.79112
G1 X67.337 Y51.087 E1.82168
G1 X67.542 Y51.295 E1.8514
G1 X67.731 Y51.515 E1.88092
G1 X67.899 Y51.737 E1.90926
G1 X68.379 Y52.461 E1.99766
G1 X68.388 Y52.459 E1.9986
G1 X68.831 Y52.971 E2.06751
G1 X69.104 Y53.229 E2.10574
G1 X69.322 Y53.422 E2.13537
G1 X69.536 Y53.636 E2.16617
G1 X69.725 Y53.85 E2.19523
G1 X69.892 Y54.065 E2.22294
G1 X70.075 Y54.334 E2.25605
G1 X70.216 Y54.568 E2.28386
G1 X70.336 Y54.797 E2.31017
G1 X70.562 Y55.272 E2.36371
G1 X70.708 Y55.627 E2.40277
G1 X70.796 Y55.89 E2.431
G1 X70.873 Y56.177 E2.46124
G1 X70.931 Y56.465 E2.49114
G1 X70.968 Y56.736 E2.51898
G1 X71.037 Y57.693 E2.61663
G1 X71.254 Y58.641 E2.71561
G1 X71.376 Y59.012 E2.75536
G1 X71.447 Y59.285 E2.78407
G1 X71.5 Y59.559 E2.81247
G1 X71.54 Y59.878 E2.84519
G1 X71.56 Y60.187 E2.87671
G1 X71.563 Y60.391 E2.89747
G1 X71.554 Y60.645 E2.92334
G1 X71.508 Y61.207 E2.98073
G1 X71.46 Y61.554 E3.01638
G1 X71.398 Y61.858 E3.04796
G1 X71.324 Y62.133 E3.07694
G1 X71.233 Y62.404 E3.10604
G1 X71.123 Y62.672 E3.13552
G1 X70.746 Y63.446 E3.22314
G1 X70.707 Y63.534 E3.23294
G1 X70.432 Y64.428 E3.32813
G1 X70.346 Y64.836 E3.37057
G1 X70.276 Y65.089 E3.39729
G1 X70.17 Y65.396 E3.43034
G1 X70.062 Y65.649 E3.45834
G1 X69.912 Y65.951 E3.49266
G1 X69.814 Y66.128 E3.51325
G1 X69.701 Y66.307 E3.53479
G1 X69.442 Y66.689 E3.58177
G1 X69.142 Y67.081 E3.63201
G1 X68.938 Y67.312 E3.66337
G1 X68.746 Y67.503 E3.69093
G1 X68.515 Y67.706 E3.72223
G1 X68.284 Y67.883 E3.75185
G1 X67.502 Y68.412 E3.84794
G1 X66.802 Y69.072 E3.94586
G1 X66.566 Y69.337 E3.98197
G1 X66.351 Y69.551 E4.01285
G1 X66.15 Y69.727 E4.04004
G1 X65.906 Y69.915 E4.07139
G1 X65.661 Y70.079 E4.10139
G1 X65.415 Y70.227 E4.13061
G1 X64.799 Y70.53 E4.20048
G1 X64.325 Y70.721 E4.25249
G1 X64.052 Y70.81 E4.28172
G1 X63.766 Y70.883 E4.31176
G1 X63.492 Y70.936 E4.34016
G1 X63.194 Y70.973 E4.37072
G1 X62.356 Y71.023 E4.45616
G1 X62.356 Y71.032 E4.45708
G1 X61.673 Y71.161 E4.52782
G1 X61.319 Y71.266 E4.5654
G1 X61.028 Y71.363 E4.59662
G1 X60.714 Y71.446 E4.62967
G1 X60.47 Y71.494 E4.65498
G1 X60.141 Y71.538 E4.68877
G1 X59.847 Y71.557 E4.71875
G1 X59.609 Y71.562 E4.74298
G1 X58.96 Y71.524 E4.80914
G1 X58.443 Y71.46 E4.86216
G1 X58.148 Y71.401 E4.89278
G1 X57.875 Y71.328 E4.92154
G1 X57.609 Y71.239 E4.95009
G1 X57.329 Y71.124 E4.9809
G1 X56.346 Y70.647 E5.0921
G1 X56.346 Y70.67 E5.09444
G1 X55.564 Y70.429 E5.17772
G1 X55.159 Y70.344 E5.21984
G1 X54.905 Y70.273 E5.24668
G1 X54.603 Y70.169 E5.27919
G1 X54.356 Y70.064 E5.30651
G1 X54.053 Y69.912 E5.34101
G1 X53.838 Y69.792 E5.36607
G1 X53.611 Y69.647 E5.39348
G1 X53.19 Y69.352 E5.4458
G1 X52.91 Y69.135 E5.48186
G1 X52.703 Y68.952 E5.50998
G1 X52.491 Y68.74 E5.54049
G1 X52.295 Y68.517 E5.57071
G1 X52.118 Y68.287 E5.60024
G1 X51.638 Y67.576 E5.68755
G1 X51.59 Y67.512 E5.69569
G1 X50.961 Y66.834 E5.78982
G1 X50.638 Y66.542 E5.83414
G1 X50.423 Y66.321 E5.86552
G1 X50.247 Y66.116 E5.89302
G1 X50.058 Y65.866 E5.92491
G1 X49.887 Y65.607 E5.9565
G1 X49.775 Y65.418 E5.97886
G1 X49.624 Y65.127 E6.01223
G1 X49.417 Y64.676 E6.06273
G1 X49.275 Y64.316 E6.10212
G1 X49.187 Y64.042 E6.13141
G1 X49.117 Y63.769 E6.16009
G1 X49.064 Y63.486 E6.18939
G1 X49.025 Y63.176 E6.22119
G1 X48.977 Y62.354 E6.305
G1 X48.968 Y62.354 E6.30591
G1 X48.839 Y61.676 E6.37615
G1 X48.734 Y61.322 E6.41373
G1 X48.636 Y61.028 E6.44527
G1 X48.553 Y60.714 E6.47833
G1 X48.505 Y60.47 E6.50364
G1 X48.461 Y60.138 E6.53772
G1 X48.442 Y59.847 E6.5674
G1 X48.437 Y59.617 E6.59082
G1 X48.473 Y58.985 E6.65524
G1 X48.54 Y58.44 E6.71113
G1 X48.597 Y58.155 E6.74071
G1 X48.669 Y57.885 E6.76915
G1 X48.764 Y57.602 E6.79953
G1 X48.876 Y57.33 E6.82947
G1 X49.289 Y56.477 E6.92593
G1 X49.573 Y55.559 E7.02373
G1 X49.657 Y55.155 E7.06572
G1 X49.728 Y54.903 E7.09237
G1 X49.834 Y54.597 E7.12533
G1 X49.934 Y54.361 E7.15141
G1 X50.184 Y53.878 E7.20677
G1 X50.343 Y53.628 E7.23692
G1 X50.615 Y53.233 E7.28573
G1 X50.859 Y52.915 E7.32653
G1 X51.036 Y52.714 E7.35378
G1 X51.087 Y52.663 E7.36112
G0 F1012.5 X51.271 Y52.479
G0 F2160 X51.2 Y52.55
G1 F2400 E7.38769
G1 F1125 X51.2 Y67.091 E8.86761
G0 F2160 X52.8 Y69.037
G1 F1125 X52.8 Y51.3 E10.67281
G0 F2160 X54.4 Y49.883
G1 F1125 X54.4 Y70.082 E12.72859
G0 F2160 X56 Y70.563
G1 F1125 X56 Y49.175 E14.90537
G0 F2160 X57.6 Y48.968
G1 F1125 X57.6 Y71.235 E17.17162
G0 F2160 X59.2 Y71.538
G1 F1125 X59.2 Y48.575 E19.5087
G0 F2160 X60.8 Y48.461
G1 F1125 X60.8 Y71.424 E21.84578
G0 F2160 X62.4 Y71.021
G1 F1125 X62.4 Y48.764 E24.11101
G0 F2160 X64 Y49.434
G1 F1125 X64 Y70.824 E26.288
G0 F2160 X65.6 Y70.116
G1 F1125 X65.6 Y49.914 E28.34408
G0 F2160 X67.2 Y50.964
G1 F1125 X67.2 Y68.697 E30.14888
G0 F2160 X68.8 Y67.45
G1 F1125 X68.8 Y52.936 E31.62605
G0 F2160 X70.4 Y54.932
G1 F1125 X70.4 Y64.58 E32.60799
M104 S205
G0 F2160 X49.6 Y65.074
G1 F1125 X49.6 Y55.429 E33.58962
G0 F2160 X59.847 Y48.412
;TIME_ELAPSED:21.557443
;LAYER:-6
M140 S50
G0 X59.847 Y48.412 Z0.524
;TYPE:SUPPORT
G1 F1125 X59.527 Y48.453 E33.61009
G1 X59.258 Y48.507 E33.62749
G1 X58.964 Y48.585 E33.64679
G1 X58.808 Y48.637 E33.65722
G1 X71.535 Y61.364 E34.79913
G1 X71.507 Y61.571 E34.81238
G1 X71.447 Y61.864 E34.83135
G1 X71.373 Y62.141 E34.84954
G1 X71.289 Y62.39 E34.86622
G1 X57.789 Y48.89 E36.07748
G1 X57.696 Y48.911 E36.08352
G1 X56.761 Y48.979 E36.143
G1 X56.625 Y48.997 E36.1517
G1 X70.892 Y63.264 E37.43178
G1 X70.752 Y63.552 E37.4521
G1 X70.555 Y64.198 E37.49495
G1 X55.605 Y49.248 E38.8363
G1 X55.261 Y49.387 E38.85984
G1 X54.826 Y49.592 E38.89035
G1 X54.729 Y49.643 E38.89731
G1 X70.289 Y65.203 E40.29339
G1 X70.213 Y65.419 E40.30792
G1 X70.106 Y65.669 E40.32517
G1 X69.954 Y65.975 E40.34685
G1 X69.896 Y66.081 E40.35452
G1 X53.949 Y50.135 E41.78528
G1 X53.85 Y50.21 E41.79316
G1 X53.627 Y50.403 E41.81188
G1 X53.408 Y50.616 E41.83126
G1 X53.29 Y50.747 E41.84244
G1 X69.389 Y66.846 E43.28689
G1 X69.173 Y67.121 E43.30908
G1 X68.981 Y67.337 E43.32741
G1 X68.795 Y67.523 E43.3441
G1 X52.646 Y51.374 E44.79304
G1 X52.449 Y51.557 E44.8101
G1 X52.405 Y51.586 E44.81344
G1 X51.918 Y51.918 E44.85083
G1 X68.08 Y68.08 E46.30094
G1 X67.58 Y68.418 E46.33923
G1 X67.355 Y68.626 E46.35867
G1 X51.203 Y52.474 E47.80787
G1 X51.016 Y52.661 E47.82465
G1 X50.817 Y52.886 E47.84371
G1 X50.613 Y53.156 E47.86518
G1 X66.709 Y69.251 E49.30931
G1 X66.596 Y69.377 E49.32005
G1 X66.393 Y69.579 E49.33822
G1 X66.176 Y69.768 E49.35648
G1 X66.05 Y69.864 E49.36652
G1 X50.105 Y53.919 E50.79716
G1 X50.054 Y54.005 E50.8035
G1 X49.892 Y54.331 E50.8266
G1 X49.789 Y54.572 E50.84322
G1 X49.711 Y54.797 E50.85833
G1 X65.27 Y70.355 E52.25429
G1 X65.142 Y70.422 E52.26345
G1 X64.833 Y70.569 E52.28516
G1 X64.39 Y70.747 E52.31545
G1 X49.444 Y55.801 E53.65645
G1 X49.241 Y56.458 E53.70008
G1 X49.107 Y56.735 E53.7196
G1 X63.371 Y70.999 E54.99941
G1 X63.203 Y71.022 E55.01017
G1 X62.405 Y71.069 E55.06088
G1 X62.344 Y71.081 E55.06483
G1 X62.208 Y71.108 E55.07362
G1 X48.709 Y57.608 E56.28484
G1 X48.622 Y57.868 E56.30223
G1 X48.545 Y58.157 E56.32121
G1 X48.492 Y58.42 E56.33823
G1 X48.463 Y58.634 E56.35193
G1 X61.19 Y71.361 E57.49383
G1 X61.04 Y71.411 E57.50387
G1 X60.737 Y71.491 E57.52375
G1 X60.472 Y71.544 E57.54089
G1 X60.152 Y71.586 E57.56137
G0 F2160 X60.143 Y71.586
G1 F1125 X48.391 Y59.833 E58.61584
G1 X48.392 Y59.85 E58.61692
G1 X48.41 Y60.144 E58.63561
G1 X48.453 Y60.471 E58.65653
G1 X48.507 Y60.736 E58.67369
G1 X48.586 Y61.04 E58.69362
G1 X48.686 Y61.336 E58.71344
G1 X48.712 Y61.426 E58.71938
G1 X58.845 Y71.559 E59.62854
G1 X58.427 Y71.506 E59.65528
G1 X58.141 Y71.45 E59.67377
G1 X57.862 Y71.375 E59.69209
G1 X57.59 Y71.284 E59.71029
G1 X57.303 Y71.167 E59.72995
G1 X57.067 Y71.052 E59.74661
G1 X48.961 Y62.946 E60.4739
G1 X48.975 Y63.191 E60.48947
G1 X49.011 Y63.476 E60.5077
G1 X49.068 Y63.774 E60.52695
G1 X49.143 Y64.068 E60.5462
G1 X49.224 Y64.321 E60.56305
G1 X49.327 Y64.583 E60.58091
G1 X55.13 Y70.387 E61.10162
G1 X54.891 Y70.319 E61.11738
G1 X54.579 Y70.212 E61.13831
G1 X54.336 Y70.108 E61.15508
G1 X54.022 Y69.951 E61.17735
G1 X53.828 Y69.844 E61.19141
G1 X53.584 Y69.688 E61.20978
G1 X53.16 Y69.391 E61.24263
G1 X52.884 Y69.176 E61.26482
G1 X52.653 Y68.973 E61.28433
G1 X52.46 Y68.78 E61.30165
G1 X52.259 Y68.551 E61.32098
G1 X52.084 Y68.325 E61.33911
G1 X51.55 Y67.542 E61.39924
G1 X50.925 Y66.869 E61.45751
G1 X50.592 Y66.567 E61.48603
G1 X50.387 Y66.354 E61.50479
G1 X50.211 Y66.151 E61.52184
G1 X50.017 Y65.895 E61.54221
G1 X49.847 Y65.637 E61.56182
G1 X49.723 Y65.427 E61.57729
G1 X49.583 Y65.157 E61.59658
G1 X49.37 Y64.695 E61.62886
G0 F2160 X59.854 Y48.412
G1 F1125 X71.608 Y60.166 E62.68346
G1 X71.588 Y59.861 E62.70286
G1 X71.55 Y59.563 E62.72192
G1 X71.496 Y59.281 E62.74013
G1 X71.421 Y58.994 E62.75895
G1 X71.301 Y58.628 E62.78339
G1 X71.289 Y58.575 E62.78684
G1 X61.152 Y48.438 E63.69636
G1 X61.572 Y48.491 E63.72321
G1 X61.858 Y48.547 E63.7417
G1 X62.137 Y48.622 E63.76003
G1 X62.409 Y48.714 E63.77825
G1 X62.695 Y48.83 E63.79783
G1 X62.929 Y48.944 E63.81434
G1 X71.04 Y57.055 E64.54209
G1 X71.018 Y56.752 E64.56136
G1 X70.977 Y56.441 E64.58126
G1 X70.922 Y56.17 E64.59881
G1 X70.843 Y55.876 E64.61812
G1 X70.753 Y55.608 E64.63606
G1 X70.676 Y55.419 E64.64901
G1 X64.865 Y49.608 E65.17039
G1 X65.115 Y49.677 E65.18684
G1 X65.423 Y49.785 E65.20755
G1 X65.673 Y49.89 E65.22475
G1 X65.955 Y50.031 E65.24475
G1 X66.192 Y50.164 E65.26199
G1 X66.452 Y50.333 E65.28167
G1 X66.854 Y50.617 E65.3129
G1 X67.143 Y50.844 E65.33621
G1 X67.37 Y51.05 E65.35566
G1 X67.578 Y51.261 E65.37446
G1 X67.768 Y51.482 E65.39295
G1 X67.944 Y51.714 E65.41142
G1 X68.392 Y52.391 E65.46293
G1 X68.427 Y52.428 E65.46616
G1 X68.867 Y52.936 E65.50879
G1 X69.137 Y53.192 E65.5324
G1 X69.362 Y53.392 E65.5515
G1 X69.565 Y53.595 E65.56971
G1 X69.759 Y53.814 E65.58827
G1 X69.945 Y54.054 E65.60754
G1 X70.113 Y54.302 E65.62654
G1 X70.248 Y54.527 E65.64319
G1 X70.38 Y54.774 E65.66096
G1 X70.607 Y55.253 E65.69459
G0 F2160 X61.208 Y48.264
;TIME_ELAPSED:49.738026
;LAYER:-5
G0 X61.208 Y48.264 Z0.655
G1 F1500 X60.717 Y48.226 E65.70397
G1 X60.394 Y48.211 E65.71014
G1 X60.153 Y48.216 E65.71473
G1 X59.821 Y48.237 E65.72107
G1 X59.511 Y48.279 E65.72704
G1 X59.407 Y48.3 E65.72906
G1 X61.472 Y48.3 E65.76842
G1 X61.589 Y48.316 E65.77067
G1 X61.906 Y48.379 E65.77684
G1 X62.187 Y48.454 E65.78238
G1 X62.479 Y48.552 E65.78825
G1 X62.719 Y48.65 E65.79319
G1 X58.051 Y48.65 E65.88218
G1 X57.671 Y48.738 E65.88961
G1 X56.736 Y48.805 E65.90748
G1 X56.448 Y48.844 E65.91302
G1 X56.125 Y48.909 E65.9193
G1 X55.855 Y48.98 E65.92462
G1 X55.796 Y49 E65.92581
G1 X63.446 Y49 E66.07164
G1 X63.599 Y49.073 E66.07487
G1 X64.487 Y49.348 E66.09259
G1 X64.497 Y49.35 E66.09278
G1 X54.933 Y49.35 E66.27509
G1 X54.476 Y49.578 E66.28483
G1 X54.27 Y49.7 E66.28939
G1 X65.675 Y49.7 E66.5068
G1 X65.745 Y49.73 E66.50825
G1 X66.05 Y49.882 E66.51474
G1 X66.278 Y50.011 E66.51974
G1 X66.339 Y50.05 E66.52112
G1 X53.773 Y50.05 E66.76065
G1 X53.728 Y50.084 E66.76173
G1 X53.515 Y50.268 E66.76709
G1 X53.381 Y50.4 E66.77068
G1 X66.859 Y50.4 E67.0276
G1 X67.264 Y50.717 E67.0374
G1 X67.301 Y50.75 E67.03835
G1 X53.056 Y50.75 E67.30989
G1 X53.027 Y50.782 E67.31071
G1 X52.685 Y51.1 E67.31962
G1 X67.667 Y51.1 E67.60521
G1 X67.716 Y51.15 E67.60654
G1 X67.895 Y51.359 E67.61179
G1 X67.964 Y51.45 E67.61396
G1 X52.296 Y51.45 E67.91263
G1 X52.133 Y51.561 E67.91639
G1 X51.781 Y51.8 E67.9245
G1 X68.212 Y51.8 E68.23771
G1 X68.442 Y52.148 E68.24566
G1 X68.454 Y52.15 E68.24589
G1 X51.306 Y52.15 E68.57277
G1 X51.112 Y52.32 E68.57769
G1 X50.932 Y52.5 E68.58254
G1 X68.723 Y52.5 E68.92168
G1 X68.994 Y52.814 E68.92958
G1 X69.033 Y52.85 E68.9306
G1 X50.626 Y52.85 E69.28147
G1 X50.437 Y53.096 E69.28739
G1 X50.366 Y53.2 E69.28979
G1 X69.413 Y53.2 E69.65287
G1 X69.472 Y53.253 E69.65438
G1 X69.705 Y53.486 E69.66066
G1 X69.762 Y53.55 E69.66229
G1 X50.126 Y53.55 E70.0366
G1 X49.998 Y53.751 E70.04114
G1 X49.915 Y53.9 E70.04439
G1 X70.05 Y53.9 E70.42821
G1 X70.079 Y53.938 E70.42912
G1 X70.266 Y54.214 E70.43548
G1 X70.288 Y54.25 E70.43628
G1 X49.738 Y54.25 E70.82801
G1 X49.733 Y54.26 E70.82822
G1 X49.62 Y54.526 E70.83373
G1 X49.595 Y54.6 E70.83522
G1 X70.489 Y54.6 E71.23351
G1 X70.5 Y54.621 E71.23396
G1 X70.662 Y54.95 E71.24095
G1 X49.482 Y54.95 E71.64469
G1 X49.439 Y55.102 E71.6477
G1 X49.398 Y55.3 E71.65155
G1 X70.815 Y55.3 E72.05981
G1 X70.915 Y55.538 E72.06473
G1 X70.953 Y55.65 E72.06698
G1 X49.31 Y55.65 E72.47955
G1 X49.202 Y56 E72.48653
G1 X71.059 Y56 E72.90317
G1 X71.091 Y56.121 E72.90556
G1 X71.138 Y56.35 E72.91001
G1 X49.093 Y56.35 E73.33024
G1 X49.079 Y56.394 E73.33112
G1 X48.932 Y56.7 E73.33759
G1 X71.191 Y56.7 E73.7619
G1 X71.193 Y56.717 E73.76222
G1 X71.216 Y57.015 E73.76792
G1 X71.219 Y57.05 E73.76859
G1 X48.762 Y57.05 E74.19667
G1 X48.667 Y57.246 E74.20082
G1 X48.604 Y57.4 E74.20399
G1 X71.243 Y57.4 E74.63554
G1 X71.26 Y57.659 E74.64049
G1 X71.281 Y57.75 E74.64227
G1 X48.478 Y57.75 E75.07695
G1 X48.456 Y57.813 E75.07822
G1 X48.38 Y58.1 E75.08388
G1 X71.362 Y58.1 E75.52197
G1 X71.442 Y58.45 E75.52881
G1 X48.313 Y58.45 E75.9697
G1 X48.267 Y58.781 E75.97607
G1 X48.266 Y58.8 E75.97643
G1 X71.544 Y58.8 E76.42016
G1 X71.592 Y58.948 E76.42313
G1 X71.645 Y59.15 E76.42711
G1 X48.238 Y59.15 E76.8733
G1 X48.227 Y59.276 E76.87571
G1 X48.216 Y59.5 E76.87999
G1 X71.718 Y59.5 E77.32799
G1 X71.721 Y59.518 E77.32833
G1 X71.762 Y59.838 E77.33448
G1 X71.763 Y59.85 E77.33471
G1 X48.216 Y59.85 E77.78357
G1 X48.237 Y60.179 E77.78986
G1 X48.239 Y60.2 E77.79026
G1 X71.786 Y60.2 E78.23912
G1 X71.788 Y60.398 E78.24289
G1 X71.782 Y60.55 E78.24579
G1 X48.291 Y60.55 E78.69358
G1 X48.337 Y60.783 E78.69811
G1 X48.367 Y60.9 E78.70041
G1 X71.758 Y60.9 E79.14629
G1 X71.733 Y61.223 E79.15247
G1 X71.729 Y61.25 E79.15299
G1 X48.471 Y61.25 E79.59634
G1 X48.518 Y61.389 E79.59914
G1 X48.58 Y61.6 E79.60333
G1 X71.68 Y61.6 E80.04366
G1 X71.62 Y61.898 E80.04946
G1 X71.606 Y61.95 E80.05049
G1 X48.661 Y61.95 E80.48787
G1 X48.728 Y62.3 E80.49466
G1 X71.505 Y62.3 E80.92884
G1 X71.446 Y62.476 E80.93238
G1 X71.374 Y62.65 E80.93597
G1 X48.768 Y62.65 E81.36689
G1 X48.788 Y63 E81.37357
G1 X71.212 Y63 E81.80102
G1 X71.046 Y63.343 E81.80829
G0 F2160 X71.042 Y63.35
G1 F1500 X48.819 Y63.35 E82.23191
G1 X48.841 Y63.519 E82.23516
G1 X48.874 Y63.7 E82.23866
G1 X70.891 Y63.7 E82.65836
G1 X70.783 Y64.05 E82.66534
