;FLAVOR:Marlin
;TIME:10445
;Filament used: 5.1366m
;Layer height: 0.13125
;Generated with Cura_SteamEngine 3.2.1
M190 S55
M104 S210
M109 S210
M82 ;absolute extrusion mode
G21;(metric values)
G90;(absolute positioning)
M82;(set extruder to absolute mode)
M107;(start with the fan off)
G28;(Home the printer)
G92 E0;(Reset the extruder to 0)
G0 Z5 E5 F500;(Move up and prime the nozzle)
G0 X-1 Z0;(Move outside the printable area)
G1 Y60 E8 F500;(Draw a priming/wiping line to the rear)
G1 X-1;(Move a little closer to the print area)
G1 Y10 E16 F500;(draw more priming/wiping)
G1 E15 F250;(Small retract)
G92 E0;(Zero the extruder)
;LAYER_COUNT:396
;LAYER:-7
M107
G0 F2160 X38.085 Y38.912 Z0.306
G1 F1125 X38.465 Y38.574 E0.05176
G1 X38.68 Y38.407 E0.07947
G1 X38.911 Y38.251 E0.10784
G1 X39.179 Y38.093 E0.1395
G1 X39.436 Y37.963 E0.16881
G1 X39.706 Y37.847 E0.19872
G1 X39.962 Y37.755 E0.22641
G1 X40.254 Y37.671 E0.25733
G1 X40.515 Y37.615 E0.2845
G1 X40.835 Y37.567 E0.31743
G1 X41.303 Y37.531 E0.3652
G1 X41.495 Y37.524 E0.38476
G1 X78.672 Y37.528 E4.16848
G1 X79.049 Y37.552 E4.20693
G1 X79.347 Y37.589 E4.23749
G1 X79.631 Y37.644 E4.26694
G1 X79.922 Y37.72 E4.29755
G1 X80.18 Y37.804 E4.32516
G1 X80.459 Y37.915 E4.35572
G1 X80.717 Y38.037 E4.38477
G1 X80.976 Y38.181 E4.41493
G1 X81.195 Y38.32 E4.44133
G1 X81.461 Y38.518 E4.47508
G1 X81.937 Y38.934 E4.53941
G1 X82.275 Y39.314 E4.59117
G1 X82.442 Y39.529 E4.61888
G1 X82.598 Y39.76 E4.64725
G1 X82.756 Y40.028 E4.67891
G1 X82.888 Y40.287 E4.7085
G1 X82.991 Y40.526 E4.73499
G1 X83.096 Y40.818 E4.76657
G1 X83.177 Y41.1 E4.79643
G1 X83.233 Y41.354 E4.8229
G1 X83.282 Y41.684 E4.85686
G1 X83.318 Y42.145 E4.90392
G1 X83.325 Y42.33 E4.92276
G1 X83.321 Y62.922 E7.01853
G1 X83.297 Y63.299 E7.05698
G1 X83.26 Y63.597 E7.08754
G1 X83.205 Y63.881 E7.11698
G1 X83.129 Y64.172 E7.14759
G1 X83.045 Y64.43 E7.17521
G1 X82.934 Y64.709 E7.20577
G1 X82.812 Y64.967 E7.23481
G1 X82.668 Y65.226 E7.26497
G1 X82.529 Y65.445 E7.29137
G1 X82.331 Y65.711 E7.32512
G1 X81.915 Y66.187 E7.38946
G1 X81.537 Y66.523 E7.44094
G1 X81.32 Y66.692 E7.46893
G1 X81.089 Y66.848 E7.4973
G1 X80.821 Y67.006 E7.52896
G1 X80.564 Y67.136 E7.55827
G1 X80.295 Y67.251 E7.58805
G1 X80.024 Y67.349 E7.61738
G1 X79.764 Y67.424 E7.64492
G1 X79.556 Y67.469 E7.66658
G1 X78.911 Y67.653 E7.73484
G1 X78.284 Y67.924 E7.80436
G1 X77.695 Y68.27 E7.87388
G1 X77.156 Y68.688 E7.9433
G1 X76.674 Y69.171 E8.01275
G1 X76.254 Y69.71 E8.0823
G1 X75.907 Y70.299 E8.15187
G1 X75.639 Y70.926 E8.22127
G1 X75.45 Y71.582 E8.29075
G1 X75.346 Y72.254 E8.35996
G1 X75.325 Y72.732 E8.40866
G1 X75.321 Y77.823 E8.9268
G1 X75.297 Y78.2 E8.96525
G1 X75.26 Y78.498 E8.99581
G1 X75.205 Y78.782 E9.02525
G1 X75.129 Y79.073 E9.05586
G1 X75.045 Y79.331 E9.08347
G1 X74.934 Y79.61 E9.11403
G1 X74.812 Y79.868 E9.14308
G1 X74.668 Y80.127 E9.17324
G1 X74.529 Y80.346 E9.19964
G1 X74.331 Y80.612 E9.23339
G1 X73.915 Y81.088 E9.29773
G1 X73.537 Y81.424 E9.3492
G1 X73.32 Y81.593 E9.37719
G1 X73.089 Y81.749 E9.40556
G1 X72.821 Y81.907 E9.43723
G1 X72.564 Y82.037 E9.46654
G1 X72.295 Y82.152 E9.49631
G1 X72.038 Y82.245 E9.52413
G1 X71.746 Y82.329 E9.55505
G1 X71.485 Y82.385 E9.58222
G1 X71.165 Y82.433 E9.61515
G1 X70.697 Y82.469 E9.66293
G1 X70.505 Y82.476 E9.68248
G1 X64.828 Y82.472 E10.26026
G1 X64.451 Y82.448 E10.29871
G1 X64.153 Y82.411 E10.32927
G1 X63.869 Y82.356 E10.35871
G1 X63.578 Y82.28 E10.38932
G1 X63.318 Y82.195 E10.41716
G1 X63.053 Y82.09 E10.44617
G1 X62.768 Y81.955 E10.47827
G1 X62.617 Y81.87 E10.49591
G1 X62.011 Y81.582 E10.56419
G1 X61.362 Y81.368 E10.63374
G1 X60.692 Y81.238 E10.70321
G1 X60.011 Y81.194 E10.77266
G1 X59.329 Y81.236 E10.8422
G1 X58.658 Y81.364 E10.91173
G1 X58.006 Y81.577 E10.98154
G1 X57.865 Y81.646 E10.99751
G1 X57.86 Y81.634 E10.99883
G1 X57.064 Y82.037 E11.08964
G1 X56.795 Y82.152 E11.11941
G1 X56.538 Y82.245 E11.14723
G1 X56.246 Y82.329 E11.17815
G1 X55.985 Y82.385 E11.20532
G1 X55.665 Y82.433 E11.23826
G1 X55.197 Y82.469 E11.28603
G1 X55.005 Y82.476 E11.30558
G1 X49.328 Y82.472 E11.88336
G1 X48.951 Y82.448 E11.92181
G1 X48.653 Y82.411 E11.95237
G1 X48.369 Y82.356 E11.98181
G1 X48.078 Y82.28 E12.01242
G1 X47.818 Y82.195 E12.04026
G1 X47.541 Y82.085 E12.0706
G1 X47.282 Y81.962 E12.09978
G1 X47.024 Y81.819 E12.1298
G1 X46.805 Y81.68 E12.1562
G1 X46.539 Y81.482 E12.18995
G1 X46.063 Y81.066 E12.25429
G1 X45.725 Y80.686 E12.30605
G1 X45.558 Y80.471 E12.33376
G1 X45.399 Y80.235 E12.36272
G1 X45.244 Y79.972 E12.39379
G1 X45.114 Y79.715 E12.4231
G1 X44.998 Y79.445 E12.45301
G1 X44.906 Y79.189 E12.4807
G1 X44.822 Y78.897 E12.51162
G1 X44.766 Y78.636 E12.53879
G1 X44.718 Y78.316 E12.57172
G1 X44.681 Y77.838 E12.62051
G1 X44.675 Y77.67 E12.63762
G1 X44.675 Y72.731 E13.1403
G1 X44.633 Y72.063 E13.20842
G1 X44.504 Y71.392 E13.27796
G1 X44.291 Y70.743 E13.34748
G1 X43.999 Y70.126 E13.41695
G1 X43.631 Y69.551 E13.48643
G1 X43.193 Y69.027 E13.55594
G1 X42.693 Y68.563 E13.62536
G1 X42.137 Y68.164 E13.69501
G1 X41.537 Y67.84 E13.76441
G1 X40.957 Y67.615 E13.82773
G1 X40.959 Y67.609 E13.82837
G1 X40.078 Y67.379 E13.92104
G1 X39.818 Y67.294 E13.94888
G1 X39.541 Y67.184 E13.97922
G1 X39.282 Y67.061 E14.0084
G1 X39.024 Y66.918 E14.03842
G1 X38.805 Y66.779 E14.06482
G1 X38.539 Y66.581 E14.09857
G1 X38.063 Y66.165 E14.16291
G1 X37.725 Y65.785 E14.21467
G1 X37.558 Y65.57 E14.24238
G1 X37.399 Y65.334 E14.27134
G1 X37.244 Y65.071 E14.30241
G1 X37.114 Y64.814 E14.33172
G1 X36.998 Y64.544 E14.36163
G1 X36.906 Y64.288 E14.38931
G1 X36.822 Y63.996 E14.42024
G1 X36.766 Y63.735 E14.44741
G1 X36.718 Y63.415 E14.48034
G1 X36.681 Y62.937 E14.52913
G1 X36.675 Y62.769 E14.54624
G1 X36.679 Y42.177 E16.64201
G1 X36.703 Y41.8 E16.68046
G1 X36.74 Y41.502 E16.71102
G1 X36.795 Y41.218 E16.74046
G1 X36.871 Y40.927 E16.77108
G1 X36.955 Y40.669 E16.79869
G1 X37.066 Y40.39 E16.82925
G1 X37.188 Y40.132 E16.8583
G1 X37.327 Y39.882 E16.88741
G1 X37.479 Y39.644 E16.91615
G1 X37.669 Y39.388 E16.9486
G1 X37.914 Y39.108 E16.98646
G0 F1012.5 X38.085 Y38.912
G0 F2160 X38.4 Y38.631
G1 F2400 E17.01303
G1 F1125 X38.4 Y66.459 E19.84525
G0 F2160 X40 Y67.353
G1 F1125 X40 Y37.744 E22.85874
G0 F2160 X41.6 Y37.525
G1 F1125 X41.6 Y67.874 E25.94754
G0 F2160 X43.2 Y69.035
G1 F1125 X43.2 Y37.525 E29.1545
G0 F2160 X44.8 Y37.525
G1 F1125 X44.8 Y78.794 E33.35469
G0 F2160 X46.4 Y81.36
G1 F1125 X46.4 Y37.525 E37.81604
G0 F2160 X48 Y37.525
G1 F1125 X48 Y82.254 E42.36838
G0 F2160 X49.6 Y82.472
G1 F1125 X49.6 Y37.525 E46.94291
G0 F2160 X51.2 Y37.526
G1 F1125 X51.2 Y82.473 E51.51744
G0 F2160 X52.8 Y82.474
G1 F1125 X52.8 Y37.526 E56.09206
G0 F2160 X54.4 Y37.526
G1 F1125 X54.4 Y82.475 E60.66679
G0 F2160 X56 Y82.382
G1 F1125 X56 Y37.526 E65.23206
G0 F2160 X57.6 Y37.526
G1 F1125 X57.6 Y81.766 E69.73463
G0 F2160 X59.2 Y81.261
G1 F1125 X59.2 Y37.526 E74.1858
G0 F2160 X60.8 Y37.527
G1 F1125 X60.8 Y81.258 E78.63657
G0 F2160 X62.4 Y81.766
G1 F1125 X62.4 Y37.527 E83.13904
G0 F2160 X64 Y37.527
G1 F1125 X64 Y82.381 E87.7041
G0 F2160 X65.6 Y82.472
G1 F1125 X65.6 Y37.527 E92.27842
G0 F2160 X67.2 Y37.527
G1 F1125 X67.2 Y82.473 E96.85285
G0 F2160 X68.8 Y82.474
G1 F1125 X68.8 Y37.527 E101.42737
G0 F2160 X70.4 Y37.528
G1 F1125 X70.4 Y82.475 E106.0019
G0 F2160 X72 Y82.256
G1 F1125 X72 Y37.528 E110.55414
G0 F2160 X73.6 Y37.528
G1 F1125 X73.6 Y81.368 E115.016
G0 F2160 X75.2 Y78.802
G1 F1125 X75.2 Y37.528 E119.2167
G0 F2160 X76.8 Y37.528
G1 F1125 X76.8 Y69.045 E122.42438
G0 F2160 X78.4 Y67.874
G1 F1125 X78.4 Y37.528 E125.51287
G0 F2160 X80 Y37.746
G1 F1125 X80 Y67.356 E128.52646
G0 F2160 X81.6 Y66.467
G1 F1125 X81.6 Y38.64 E131.35858
G0 F2160 X83.2 Y41.205
G1 F1125 X83.2 Y63.901 E133.66849
G0 F2160 X36.8 Y63.893
M104 S205
G1 F1125 X36.8 Y41.198 E135.9783
G0 F2160 X37.355 Y65.358
;TIME_ELAPSED:76.857582
;LAYER:-6
M140 S50
G0 X37.355 Y65.358 Z0.524
;TYPE:SUPPORT
G1 F1125 X37.521 Y65.603 E135.99707
G1 X37.691 Y65.823 E136.01471
G1 X38.034 Y66.207 E136.04738
G1 X38.504 Y66.617 E136.08695
G1 X38.775 Y66.819 E136.10839
G1 X38.975 Y66.945 E136.12339
G1 X37.309 Y65.279 E136.27287
G1 X37.195 Y65.084 E136.2872
G1 X37.072 Y64.845 E136.30425
G1 X36.951 Y64.561 E136.32383
G1 X36.852 Y64.288 E136.34226
G1 X36.775 Y64.019 E136.36001
G1 X36.715 Y63.739 E136.37818
G1 X36.667 Y63.424 E136.39839
G1 X36.662 Y63.361 E136.4024
G1 X40.976 Y67.675 E136.78947
G0 F2160 X41.515 Y67.885
G1 F1125 X42.111 Y68.206 E136.83242
G1 X42.66 Y68.601 E136.87532
G1 X43.156 Y69.06 E136.9182
G1 X43.591 Y69.58 E136.96121
G1 X43.955 Y70.149 E137.00407
G1 X44.245 Y70.761 E137.04703
G1 X44.334 Y71.033 E137.06519
G1 X55.768 Y82.467 E138.09108
G1 X55.989 Y82.435 E138.10525
G1 X56.269 Y82.374 E138.12343
G1 X56.538 Y82.297 E138.14118
G1 X56.781 Y82.208 E138.1576
G1 X36.625 Y62.052 E139.96606
G1 X36.625 Y60.781 E140.04669
G1 X57.643 Y81.799 E141.93249
G1 X57.834 Y81.702 E141.94608
G1 X57.839 Y81.713 E141.94685
G1 X58.025 Y81.622 E141.95998
G1 X58.561 Y81.446 E141.99578
G1 X36.625 Y59.51 E143.96394
G1 X36.626 Y58.239 E144.04458
G1 X59.651 Y81.264 E146.11045
G1 X60.011 Y81.243 E146.13333
G1 X60.686 Y81.286 E146.17624
G1 X61.007 Y81.349 E146.19699
G1 X36.626 Y56.968 E148.38453
G1 X36.626 Y55.696 E148.46523
G1 X63.085 Y82.156 E150.83925
G1 X63.281 Y82.234 E150.85263
G1 X63.566 Y82.327 E150.87165
G1 X63.863 Y82.404 E150.89112
G1 X64.152 Y82.461 E150.90981
G1 X64.442 Y82.496 E150.92834
G1 X64.714 Y82.513 E150.94563
G1 X36.626 Y54.426 E153.46572
G1 X36.626 Y53.154 E153.54642
G1 X65.993 Y82.521 E156.18132
G1 X67.265 Y82.522 E156.26202
G1 X36.626 Y51.883 E159.01104
G1 X36.626 Y50.611 E159.09174
G1 X68.537 Y82.522 E161.95489
G1 X69.81 Y82.524 E162.03565
G1 X36.627 Y49.341 E165.01293
G1 X36.627 Y48.069 E165.09363
G1 X71.048 Y82.491 E168.18203
G1 X71.175 Y82.481 E168.19011
G1 X71.49 Y82.435 E168.21031
G1 X71.769 Y82.373 E168.22844
G1 X72.038 Y82.297 E168.24618
G1 X72.102 Y82.273 E168.25051
G1 X36.627 Y46.798 E171.43343
G1 X36.628 Y45.527 E171.51407
G1 X72.974 Y81.874 E174.77519
G1 X73.099 Y81.8 E174.7844
G1 X73.355 Y81.628 E174.80397
G1 X73.573 Y81.457 E174.82155
G1 X73.708 Y81.337 E174.83301
G1 X36.628 Y44.256 E178.15998
G1 X36.628 Y42.985 E178.24062
G1 X74.331 Y80.688 E181.62344
G1 X74.368 Y80.646 E181.62699
G1 X74.57 Y80.373 E181.64854
G1 X74.712 Y80.147 E181.66547
G1 X74.838 Y79.923 E181.68178
G1 X36.658 Y41.744 E185.10735
G1 X36.688 Y41.502 E185.12282
G1 X36.744 Y41.21 E185.14169
G1 X36.823 Y40.914 E185.16112
G1 X36.891 Y40.705 E185.17507
G1 X75.196 Y79.01 E188.61191
G1 X75.254 Y78.787 E188.62652
G1 X75.31 Y78.495 E188.64539
G1 X75.346 Y78.207 E188.6638
G1 X75.365 Y77.908 E188.68281
G1 X37.294 Y39.837 E192.09865
G1 X37.439 Y39.612 E192.11563
G1 X37.632 Y39.352 E192.13618
G1 X37.84 Y39.112 E192.15633
G1 X75.371 Y76.643 E195.52372
G1 X75.372 Y75.372 E195.60436
G1 X38.49 Y38.49 E198.91352
G1 X38.645 Y38.369 E198.92599
G1 X38.899 Y38.199 E198.94538
G1 X39.153 Y38.048 E198.96413
G1 X39.264 Y37.992 E198.97202
G1 X75.374 Y74.102 E202.21191
G1 X75.374 Y72.831 E202.29255
G1 X40.181 Y37.638 E205.45017
G1 X40.229 Y37.624 E205.45334
G1 X40.509 Y37.563 E205.47152
G1 X40.824 Y37.516 E205.49173
G1 X41.295 Y37.481 E205.52169
G1 X75.485 Y71.671 E208.58932
G1 X75.497 Y71.593 E208.59433
G1 X75.685 Y70.943 E208.63726
G1 X75.788 Y70.702 E208.65389
G1 X42.56 Y37.475 E211.63516
G1 X43.832 Y37.475 E211.71586
G1 X76.221 Y69.864 E214.62189
G1 X76.295 Y69.737 E214.63122
G1 X76.71 Y69.203 E214.67412
G1 X76.771 Y69.143 E214.67955
G1 X45.103 Y37.475 E217.5209
G1 X46.374 Y37.475 E217.60154
G1 X77.434 Y68.534 E220.38829
G1 X77.722 Y68.312 E220.41136
G1 X78.2 Y68.029 E220.4466
G1 X47.646 Y37.475 E223.18799
G1 X48.917 Y37.475 E223.26863
G1 X79.094 Y67.652 E225.9762
G1 X79.568 Y67.516 E226.00749
G1 X79.769 Y67.474 E226.02051
G1 X80.042 Y67.395 E226.03854
G1 X80.091 Y67.377 E226.04186
G1 X50.189 Y37.475 E228.72475
G1 X51.461 Y37.475 E228.80545
G1 X80.964 Y66.979 E231.45259
G1 X81.098 Y66.9 E231.46246
G1 X81.353 Y66.728 E231.48198
G1 X81.573 Y66.558 E231.49962
G1 X81.7 Y66.443 E231.51049
G1 X52.732 Y37.475 E234.10958
G1 X54.003 Y37.475 E234.19022
G1 X82.324 Y65.796 E236.73126
G1 X82.367 Y65.746 E236.73545
G1 X82.568 Y65.473 E236.75695
G1 X82.712 Y65.248 E236.7739
G1 X82.832 Y65.033 E236.78952
G1 X55.275 Y37.475 E239.26206
G1 X56.547 Y37.476 E239.34276
G1 X83.193 Y64.122 E241.73352
G1 X83.254 Y63.887 E241.74892
G1 X83.31 Y63.595 E241.76779
G1 X83.346 Y63.307 E241.7862
G1 X83.365 Y63.023 E241.80426
G1 X57.818 Y37.476 E244.09641
G1 X59.09 Y37.476 E244.17711
G1 X83.371 Y61.757 E246.35568
G1 X83.371 Y60.486 E246.43631
G1 X60.361 Y37.476 E248.50084
G1 X61.632 Y37.476 E248.58147
G1 X83.371 Y59.215 E250.53196
G1 X83.372 Y57.944 E250.6126
G1 X62.904 Y37.476 E252.44905
G1 X64.176 Y37.477 E252.52975
G1 X83.372 Y56.673 E254.25207
G1 X83.372 Y55.401 E254.33277
G1 X65.447 Y37.477 E255.94101
G1 X66.719 Y37.477 E256.02171
G1 X83.372 Y54.131 E257.51591
G1 X83.372 Y52.859 E257.59661
G1 X67.99 Y37.477 E258.97673
G1 X69.261 Y37.477 E259.05737
G1 X83.372 Y51.588 E260.32345
G1 X83.373 Y50.317 E260.40408
G1 X70.533 Y37.477 E261.55613
G1 X71.805 Y37.478 E261.63683
G1 X83.373 Y49.046 E262.67474
G1 X83.373 Y47.774 E262.75544
G1 X73.076 Y37.478 E263.67928
G1 X74.348 Y37.478 E263.75998
G1 X83.373 Y46.503 E264.56973
G1 X83.374 Y45.232 E264.65036
G1 X75.619 Y37.478 E265.34612
G1 X76.89 Y37.478 E265.42676
G1 X83.374 Y43.961 E266.00847
G1 X83.374 Y42.69 E266.08911
G1 X78.162 Y37.478 E266.55675
G1 X78.672 Y37.478 E266.5891
G1 X79.055 Y37.502 E266.61345
G1 X79.346 Y37.538 E266.63205
G1 X79.529 Y37.573 E266.64387
G1 X79.635 Y37.594 E266.65073
G1 X79.933 Y37.672 E266.67027
G1 X80.218 Y37.765 E266.68929
G1 X80.465 Y37.863 E266.70615
G1 X80.745 Y37.997 E266.72585
G1 X80.997 Y38.135 E266.74407
G1 X81.223 Y38.279 E266.76108
G1 X81.495 Y38.48 E266.78253
G1 X81.964 Y38.891 E266.8221
G1 X82.307 Y39.275 E266.85476
G1 X82.478 Y39.494 E266.87239
G1 X82.652 Y39.753 E266.89219
G1 X82.799 Y40.002 E266.91053
G1 X82.93 Y40.26 E266.92889
G1 X83.036 Y40.508 E266.946
G1 X83.147 Y40.819 E266.96695
G1 X83.222 Y41.075 E266.98387
G0 F2160 X83.275 Y41.32
G1 F1125 X79.529 Y37.573 E267.32002
G0 F2160 X44.334 Y71.033
G1 F1125 X44.455 Y71.403 E267.34472
G1 X44.583 Y72.068 E267.38768
G1 X44.614 Y72.585 E267.42054
G1 X54.553 Y82.524 E268.3123
G1 X53.281 Y82.523 E268.393
G1 X44.624 Y73.866 E269.16973
G1 X44.624 Y75.137 E269.25037
G1 X52.009 Y82.522 E269.91297
G1 X50.737 Y82.522 E269.99367
G1 X44.624 Y76.409 E270.54215
G1 X44.624 Y77.669 E270.62209
G1 X44.624 Y77.68 E270.62279
G1 X49.465 Y82.521 E271.05713
G1 X49.325 Y82.521 E271.06602
G1 X48.943 Y82.496 E271.0903
G1 X48.653 Y82.461 E271.10884
G1 X48.362 Y82.405 E271.12764
G1 X48.066 Y82.327 E271.14706
G1 X47.967 Y82.294 E271.15368
G1 X44.849 Y79.176 E271.43343
G0 F2160 X44.853 Y79.188
G1 F1125 X44.952 Y79.463 E271.45198
G1 X45.073 Y79.746 E271.4715
G1 X45.195 Y79.986 E271.48859
G1 X45.355 Y80.258 E271.50861
G1 X45.52 Y80.504 E271.5274
G1 X45.691 Y80.724 E271.54508
G1 X46.034 Y81.108 E271.57774
G1 X46.503 Y81.518 E271.61726
G1 X46.776 Y81.72 E271.63881
G1 X47.002 Y81.863 E271.65578
G1 X47.253 Y82.001 E271.67395
G1 X47.533 Y82.136 E271.69367
G1 X47.781 Y82.234 E271.71059
G1 X47.967 Y82.294 E271.72299
G0 F2160 X36.603 Y64.05
;TIME_ELAPSED:193.436198
;LAYER:-5
G0 X36.603 Y64.05 Z0.655
G1 F1500 X83.393 Y64.05 E272.61491
G1 X83.424 Y63.934 E272.6172
G1 X83.468 Y63.7 E272.62174
G1 X36.531 Y63.7 E273.51646
G1 X36.492 Y63.436 E273.52155
G1 X36.485 Y63.35 E273.52319
G1 X83.516 Y63.35 E274.41971
G1 X83.521 Y63.316 E274.42036
G1 X83.541 Y63 E274.4264
G1 X36.458 Y63 E275.3239
G1 X36.456 Y62.962 E275.32463
G1 X36.449 Y62.769 E275.32831
G1 X36.45 Y62.65 E275.33058
G1 X83.546 Y62.65 E276.22833
G1 X83.546 Y62.3 E276.23501
G1 X36.45 Y62.3 E277.13276
G1 X36.45 Y61.95 E277.13943
G1 X83.546 Y61.95 E278.03719
G1 X83.546 Y61.6 E278.04386
G1 X36.45 Y61.6 E278.94161
G1 X36.45 Y61.25 E278.94828
G1 X83.546 Y61.25 E279.84604
G1 X83.546 Y60.9 E279.85271
G1 X36.45 Y60.9 E280.75046
G1 X36.45 Y60.55 E280.75714
G1 X83.546 Y60.55 E281.65489
G1 X83.546 Y60.2 E281.66156
G1 X36.45 Y60.2 E282.55932
G1 X36.45 Y59.85 E282.56599
G1 X83.546 Y59.85 E283.46374
