;FLAVOR:Marlin
;TIME:7224
;Filament used: 3.89555m
;Layer height: 0.1
;Generated with Cura_SteamEngine 3.2.1
M190 S65
M104 S215
M109 S215
M82 ;absolute extrusion mode
G21;(metric values)
G90;(absolute positioning)
M82;(set extruder to absolute mode)
M107;(start with the fan off)
G28;(Home)
G29 C-0.8 Z0.30;(Level the bed.)
G1 X55 Y0 Z5 F3000;(Move to the outside of the bed.)
G1 E5 F500;(Prime.)
G1 Z0;(Down to printing height.)
G2 X0 Y55 I-55 J0 E20 F3000;(Draw a priming arc.)
G1 E15 F5000;(Small retract)
G92 E0;(zero the extruded length)

;LAYER_COUNT:521
;LAYER:0
M107
G0 F3600 X18.6 Y10.85 Z0.1
;TYPE:SKIRT
G1 F4500 X18.6 Y17.773 E0.10074
G1 X18.56 Y18.565 E0.11228
G1 X18.441 Y19.35 E0.12383
G1 X18.243 Y20.118 E0.13537
G1 X17.968 Y20.863 E0.14693
G1 X17.621 Y21.576 E0.15847
G1 X17.203 Y22.251 E0.17002
G1 X16.72 Y22.88 E0.18156
G1 X16.293 Y23.341 E0.1907
G1 X16.19 Y23.444 E0.19282
G1 X15.602 Y23.977 E0.20437
G1 X14.963 Y24.447 E0.21591
G1 X14.279 Y24.85 E0.22747
G1 X13.559 Y25.183 E0.23901
G1 X12.809 Y25.441 E0.25055
G1 X12.036 Y25.623 E0.26211
G1 X11.25 Y25.726 E0.27364
G1 X10.622 Y25.751 E0.28279
G1 X4.878 Y25.751 E0.36637
G1 X4.086 Y25.711 E0.37791
G1 X3.301 Y25.592 E0.38946
G1 X2.533 Y25.394 E0.401
G1 X1.788 Y25.119 E0.41256
G1 X1.075 Y24.772 E0.4241
G1 X0.4 Y24.354 E0.43565
G1 X0.003 Y24.049 E0.44293
G1 X-.537 Y24.447 E0.4527
G1 X-1.221 Y24.85 E0.46425
G1 X-1.941 Y25.183 E0.47579
G1 X-2.691 Y25.441 E0.48733
G1 X-3.464 Y25.623 E0.49889
G1 X-4.25 Y25.726 E0.51042
G1 X-4.878 Y25.751 E0.51957
G1 X-10.622 Y25.751 E0.60315
G1 X-11.414 Y25.711 E0.61469
G1 X-12.199 Y25.592 E0.62624
G1 X-12.967 Y25.394 E0.63778
G1 X-13.712 Y25.119 E0.64934
G1 X-14.425 Y24.772 E0.66088
G1 X-15.1 Y24.354 E0.67243
G1 X-15.729 Y23.871 E0.68397
G1 X-16.19 Y23.444 E0.69312
G1 X-16.293 Y23.341 E0.69524
G1 X-16.826 Y22.753 E0.70678
G1 X-17.296 Y22.114 E0.71833
G1 X-17.699 Y21.43 E0.72988
G1 X-18.032 Y20.71 E0.74142
G1 X-18.29 Y19.96 E0.75296
G1 X-18.472 Y19.187 E0.76452
G1 X-18.575 Y18.401 E0.77605
G1 X-18.6 Y17.773 E0.7852
G1 X-18.6 Y10.85 E0.88594
G1 X-18.622 Y10.85 E0.88626
G1 X-19.414 Y10.81 E0.8978
G1 X-20.199 Y10.691 E0.90935
G1 X-20.967 Y10.493 E0.92089
G1 X-21.712 Y10.218 E0.93245
G1 X-22.425 Y9.871 E0.94399
G1 X-23.1 Y9.453 E0.95554
G1 X-23.729 Y8.97 E0.96708
G1 X-24.19 Y8.543 E0.97622
G1 X-24.293 Y8.44 E0.97834
G1 X-24.826 Y7.852 E0.98989
G1 X-25.296 Y7.213 E1.00143
G1 X-25.699 Y6.529 E1.01298
G1 X-26.032 Y5.809 E1.02453
G1 X-26.29 Y5.059 E1.03607
G1 X-26.472 Y4.286 E1.04762
G1 X-26.575 Y3.5 E1.05916
G1 X-26.6 Y2.872 E1.06831
G1 X-26.6 Y-17.773 E1.36872
G1 X-26.56 Y-18.565 E1.38026
G1 X-26.441 Y-19.35 E1.39181
G1 X-26.243 Y-20.118 E1.40335
G1 X-25.968 Y-20.863 E1.41491
G1 X-25.621 Y-21.576 E1.42644
G1 X-25.203 Y-22.251 E1.438
G1 X-24.72 Y-22.88 E1.44954
G1 X-24.293 Y-23.341 E1.45868
G1 X-24.19 Y-23.444 E1.4608
G1 X-23.602 Y-23.977 E1.47235
G1 X-22.963 Y-24.447 E1.48389
G1 X-22.279 Y-24.85 E1.49544
G1 X-21.559 Y-25.183 E1.50699
G1 X-20.809 Y-25.441 E1.51853
G1 X-20.036 Y-25.623 E1.53008
G1 X-19.25 Y-25.726 E1.54162
G1 X-18.622 Y-25.751 E1.55076
G1 X18.622 Y-25.751 E2.09271
G1 X19.414 Y-25.711 E2.10425
G1 X20.199 Y-25.592 E2.11581
G1 X20.967 Y-25.394 E2.12735
G1 X21.712 Y-25.119 E2.1389
G1 X22.425 Y-24.772 E2.15044
G1 X23.1 Y-24.354 E2.16199
G1 X23.729 Y-23.871 E2.17353
G1 X24.19 Y-23.444 E2.18268
G1 X24.293 Y-23.341 E2.1848
G1 X24.826 Y-22.753 E2.19635
G1 X25.296 Y-22.114 E2.20789
G1 X25.699 Y-21.43 E2.21944
G1 X26.032 Y-20.71 E2.23098
G1 X26.29 Y-19.96 E2.24252
G1 X26.472 Y-19.187 E2.25408
G1 X26.575 Y-18.401 E2.26562
G1 X26.6 Y-17.773 E2.27476
G1 X26.6 Y2.872 E2.57517
G1 X26.56 Y3.664 E2.58671
G1 X26.441 Y4.449 E2.59827
G1 X26.243 Y5.217 E2.60981
G1 X25.968 Y5.962 E2.62136
G1 X25.621 Y6.675 E2.6329
G1 X25.203 Y7.35 E2.64445
G1 X24.72 Y7.979 E2.65599
G1 X24.293 Y8.44 E2.66514
G1 X24.19 Y8.543 E2.66726
G1 X23.602 Y9.076 E2.6788
G1 X22.963 Y9.546 E2.69035
G1 X22.279 Y9.949 E2.7019
G1 X21.559 Y10.282 E2.71344
G1 X20.809 Y10.54 E2.72498
G1 X20.411 Y10.634 E2.73093
G0 F4050 X20.036 Y10.722
G0 X19.25 Y10.825
G0 X18.622 Y10.85
G0 X18.6 Y10.85
G0 F3600 X18.622 Y10.5
G1 F1950 E2.75753
G1 F4500 X18.25 Y10.5 E2.76295
G1 X18.25 Y17.773 E2.86878
G1 X18.21 Y18.548 E2.88007
G1 X18.091 Y19.314 E2.89135
G1 X17.893 Y20.064 E2.90264
G1 X17.619 Y20.79 E2.91393
G1 X17.272 Y21.483 E2.92521
G1 X16.855 Y22.137 E2.93649
G1 X16.373 Y22.745 E2.94778
G1 X16.046 Y23.094 E2.95474
G1 X15.943 Y23.197 E2.95686
G1 X15.367 Y23.716 E2.96815
G1 X14.741 Y24.174 E2.97943
G1 X14.07 Y24.564 E2.99073
G1 X13.364 Y24.884 E3.002
G1 X12.628 Y25.129 E3.01329
G1 X11.87 Y25.297 E3.02459
G1 X11.1 Y25.386 E3.03587
G1 X10.622 Y25.401 E3.04283
G1 X4.878 Y25.401 E3.12641
G1 X4.103 Y25.361 E3.1377
G1 X3.337 Y25.242 E3.14898
G1 X2.587 Y25.044 E3.16027
G1 X1.861 Y24.77 E3.17156
G1 X1.168 Y24.423 E3.18284
G1 X0.514 Y24.006 E3.19413
G1 X-0.001 Y23.597 E3.2037
G1 X-.133 Y23.716 E3.20628
G1 X-.759 Y24.174 E3.21757
G1 X-1.43 Y24.564 E3.22886
G1 X-2.136 Y24.884 E3.24014
G1 X-2.872 Y25.129 E3.25143
G1 X-3.63 Y25.297 E3.26273
G1 X-4.4 Y25.386 E3.27401
G1 X-4.878 Y25.401 E3.28096
G1 X-10.622 Y25.401 E3.36455
G1 X-11.397 Y25.361 E3.37584
G1 X-12.163 Y25.242 E3.38712
G1 X-12.913 Y25.044 E3.39841
G1 X-13.639 Y24.77 E3.4097
G1 X-14.332 Y24.423 E3.42098
G1 X-14.986 Y24.006 E3.43226
G1 X-15.594 Y23.524 E3.44355
G1 X-15.943 Y23.197 E3.45051
G1 X-16.046 Y23.094 E3.45263
G1 X-16.565 Y22.518 E3.46391
G1 X-17.023 Y21.892 E3.4752
G1 X-17.413 Y21.221 E3.48649
G1 X-17.733 Y20.515 E3.49777
G1 X-17.978 Y19.779 E3.50906
G1 X-18.146 Y19.021 E3.52036
G1 X-18.235 Y18.251 E3.53164
G1 X-18.25 Y17.773 E3.5386
G1 X-18.25 Y10.5 E3.64443
G1 X-18.622 Y10.5 E3.64984
G1 X-19.397 Y10.46 E3.66113
G1 X-20.163 Y10.341 E3.67241
G1 X-20.913 Y10.143 E3.6837
G1 X-21.639 Y9.869 E3.69499
G1 X-22.332 Y9.522 E3.70627
G1 X-22.986 Y9.105 E3.71756
G1 X-23.594 Y8.623 E3.72885
G1 X-23.943 Y8.296 E3.7358
G1 X-24.046 Y8.193 E3.73792
G1 X-24.565 Y7.617 E3.74921
G1 X-25.023 Y6.991 E3.76049
G1 X-25.413 Y6.32 E3.77179
G1 X-25.733 Y5.614 E3.78307
G1 X-25.978 Y4.878 E3.79435
G1 X-26.146 Y4.12 E3.80565
G1 X-26.235 Y3.35 E3.81693
G1 X-26.25 Y2.872 E3.82389
G1 X-26.25 Y-17.773 E4.1243
G1 X-26.21 Y-18.548 E4.13559
G1 X-26.091 Y-19.314 E4.14687
G1 X-25.893 Y-20.064 E4.15816
G1 X-25.619 Y-20.79 E4.16945
G1 X-25.272 Y-21.483 E4.18073
G1 X-24.855 Y-22.137 E4.19202
G1 X-24.373 Y-22.745 E4.20331
G1 X-24.046 Y-23.094 E4.21027
G1 X-23.943 Y-23.197 E4.21239
G1 X-23.367 Y-23.716 E4.22367
G1 X-22.741 Y-24.174 E4.23495
G1 X-22.07 Y-24.564 E4.24625
G1 X-21.364 Y-24.884 E4.25753
G1 X-20.628 Y-25.129 E4.26881
G1 X-19.87 Y-25.297 E4.28011
G1 X-19.1 Y-25.386 E4.29139
G1 X-18.622 Y-25.401 E4.29835
G1 X18.622 Y-25.401 E4.8403
G1 X19.397 Y-25.361 E4.85159
G1 X20.163 Y-25.242 E4.86287
G1 X20.913 Y-25.044 E4.87416
G1 X21.639 Y-24.77 E4.88545
G1 X22.332 Y-24.423 E4.89673
G1 X22.986 Y-24.006 E4.90801
G1 X23.594 Y-23.524 E4.9193
G1 X23.943 Y-23.197 E4.92626
G1 X24.046 Y-23.094 E4.92838
G1 X24.565 Y-22.518 E4.93967
G1 X25.023 Y-21.892 E4.95095
G1 X25.413 Y-21.221 E4.96225
G1 X25.733 Y-20.515 E4.97352
G1 X25.978 Y-19.779 E4.98481
G1 X26.146 Y-19.021 E4.99611
G1 X26.235 Y-18.251 E5.00739
G1 X26.25 Y-17.773 E5.01435
G1 X26.25 Y2.872 E5.31476
G1 X26.21 Y3.647 E5.32605
G1 X26.091 Y4.413 E5.33733
G1 X25.893 Y5.163 E5.34862
G1 X25.619 Y5.889 E5.35991
G1 X25.272 Y6.582 E5.37119
G1 X24.855 Y7.236 E5.38247
G1 X24.373 Y7.844 E5.39376
G1 X24.046 Y8.193 E5.40072
G1 X23.943 Y8.296 E5.40284
G1 X23.367 Y8.815 E5.41413
G1 X22.741 Y9.273 E5.42541
G1 X22.07 Y9.663 E5.43671
G1 X21.364 Y9.983 E5.44799
G1 X20.628 Y10.228 E5.45927
G1 X20.431 Y10.272 E5.46221
G0 F4050 X19.87 Y10.396
G0 X19.1 Y10.485
G0 X18.622 Y10.5
G0 F3600 X18.622 Y10.15
G1 F1950 E5.48881
G1 F4500 X17.9 Y10.15 E5.49932
G1 X17.9 Y17.773 E5.61024
G1 X17.86 Y18.529 E5.62126
G1 X17.741 Y19.277 E5.63228
G1 X17.543 Y20.008 E5.6433
G1 X17.269 Y20.715 E5.65433
G1 X16.923 Y21.388 E5.66534
G1 X16.507 Y22.021 E5.67636
G1 X15.798 Y22.846 E5.69219
G1 X15.695 Y22.949 E5.69431
G1 X15.132 Y23.456 E5.70534
G1 X14.519 Y23.9 E5.71635
G1 X13.862 Y24.278 E5.72738
G1 X13.17 Y24.584 E5.73839
G1 X12.448 Y24.815 E5.74942
G1 X11.707 Y24.969 E5.76044
G1 X10.622 Y25.051 E5.77627
G1 X4.878 Y25.051 E5.85985
G1 X4.122 Y25.011 E5.87087
G1 X3.374 Y24.892 E5.88189
G1 X2.643 Y24.694 E5.89291
G1 X1.936 Y24.42 E5.90394
G1 X1.263 Y24.074 E5.91495
G1 X0.63 Y23.658 E5.92598
G1 X0.005 Y23.12 E5.93798
G1 X-.368 Y23.456 E5.94528
G1 X-.981 Y23.9 E5.95629
G1 X-1.638 Y24.278 E5.96732
G1 X-2.33 Y24.584 E5.97833
G1 X-3.052 Y24.815 E5.98937
G1 X-3.793 Y24.969 E6.00038
G1 X-4.878 Y25.051 E6.01621
G1 X-10.622 Y25.051 E6.09979
G1 X-11.378 Y25.011 E6.11081
G1 X-12.126 Y24.892 E6.12183
G1 X-12.857 Y24.694 E6.13285
G1 X-13.564 Y24.42 E6.14388
G1 X-14.237 Y24.074 E6.1549
G1 X-14.87 Y23.658 E6.16592
G1 X-15.695 Y22.949 E6.18175
G1 X-15.798 Y22.846 E6.18387
G1 X-16.305 Y22.283 E6.19489
G1 X-16.749 Y21.67 E6.20591
G1 X-17.127 Y21.013 E6.21694
G1 X-17.433 Y20.321 E6.22795
G1 X-17.664 Y19.599 E6.23898
G1 X-17.818 Y18.858 E6.24999
G1 X-17.9 Y17.773 E6.26582
G1 X-17.9 Y10.15 E6.37675
G1 X-18.622 Y10.15 E6.38725
G1 X-19.378 Y10.11 E6.39827
G1 X-20.126 Y9.991 E6.40929
G1 X-20.857 Y9.793 E6.42031
G1 X-21.564 Y9.519 E6.43134
G1 X-22.237 Y9.173 E6.44236
G1 X-22.87 Y8.757 E6.45338
G1 X-23.695 Y8.048 E6.46921
G1 X-23.798 Y7.945 E6.47133
G1 X-24.305 Y7.382 E6.48235
G1 X-24.749 Y6.769 E6.49336
G1 X-25.127 Y6.112 E6.50439
G1 X-25.433 Y5.42 E6.5154
G1 X-25.664 Y4.698 E6.52643
G1 X-25.818 Y3.957 E6.53745
G1 X-25.9 Y2.872 E6.55328
G1 X-25.9 Y-17.773 E6.85369
G1 X-25.86 Y-18.529 E6.86471
G1 X-25.741 Y-19.277 E6.87573
G1 X-25.543 Y-20.008 E6.88675
G1 X-25.269 Y-20.715 E6.89778
G1 X-24.923 Y-21.388 E6.9088
G1 X-24.507 Y-22.021 E6.91982
G1 X-23.798 Y-22.846 E6.93565
G1 X-23.695 Y-22.949 E6.93777
G1 X-23.132 Y-23.456 E6.94879
G1 X-22.519 Y-23.9 E6.9598
G1 X-21.862 Y-24.278 E6.97083
G1 X-21.17 Y-24.584 E6.98184
G1 X-20.448 Y-24.815 E6.99287
G1 X-19.707 Y-24.969 E7.00389
G1 X-18.622 Y-25.051 E7.01972
G1 X18.622 Y-25.051 E7.56167
G1 X19.378 Y-25.011 E7.57269
G1 X20.126 Y-24.892 E7.58371
G1 X20.857 Y-24.694 E7.59473
G1 X21.564 Y-24.42 E7.60576
G1 X22.237 Y-24.074 E7.61677
G1 X22.87 Y-23.658 E7.62779
G1 X23.695 Y-22.949 E7.64362
G1 X23.798 Y-22.846 E7.64574
G1 X24.305 Y-22.283 E7.65677
G1 X24.749 Y-21.67 E7.66778
G1 X25.127 Y-21.013 E7.67881
G1 X25.433 Y-20.321 E7.68982
G1 X25.664 Y-19.599 E7.70085
G1 X25.818 Y-18.858 E7.71186
G1 X25.9 Y-17.773 E7.7277
G1 X25.9 Y2.872 E8.02811
G1 X25.86 Y3.628 E8.03913
G1 X25.741 Y4.376 E8.05015
G1 X25.543 Y5.107 E8.06117
G1 X25.269 Y5.814 E8.0722
G1 X24.923 Y6.487 E8.08321
G1 X24.507 Y7.12 E8.09423
G1 X23.798 Y7.945 E8.11006
G1 X23.695 Y8.048 E8.11218
G1 X23.132 Y8.555 E8.12321
G1 X22.519 Y8.999 E8.13422
G1 X21.862 Y9.377 E8.14525
G1 X21.17 Y9.683 E8.15626
G1 X20.448 Y9.914 E8.16729
G1 X20.432 Y9.918 E8.16753
G0 F4050 X19.707 Y10.068
G0 X18.622 Y10.15
G0 F3600 X18.622 Y9.8
G1 F1950 E8.19413
G1 F4500 X17.55 Y9.8 E8.20973
G1 X17.55 Y17.773 E8.32575
G1 X17.51 Y18.511 E8.3365
G1 X17.391 Y19.239 E8.34724
G1 X17.193 Y19.951 E8.35799
G1 X16.92 Y20.637 E8.36873
G1 X16.574 Y21.29 E8.37949
G1 X16.16 Y21.902 E8.39024
G1 X15.551 Y22.599 E8.40371
G1 X15.448 Y22.702 E8.40583
G1 X14.898 Y23.195 E8.41657
G1 X14.298 Y23.626 E8.42732
G1 X13.655 Y23.99 E8.43808
G1 X12.977 Y24.282 E8.44882
G1 X12.271 Y24.499 E8.45957
G1 X11.545 Y24.638 E8.47032
G1 X10.622 Y24.701 E8.48378
G1 X4.878 Y24.701 E8.56737
G1 X4.14 Y24.661 E8.57812
G1 X3.412 Y24.542 E8.58886
G1 X2.7 Y24.344 E8.59961
G1 X2.014 Y24.071 E8.61035
G1 X1.361 Y23.725 E8.62111
G1 X0.749 Y23.311 E8.63186
G1 X0.052 Y22.702 E8.64533
G1 X0.00 Y22.65 E8.6464
G1 X-0.052 Y22.702 E8.64747
G1 X-.602 Y23.195 E8.65821
G1 X-1.202 Y23.626 E8.66896
G1 X-1.845 Y23.99 E8.67972
G1 X-2.523 Y24.282 E8.69046
G1 X-3.229 Y24.499 E8.7012
G1 X-3.955 Y24.638 E8.71196
G1 X-4.878 Y24.701 E8.72542
G1 X-10.622 Y24.701 E8.80901
G1 X-11.36 Y24.661 E8.81976
G1 X-12.088 Y24.542 E8.83049
G1 X-12.8 Y24.344 E8.84125
G1 X-13.486 Y24.071 E8.85199
G1 X-14.139 Y23.725 E8.86275
G1 X-14.751 Y23.311 E8.8735
G1 X-15.448 Y22.702 E8.88697
G1 X-15.551 Y22.599 E8.88908
G1 X-16.044 Y22.049 E8.89983
G1 X-16.475 Y21.449 E8.91058
G1 X-16.839 Y20.806 E8.92133
G1 X-17.131 Y20.128 E8.93208
G1 X-17.348 Y19.422 E8.94282
G1 X-17.487 Y18.696 E8.95358
G1 X-17.55 Y17.773 E8.96704
G1 X-17.55 Y9.8 E9.08306
G1 X-18.622 Y9.8 E9.09866
G1 X-19.36 Y9.76 E9.10941
G1 X-20.088 Y9.641 E9.12015
G1 X-20.8 Y9.443 E9.1309
G1 X-21.486 Y9.17 E9.14164
G1 X-22.139 Y8.824 E9.1524
G1 X-22.751 Y8.41 E9.16315
G1 X-23.448 Y7.801 E9.17662
G1 X-23.551 Y7.698 E9.17874
G1 X-24.044 Y7.148 E9.18948
G1 X-24.475 Y6.548 E9.20023
G1 X-24.839 Y5.905 E9.21099
G1 X-25.131 Y5.227 E9.22173
G1 X-25.348 Y4.521 E9.23248
G1 X-25.487 Y3.795 E9.24323
G1 X-25.55 Y2.872 E9.25669
G1 X-25.55 Y-17.773 E9.55711
G1 X-25.51 Y-18.511 E9.56786
G1 X-25.391 Y-19.239 E9.57859
G1 X-25.193 Y-19.951 E9.58935
G1 X-24.92 Y-20.637 E9.60009
G1 X-24.574 Y-21.29 E9.61085
G1 X-24.16 Y-21.902 E9.6216
G1 X-23.551 Y-22.599 E9.63507
G1 X-23.448 Y-22.702 E9.63718
G1 X-22.898 Y-23.195 E9.64793
G1 X-22.298 Y-23.626 E9.65868
G1 X-21.655 Y-23.99 E9.66943
G1 X-20.977 Y-24.282 E9.68018
G1 X-20.271 Y-24.499 E9.69092
G1 X-19.545 Y-24.638 E9.70168
G1 X-18.622 Y-24.701 E9.71514
G1 X18.622 Y-24.701 E10.25709
G1 X19.36 Y-24.661 E10.26785
G1 X20.088 Y-24.542 E10.27858
G1 X20.8 Y-24.344 E10.28933
G1 X21.486 Y-24.071 E10.30008
G1 X22.139 Y-23.725 E10.31083
G1 X22.751 Y-23.311 E10.32158
G1 X23.448 Y-22.702 E10.33505
G1 X23.551 Y-22.599 E10.33717
G1 X24.044 Y-22.049 E10.34792
G1 X24.475 Y-21.449 E10.35867
G1 X24.839 Y-20.806 E10.36942
G1 X25.131 Y-20.128 E10.38016
G1 X25.348 Y-19.422 E10.39091
G1 X25.487 Y-18.696 E10.40166
G1 X25.55 Y-17.773 E10.41513
G1 X25.55 Y2.872 E10.71554
G1 X25.51 Y3.61 E10.72629
G1 X25.391 Y4.338 E10.73703
G1 X25.193 Y5.05 E10.74778
G1 X24.92 Y5.736 E10.75852
G1 X24.574 Y6.389 E10.76928
G1 X24.16 Y7.001 E10.78003
G1 X23.551 Y7.698 E10.7935
G1 X23.448 Y7.801 E10.79562
G1 X22.898 Y8.294 E10.80637
G1 X22.298 Y8.725 E10.81711
G1 X21.655 Y9.089 E10.82787
G1 X20.977 Y9.381 E10.83861
G1 X20.427 Y9.55 E10.84698
G0 F4050 X20.271 Y9.598
G0 X19.545 Y9.737
G0 X18.622 Y9.8
G0 F3600 X18.622 Y9.45
G1 F1950 E10.87358
G1 F4500 X17.2 Y9.45 E10.89427
G1 X17.2 Y17.773 E11.01538
G1 X17.16 Y18.491 E11.02585
G1 X17.041 Y19.201 E11.03632
G1 X16.843 Y19.893 E11.0468
G1 X16.57 Y20.558 E11.05726
G1 X16.225 Y21.19 E11.06773
G1 X15.812 Y21.779 E11.0782
G1 X15.304 Y22.352 E11.08934
G1 X15.201 Y22.455 E11.09146
G1 X14.664 Y22.934 E11.10194
G1 X14.078 Y23.351 E11.1124
G1 X13.449 Y23.701 E11.12288
G1 X12.786 Y23.979 E11.13334
G1 X12.095 Y24.181 E11.14381
G1 X11.387 Y24.306 E11.15427
G1 X10.622 Y24.351 E11.16543
G1 X4.878 Y24.351 E11.24901
G1 X4.16 Y24.311 E11.25947
G1 X3.45 Y24.192 E11.26995
G1 X2.758 Y23.994 E11.28042
G1 X2.093 Y23.721 E11.29088
G1 X1.461 Y23.376 E11.30136
G1 X0.872 Y22.963 E11.31183
G1 X0.299 Y22.455 E11.32297
G1 X0.196 Y22.352 E11.32509
G1 X-0.001 Y22.132 E11.32939
G1 X-.196 Y22.352 E11.33366
G1 X-.299 Y22.455 E11.33578
G1 X-.836 Y22.934 E11.34625
G1 X-1.422 Y23.351 E11.35672
G1 X-2.051 Y23.701 E11.36719
G1 X-2.714 Y23.979 E11.37766
G1 X-3.405 Y24.181 E11.38813
G1 X-4.113 Y24.306 E11.39859
G1 X-4.878 Y24.351 E11.40974
G1 X-10.622 Y24.351 E11.49333
G1 X-11.34 Y24.311 E11.50379
G1 X-12.05 Y24.192 E11.51427
G1 X-12.742 Y23.994 E11.52474
G1 X-13.407 Y23.721 E11.5352
G1 X-14.039 Y23.376 E11.54568
G1 X-14.628 Y22.963 E11.55615
G1 X-15.201 Y22.455 E11.56729
G1 X-15.304 Y22.352 E11.56941
G1 X-15.783 Y21.815 E11.57988
G1 X-16.2 Y21.229 E11.59034
G1 X-16.55 Y20.6 E11.60082
G1 X-16.828 Y19.937 E11.61128
G1 X-17.03 Y19.246 E11.62176
G1 X-17.155 Y18.538 E11.63222
G1 X-17.2 Y17.773 E11.64337
G1 X-17.2 Y9.45 E11.76448
G1 X-18.622 Y9.45 E11.78517
G1 X-19.34 Y9.41 E11.79564
G1 X-20.05 Y9.291 E11.80611
G1 X-20.742 Y9.093 E11.81658
G1 X-21.407 Y8.82 E11.82704
G1 X-22.039 Y8.475 E11.83752
G1 X-22.628 Y8.062 E11.84799
G1 X-23.201 Y7.554 E11.85913
G1 X-23.304 Y7.451 E11.86125
